/* XPM */
static char * collect_xpm[] = {
"100 100 1744 2",
"  	c #D2D9E5",
". 	c #DBE2EB",
"+ 	c #E5EAF1",
"@ 	c #EEF3F9",
"# 	c #F2F7FB",
"$ 	c #F3F8FC",
"% 	c #F9FBFE",
"& 	c #F4F9FD",
"* 	c #E7F0F4",
"= 	c #E5EDF2",
"- 	c #E2EAEE",
"; 	c #EEF5F8",
"> 	c #E9EFF3",
", 	c #F1F3F7",
"' 	c #E9ECEF",
") 	c #EFF8FB",
"! 	c #EBF2F6",
"~ 	c #DDE6EA",
"{ 	c #DDE8EB",
"] 	c #E3EDF1",
"^ 	c #DDE6ED",
"/ 	c #DBE4EC",
"( 	c #D8E0EA",
"_ 	c #CDD5E1",
": 	c #BCC7D8",
"< 	c #ADBACF",
"[ 	c #A4B3CA",
"} 	c #9FAFC7",
"| 	c #98ADC8",
"1 	c #98918E",
"2 	c #6B5139",
"3 	c #786453",
"4 	c #968C84",
"5 	c #A7A4A6",
"6 	c #A0B0C7",
"7 	c #9DADC6",
"8 	c #9CA5B3",
"9 	c #A4ABB6",
"0 	c #999799",
"a 	c #7C7C7D",
"b 	c #A29E9C",
"c 	c #B6BDC6",
"d 	c #BBC9D8",
"e 	c #CCD7E2",
"f 	c #E2E9ED",
"g 	c #E9F1F5",
"h 	c #ECF4F7",
"i 	c #EDF4F7",
"j 	c #CED8E3",
"k 	c #D7DFE7",
"l 	c #DCE5EC",
"m 	c #E5EEF3",
"n 	c #F2F6FA",
"o 	c #DEE9EC",
"p 	c #D9E3E6",
"q 	c #D6E5E8",
"r 	c #DAE5EA",
"s 	c #E1E9EF",
"t 	c #DCE6EE",
"u 	c #D3DBE6",
"v 	c #BEC8D7",
"w 	c #B1BFD1",
"x 	c #A8B6CC",
"y 	c #A1B0C8",
"z 	c #99AEC8",
"A 	c #716C69",
"B 	c #502E12",
"C 	c #633A15",
"D 	c #775737",
"E 	c #876748",
"F 	c #927457",
"G 	c #937A64",
"H 	c #937558",
"I 	c #7A6758",
"J 	c #7B5E43",
"K 	c #675343",
"L 	c #63564D",
"M 	c #939496",
"N 	c #B9C6D6",
"O 	c #C3D0DD",
"P 	c #D4DFE9",
"Q 	c #DEE8EE",
"R 	c #E8EFF4",
"S 	c #E6EFF3",
"T 	c #EAF1F6",
"U 	c #CDD8E3",
"V 	c #D3DDE5",
"W 	c #DAE0E7",
"X 	c #E2EAF0",
"Y 	c #E1E7EB",
"Z 	c #D6E2E5",
"` 	c #DDE8EC",
" .	c #DCE7EB",
"..	c #E1EBF0",
"+.	c #DBE5EC",
"@.	c #CDD7E1",
"#.	c #C1CBD8",
"$.	c #B6C3D4",
"%.	c #ACBCD0",
"&.	c #A0B1C9",
"*.	c #584637",
"=.	c #4B2405",
"-.	c #5A2D09",
";.	c #723D12",
">.	c #864A15",
",.	c #8C5420",
"'.	c #874D20",
").	c #89522C",
"!.	c #8C593B",
"~.	c #845E48",
"{.	c #7E6155",
"].	c #756F6C",
"^.	c #A2A5A7",
"/.	c #C6D1DE",
"(.	c #D1DBE6",
"_.	c #DAE4EB",
":.	c #D4DDE6",
"<.	c #D6DFE6",
"[.	c #DBE2E7",
"}.	c #E0E8EC",
"|.	c #DBE6EA",
"1.	c #D5DFE5",
"2.	c #C8D7DF",
"3.	c #C4D0DC",
"4.	c #BAC7D7",
"5.	c #AFBED1",
"6.	c #A7B7CD",
"7.	c #A9BACC",
"8.	c #929BA7",
"9.	c #52351B",
"0.	c #421D03",
"a.	c #471F04",
"b.	c #592C10",
"c.	c #6C3E20",
"d.	c #784B31",
"e.	c #7D533F",
"f.	c #825F50",
"g.	c #847068",
"h.	c #877A78",
"i.	c #918F8E",
"j.	c #BBC2C8",
"k.	c #D0DBE4",
"l.	c #D9E2EA",
"m.	c #E0E7ED",
"n.	c #E3ECF1",
"o.	c #E1E9ED",
"p.	c #DDE5ED",
"q.	c #DCE6ED",
"r.	c #DCE3E8",
"s.	c #DFE5EA",
"t.	c #E4ECF2",
"u.	c #DBE5E9",
"v.	c #D1DEE2",
"w.	c #CCD8DF",
"x.	c #C3D2DC",
"y.	c #BBC9D7",
"z.	c #B8C3D3",
"A.	c #A9B9CE",
"B.	c #A9B8CB",
"C.	c #978D85",
"D.	c #532C0B",
"E.	c #49270A",
"F.	c #3B1D04",
"G.	c #44220F",
"H.	c #4A2E22",
"I.	c #5F3C34",
"J.	c #674B46",
"K.	c #76625C",
"L.	c #81726F",
"M.	c #8E8988",
"N.	c #9B9A9A",
"O.	c #BBB6B5",
"P.	c #D2D9DF",
"Q.	c #D5DFE8",
"R.	c #E9F0F4",
"S.	c #E6EFF4",
"T.	c #E2E9F0",
"U.	c #E8EEF3",
"V.	c #EAF1F5",
"W.	c #EEF7FA",
"X.	c #D5E1E7",
"Y.	c #D2DCE5",
"Z.	c #C8D3DF",
"`.	c #BDC9D8",
" +	c #B0BED0",
".+	c #ACBCCE",
"++	c #887F78",
"@+	c #64340B",
"#+	c #582805",
"$+	c #53280F",
"%+	c #502F1D",
"&+	c #5E3931",
"*+	c #684F48",
"=+	c #7E655E",
"-+	c #8E7C78",
";+	c #9D9290",
">+	c #A9A6A6",
",+	c #B7B9B9",
"'+	c #D2D4D4",
")+	c #E4E8ED",
"!+	c #E3E7EC",
"~+	c #EBF3F6",
"{+	c #E0EAF0",
"]+	c #EAEFF4",
"^+	c #E4EDF2",
"/+	c #DFE9EE",
"(+	c #D7E0E8",
"_+	c #CDD8E2",
":+	c #C1CDDA",
"<+	c #B4C3D3",
"[+	c #B1BBC8",
"}+	c #898079",
"|+	c #5C3B21",
"1+	c #705946",
"2+	c #776455",
"3+	c #756962",
"4+	c #8A827E",
"5+	c #A29A96",
"6+	c #B5B2B2",
"7+	c #C2C1C3",
"8+	c #CED1D4",
"9+	c #DEDFE3",
"0+	c #E6EEF2",
"a+	c #E5EEF2",
"b+	c #E1E9EE",
"c+	c #DAE3EB",
"d+	c #E2EBF0",
"e+	c #E3EBF1",
"f+	c #EEF7FB",
"g+	c #E8F0F4",
"h+	c #D9E3EA",
"i+	c #C9D5E0",
"j+	c #B7C5D4",
"k+	c #888079",
"l+	c #653714",
"m+	c #563D27",
"n+	c #988E87",
"o+	c #AFB5BE",
"p+	c #ACB2BC",
"q+	c #B4B1AF",
"r+	c #B8B3B0",
"s+	c #C5C2C1",
"t+	c #D1D2D4",
"u+	c #DADEE2",
"v+	c #E2E6E9",
"w+	c #E9EDF2",
"x+	c #E6EDF1",
"y+	c #EDF4F8",
"z+	c #E1EAEF",
"A+	c #E7EEF3",
"B+	c #F3F8FD",
"C+	c #EFF4F8",
"D+	c #E6EEF3",
"E+	c #D9E1E8",
"F+	c #CBD6E0",
"G+	c #B8C7D4",
"H+	c #B5C3D2",
"I+	c #B0BFD0",
"J+	c #643C1B",
"K+	c #ADBCCE",
"L+	c #B0BFCF",
"M+	c #B7C4D3",
"N+	c #C4CDDA",
"O+	c #D3D8DD",
"P+	c #DCE3EB",
"Q+	c #E9ECF0",
"R+	c #F0F2F6",
"S+	c #F4F6FA",
"T+	c #F1F7FB",
"U+	c #E7F1F5",
"V+	c #E4ECF1",
"W+	c #EFF3F8",
"X+	c #E9EEF4",
"Y+	c #D8E0E8",
"Z+	c #CDD6E0",
"`+	c #C2CBD8",
" @	c #B6C1D2",
".@	c #7A542F",
"+@	c #A5ACB7",
"@@	c #B5C0D1",
"#@	c #B3C2D2",
"$@	c #BCC9D7",
"%@	c #C9D2DE",
"&@	c #D9E0E9",
"*@	c #E3E9F0",
"=@	c #EEF2F6",
"-@	c #F4F7FA",
";@	c #F7F9FD",
">@	c #F8FAFE",
",@	c #D3DEE2",
"'@	c #F8FAFD",
")@	c #F0F5FA",
"!@	c #EAF0F5",
"~@	c #DDE2EA",
"{@	c #C5CEDB",
"]@	c #BBC6D5",
"^@	c #99928F",
"/@	c #78583A",
"(@	c #AEB8C5",
"_@	c #B6C1D1",
":@	c #BDC7D6",
"<@	c #C6CFDC",
"[@	c #CFD7E2",
"}@	c #DFE6ED",
"|@	c #EDF0F5",
"1@	c #EDF1F6",
"2@	c #F0F4F8",
"3@	c #F1F5FA",
"4@	c #F2F7FC",
"5@	c #F3F6FA",
"6@	c #EBEFF5",
"7@	c #DBE1EA",
"8@	c #CED6E2",
"9@	c #C3CCDA",
"0@	c #BCC3CA",
"a@	c #B6C0D2",
"b@	c #826145",
"c@	c #B8BEC6",
"d@	c #B9C3D4",
"e@	c #C0CAD8",
"f@	c #CCD4E0",
"g@	c #D7DDE6",
"h@	c #E2E5EC",
"i@	c #ECF2F7",
"j@	c #F1F6FB",
"k@	c #F1F5F9",
"l@	c #F6F8FC",
"m@	c #F1F4F8",
"n@	c #E8EDF3",
"o@	c #D8DFE9",
"p@	c #C8D1DD",
"q@	c #C4CFDD",
"r@	c #A59D9A",
"s@	c #B9BFC7",
"t@	c #BDC8D7",
"u@	c #C3CDDA",
"v@	c #D1D9E4",
"w@	c #DAE3EA",
"x@	c #EFF4F9",
"y@	c #EFF2F6",
"z@	c #EFF5F9",
"A@	c #E1E8EF",
"B@	c #D2D9E4",
"C@	c #C4CEDC",
"D@	c #C1CDDC",
"E@	c #BEC9DA",
"F@	c #BCC8D8",
"G@	c #7A6757",
"H@	c #BFC4CD",
"I@	c #BEC9D8",
"J@	c #C6D1DD",
"K@	c #D4DCE6",
"L@	c #DCE4EB",
"M@	c #EAF2F6",
"N@	c #E9F0F5",
"O@	c #F0F5F9",
"P@	c #F0F6FA",
"Q@	c #EAEFF5",
"R@	c #E9EDF3",
"S@	c #DBE3EB",
"T@	c #CCD5E0",
"U@	c #B8C2D3",
"V@	c #BCC8D9",
"W@	c #BBC7D8",
"X@	c #715E4E",
"Y@	c #BFCAD9",
"Z@	c #CAD4E0",
"`@	c #DDE6EC",
" #	c #ECF3F6",
".#	c #E3EBF0",
"+#	c #EBF0F5",
"@#	c #E4E8EE",
"##	c #DEE5ED",
"$#	c #D3DBE5",
"%#	c #C4CEDB",
"&#	c #BBC5D5",
"*#	c #C5CDDD",
"=#	c #B4BFD0",
"-#	c #C3CCDC",
";#	c #A59D99",
">#	c #BAC0C7",
",#	c #C3CEDA",
"'#	c #CBD5E0",
")#	c #D3DCE5",
"!#	c #DEE6ED",
"~#	c #E3EAEF",
"{#	c #F1F6FA",
"]#	c #EDF3F8",
"^#	c #E5E9EF",
"/#	c #D9DFE7",
"(#	c #CED6E1",
"_#	c #BECAD8",
":#	c #BBC7D6",
"<#	c #C4CAD5",
"[#	c #BECAD9",
"}#	c #6F5742",
"|#	c #BAC0C8",
"1#	c #C3CEDD",
"2#	c #CDD7E3",
"3#	c #D7E0E9",
"4#	c #DDE4EC",
"5#	c #E0E8EF",
"6#	c #E7EDF2",
"7#	c #EDF5F8",
"8#	c #EEF2F7",
"9#	c #F0F3F7",
"0#	c #ECF0F6",
"a#	c #E6ECF2",
"b#	c #DFE7EE",
"c#	c #D4DBE3",
"d#	c #D0D8E4",
"e#	c #CDD5E2",
"f#	c #C8D0DF",
"g#	c #BCC8D6",
"h#	c #C2C5CC",
"i#	c #98928F",
"j#	c #D1D9E5",
"k#	c #D2DDE7",
"l#	c #E2EBF1",
"m#	c #F3F9FD",
"n#	c #EDEFF4",
"o#	c #EFF3F7",
"p#	c #EBF1F7",
"q#	c #E6EBF0",
"r#	c #E0E4EA",
"s#	c #D6DCE4",
"t#	c #D1D6DE",
"u#	c #CBD3E1",
"v#	c #C1CCDB",
"w#	c #C5CEDD",
"x#	c #C5CBD5",
"y#	c #868688",
"z#	c #7C5938",
"A#	c #C5C8CF",
"B#	c #C9D2E0",
"C#	c #CFD7E3",
"D#	c #D9E1EA",
"E#	c #E8EFF3",
"F#	c #F0F4F9",
"G#	c #E7EDF1",
"H#	c #E7ECF0",
"I#	c #E6ECF0",
"J#	c #EDF1F5",
"K#	c #EBEFF2",
"L#	c #E1E5EB",
"M#	c #DCDCDE",
"N#	c #D9D7D8",
"O#	c #D0D6DF",
"P#	c #CCCFD8",
"Q#	c #CBCED6",
"R#	c #CACDD6",
"S#	c #715D4C",
"T#	c #C6CCD7",
"U#	c #C9CFD9",
"V#	c #CDD6E2",
"W#	c #D7DFE9",
"X#	c #E0E9EF",
"Y#	c #E0E8ED",
"Z#	c #DCE5EA",
"`#	c #ECF3F7",
" $	c #E4EDF1",
".$	c #E6EDF2",
"+$	c #E5ECF2",
"@$	c #EAEEF2",
"#$	c #E1E6E8",
"$$	c #DEE0E1",
"%$	c #E3E4E7",
"&$	c #D7D7D8",
"*$	c #CFCECE",
"=$	c #D1CCC8",
"-$	c #CEC7C1",
";$	c #B4AFAD",
">$	c #A8A099",
",$	c #C9C2BC",
"'$	c #BAB1AC",
")$	c #B19374",
"!$	c #B6A697",
"~$	c #CAC9CB",
"{$	c #CCD0D8",
"]$	c #D3D3D4",
"^$	c #D1CDCD",
"/$	c #97704A",
"($	c #C7D0DE",
"_$	c #CCD4E1",
":$	c #DBE1E8",
"<$	c #E3ECF2",
"[$	c #DFE7ED",
"}$	c #E2EAF1",
"|$	c #E3EBF2",
"1$	c #E9E4E2",
"2$	c #DDD8D5",
"3$	c #CAC7C6",
"4$	c #BEBFC0",
"5$	c #C3BEBC",
"6$	c #B5B0AF",
"7$	c #B0A6A3",
"8$	c #B29B91",
"9$	c #978881",
"0$	c #7D736D",
"a$	c #785F53",
"b$	c #695647",
"c$	c #6B4F36",
"d$	c #955D29",
"e$	c #88592A",
"f$	c #B6ACA6",
"g$	c #947C66",
"h$	c #D4D7DB",
"i$	c #CED6E4",
"j$	c #CDD5E4",
"k$	c #D3DEE9",
"l$	c #D5DEE7",
"m$	c #E4EBF0",
"n$	c #E7EEF4",
"o$	c #DEE7EE",
"p$	c #DFE7EF",
"q$	c #DEE7EF",
"r$	c #DCD5D0",
"s$	c #CFC1B8",
"t$	c #C3B5AF",
"u$	c #AAA4A5",
"v$	c #B3A39C",
"w$	c #BA9F94",
"x$	c #9A8E8A",
"y$	c #A68C7F",
"z$	c #CD9673",
"A$	c #956A5E",
"B$	c #7B5A4C",
"C$	c #8A4F37",
"D$	c #965325",
"E$	c #632F12",
"F$	c #622C07",
"G$	c #784516",
"H$	c #927558",
"I$	c #CBCED7",
"J$	c #D1D8E5",
"K$	c #D6D9DD",
"L$	c #D3DDE9",
"M$	c #D6E0EA",
"N$	c #DBE2E9",
"O$	c #E2E9EF",
"P$	c #E7EFF4",
"Q$	c #E8EEF2",
"R$	c #DDE6EE",
"S$	c #D9E2EC",
"T$	c #DCE3EC",
"U$	c #D8DBDD",
"V$	c #B0A39B",
"W$	c #A3928D",
"X$	c #9A908E",
"Y$	c #A18D87",
"Z$	c #AC8B7C",
"`$	c #947A72",
" %	c #826C67",
".%	c #987965",
"+%	c #B07B56",
"@%	c #8C5540",
"#%	c #A86434",
"$%	c #D47D2D",
"%%	c #C77A2B",
"&%	c #733B0C",
"*%	c #531D00",
"=%	c #69360A",
"-%	c #896A4D",
";%	c #AAA8AA",
">%	c #ACA7A4",
",%	c #D7D9DB",
"'%	c #DEE1E5",
")%	c #E4E7E9",
"!%	c #E4EBF1",
"~%	c #EEF3F8",
"{%	c #F2F8FC",
"]%	c #E7EAEE",
"^%	c #DAE3E9",
"/%	c #DDE4ED",
"(%	c #D7E1EA",
"_%	c #D7DFEA",
":%	c #C8C5C1",
"<%	c #867B76",
"[%	c #7E6E6C",
"}%	c #86726B",
"|%	c #877067",
"1%	c #7D645E",
"2%	c #896355",
"3%	c #855B4A",
"4%	c #75503F",
"5%	c #6B4132",
"6%	c #864524",
"7%	c #D47C2A",
"8%	c #D88838",
"9%	c #D47A21",
"0%	c #975517",
"a%	c #915010",
"b%	c #B97328",
"c%	c #833C09",
"d%	c #B26615",
"e%	c #A55B15",
"f%	c #554539",
"g%	c #725849",
"h%	c #A09790",
"i%	c #A7A09A",
"j%	c #BFBBB9",
"k%	c #E6EAEE",
"l%	c #EBEFF3",
"m%	c #EEF4F9",
"n%	c #F0F6FB",
"o%	c #DAE4EA",
"p%	c #DAE1EA",
"q%	c #BCA894",
"r%	c #8C6959",
"s%	c #B07A54",
"t%	c #90634B",
"u%	c #845A43",
"v%	c #AE7549",
"w%	c #D7893B",
"x%	c #C87931",
"y%	c #935626",
"z%	c #7A502D",
"A%	c #895A2E",
"B%	c #B96816",
"C%	c #CC7318",
"D%	c #C7741A",
"E%	c #894914",
"F%	c #5E3F29",
"G%	c #91613F",
"H%	c #6E5C55",
"I%	c #958276",
"J%	c #A09894",
"K%	c #C4C3C3",
"L%	c #DCDFE2",
"M%	c #E9EDF1",
"N%	c #DBE3E9",
"O%	c #D3DDE4",
"P%	c #D8E1E8",
"Q%	c #B8B5B4",
"R%	c #8D7464",
"S%	c #AA6A42",
"T%	c #C87F3C",
"U%	c #965428",
"V%	c #965223",
"W%	c #E8972F",
"X%	c #E8962C",
"Y%	c #E89628",
"Z%	c #AA5915",
"`%	c #944C0B",
" &	c #88470B",
".&	c #EC8F16",
"+&	c #783B09",
"@&	c #AC6D36",
"#&	c #755141",
"$&	c #8C6E5F",
"%&	c #998278",
"&&	c #999594",
"*&	c #AFADAD",
"=&	c #CBCAC9",
"-&	c #D9DADC",
";&	c #E9EAEC",
">&	c #DDE6EB",
",&	c #D7E1E8",
"'&	c #9B9EA0",
")&	c #7F6359",
"!&	c #BA7036",
"~&	c #C77623",
"{&	c #944D13",
"]&	c #9A530D",
"^&	c #E89524",
"/&	c #D48C29",
"(&	c #D6831A",
"_&	c #AA580D",
":&	c #9B561B",
"<&	c #7D492E",
"[&	c #714E43",
"}&	c #97715F",
"|&	c #847673",
"1&	c #9A908D",
"2&	c #A6A3A3",
"3&	c #B3B4B6",
"4&	c #C9C8CA",
"5&	c #DFE0E4",
"6&	c #EBEEF4",
"7&	c #DBDFE2",
"8&	c #A69F99",
"9&	c #896959",
"0&	c #BB7035",
"a&	c #D47B25",
"b&	c #D78429",
"c&	c #AA6827",
"d&	c #593616",
"e&	c #79471C",
"f&	c #7C4820",
"g&	c #6B4531",
"h&	c #835D47",
"i&	c #705E58",
"j&	c #937B70",
"k&	c #9B8983",
"l&	c #969596",
"m&	c #A5A6A8",
"n&	c #B9BBBC",
"o&	c #E6EDF3",
"p&	c #F5F7FB",
"q&	c #BAB9B7",
"r&	c #8B8582",
"s&	c #816A5C",
"t&	c #A3673A",
"u&	c #A55C1B",
"v&	c #593009",
"w&	c #562F1D",
"x&	c #593F31",
"y&	c #5A483E",
"z&	c #7F6457",
"A&	c #917367",
"B&	c #897B79",
"C&	c #958C89",
"D&	c #9B9A9B",
"E&	c #A9ABAB",
"F&	c #C7C7C7",
"G&	c #E5E8EE",
"H&	c #F5F8FC",
"I&	c #DEE2E5",
"J&	c #A7A6A5",
"K&	c #8C8381",
"L&	c #715E59",
"M&	c #5D382F",
"N&	c #632F11",
"O&	c #522404",
"P&	c #542B15",
"Q&	c #4A2F24",
"R&	c #674A3A",
"S&	c #85604C",
"T&	c #69605A",
"U&	c #837469",
"V&	c #8C7F7A",
"W&	c #8E8A8B",
"X&	c #9B9D9E",
"Y&	c #BDBAB9",
"Z&	c #DFE0E3",
"`&	c #E6EAF1",
" *	c #DCDEDE",
".*	c #B3ADA9",
"+*	c #978982",
"@*	c #746058",
"#*	c #704732",
"$*	c #925217",
"%*	c #F7A42D",
"&*	c #B36D27",
"**	c #542F13",
"=*	c #4F321F",
"-*	c #51382A",
";*	c #503B33",
">*	c #685346",
",*	c #7E6356",
"'*	c #786864",
")*	c #89807B",
"!*	c #908D8C",
"~*	c #A5A5A7",
"{*	c #C9C9CA",
"]*	c #E9EEF5",
"^*	c #E5EBF0",
"/*	c #D7D9DA",
"(*	c #B3ABA8",
"_*	c #A48A81",
":*	c #796056",
"<*	c #9A5F35",
"[*	c #CA8239",
"}*	c #8B521B",
"|*	c #99632C",
"1*	c #6B421A",
"2*	c #442205",
"3*	c #45250F",
"4*	c #432A1B",
"5*	c #533629",
"6*	c #634534",
"7*	c #5E4B42",
"8*	c #705D53",
"9*	c #756A66",
"0*	c #827F7C",
"a*	c #949494",
"b*	c #D2D2D0",
"c*	c #E8F0F6",
"d*	c #E5ECF1",
"e*	c #E1E7EC",
"f*	c #D3D5D7",
"g*	c #ADA8A7",
"h*	c #9C8983",
"i*	c #746159",
"j*	c #A3673B",
"k*	c #D7852C",
"l*	c #ED9530",
"m*	c #6B3D13",
"n*	c #4B2A0C",
"o*	c #482A18",
"p*	c #4A3224",
"q*	c #4D3529",
"r*	c #644D42",
"s*	c #665B56",
"t*	c #777473",
"u*	c #A49F9A",
"v*	c #EBEEF0",
"w*	c #E9EEF3",
"x*	c #EBF3F7",
"y*	c #ECF2F6",
"z*	c #CFD2D5",
"A*	c #AAA8A8",
"B*	c #998A86",
"C*	c #76645D",
"D*	c #884D34",
"E*	c #CC741D",
"F*	c #7A420C",
"G*	c #43250A",
"H*	c #5C330D",
"I*	c #482D14",
"J*	c #341B05",
"K*	c #3D220F",
"L*	c #492D22",
"M*	c #4C3D36",
"N*	c #635851",
"O*	c #7A7775",
"P*	c #BEBFC2",
"Q*	c #DEE4EC",
"R*	c #D7E5E8",
"S*	c #DFE9ED",
"T*	c #E1EAEE",
"U*	c #DBE0E4",
"V*	c #ACABAB",
"W*	c #8E8887",
"X*	c #776761",
"Y*	c #8E5738",
"Z*	c #C77927",
"`*	c #392116",
" =	c #4C3E35",
".=	c #605856",
"+=	c #7C7C7C",
"@=	c #B8B7B8",
"#=	c #DCE3EA",
"$=	c #E2E8ED",
"%=	c #D7E2E6",
"&=	c #E4EAF0",
"*=	c #B9B5B4",
"==	c #908E8E",
"-=	c #756864",
";=	c #6E493D",
">=	c #793F19",
",=	c #3A2A1F",
"'=	c #494340",
")=	c #6C6968",
"!=	c #939292",
"~=	c #D6DADD",
"{=	c #EEF4F8",
"]=	c #E7ECEF",
"^=	c #BAB6B5",
"/=	c #979292",
"(=	c #7B6A67",
"_=	c #58443F",
":=	c #412A1F",
"<=	c #3A1E09",
"[=	c #372515",
"}=	c #42362F",
"|=	c #615B59",
"1=	c #838283",
"2=	c #B6B8B8",
"3=	c #E2E7EB",
"4=	c #B4B5B5",
"5=	c #A89894",
"6=	c #957B70",
"7=	c #664F45",
"8=	c #664125",
"9=	c #331E0A",
"0=	c #3E2005",
"a=	c #3C2212",
"b=	c #4D382B",
"c=	c #61554F",
"d=	c #7A7777",
"e=	c #A4A7A8",
"f=	c #EAEEF1",
"g=	c #EBF1F6",
"h=	c #DDE5E9",
"i=	c #D9DCDD",
"j=	c #B3B3B4",
"k=	c #AD9F9A",
"l=	c #A58576",
"m=	c #6D5248",
"n=	c #8D582C",
"o=	c #35210C",
"p=	c #4F3929",
"q=	c #594E4A",
"r=	c #767271",
"s=	c #9D9B9B",
"t=	c #E1E3E5",
"u=	c #ECF1F6",
"v=	c #D6DCDF",
"w=	c #B6B6B7",
"x=	c #AD9F9C",
"y=	c #957E76",
"z=	c #6E584D",
"A=	c #774528",
"B=	c #944E14",
"C=	c #855D35",
"D=	c #945C25",
"E=	c #523D2D",
"F=	c #584A46",
"G=	c #706E6C",
"H=	c #909090",
"I=	c #C0C3C6",
"J=	c #EAEEF3",
"K=	c #E4EBEF",
"L=	c #E1EBEE",
"M=	c #E0E6EA",
"N=	c #B8B9B9",
"O=	c #A49B9B",
"P=	c #8A7B76",
"Q=	c #665550",
"R=	c #593527",
"S=	c #7B4414",
"T=	c #784D25",
"U=	c #5D3D25",
"V=	c #59473F",
"W=	c #6D6968",
"X=	c #8C8C8D",
"Y=	c #AFB1B3",
"Z=	c #E3E8EC",
"`=	c #E7EDF3",
" -	c #C3C5C4",
".-	c #9A9A9B",
"+-	c #7A7677",
"@-	c #635550",
"#-	c #4E362B",
"$-	c #513118",
"%-	c #341602",
"&-	c #56321B",
"*-	c #5B463C",
"=-	c #696565",
"--	c #8B8B8C",
";-	c #A4A8AB",
">-	c #DCE1E5",
",-	c #EBF0F4",
"'-	c #EAEFF3",
")-	c #D8DBDA",
"!-	c #A2A0A0",
"~-	c #837D7C",
"{-	c #6D5D56",
"]-	c #5A4234",
"^-	c #361B0C",
"/-	c #3C230C",
"(-	c #442B13",
"_-	c #3D2210",
":-	c #493B36",
"<-	c #636060",
"[-	c #868787",
"}-	c #A6A9AB",
"|-	c #C9CBCC",
"1-	c #EDF3F5",
"2-	c #F4F9FC",
"3-	c #F7FAFD",
"4-	c #DDDEDE",
"5-	c #AFAAA8",
"6-	c #918581",
"7-	c #756057",
"8-	c #7E593D",
"9-	c #5B3012",
"0-	c #2B1504",
"a-	c #402510",
"b-	c #463632",
"c-	c #605D5C",
"d-	c #858485",
"e-	c #A7A8A9",
"f-	c #BFC3C5",
"g-	c #E7EEF1",
"h-	c #F4F8FC",
"i-	c #D8D9DA",
"j-	c #ACA9A7",
"k-	c #918784",
"l-	c #6C5D58",
"m-	c #724D35",
"n-	c #2D1906",
"o-	c #462610",
"p-	c #463932",
"q-	c #746860",
"r-	c #868383",
"s-	c #A5A6A7",
"t-	c #BEC1C4",
"u-	c #E0E4E6",
"v-	c #EFF5F8",
"w-	c #E9E9EB",
"x-	c #ABA9A8",
"y-	c #8E8482",
"z-	c #6B5E5A",
"A-	c #5E4133",
"B-	c #513119",
"C-	c #2C1A0A",
"D-	c #463B34",
"E-	c #73675F",
"F-	c #818181",
"G-	c #A5A8A9",
"H-	c #BCC0C3",
"I-	c #D7DCE0",
"J-	c #F5F9FC",
"K-	c #F7F9FC",
"L-	c #BEBCBB",
"M-	c #878383",
"N-	c #665C5A",
"O-	c #463832",
"P-	c #3C2313",
"Q-	c #371C0E",
"R-	c #4A3A33",
"S-	c #6A625C",
"T-	c #848485",
"U-	c #A0A3A5",
"V-	c #B6BBBF",
"W-	c #D5DBDE",
"X-	c #F6F9FB",
"Y-	c #ECE9E7",
"Z-	c #928C89",
"`-	c #523C32",
" ;	c #453832",
".;	c #5E5A59",
"+;	c #7E7F80",
"@;	c #9CA0A2",
"#;	c #B5BBBF",
"$;	c #D8DDDF",
"%;	c #E6EDF0",
"&;	c #EAECEE",
"*;	c #8C8988",
"=;	c #6D625C",
"-;	c #634837",
";;	c #4B2B13",
">;	c #674829",
",;	c #553B23",
"';	c #684A2C",
");	c #544135",
"!;	c #5B5756",
"~;	c #7C7A7A",
"{;	c #9FA0A0",
"];	c #B9BFC1",
"^;	c #E7EBEB",
"/;	c #F1F9FB",
"(;	c #E3E9EC",
"_;	c #ECF1F5",
":;	c #EFF3F6",
"<;	c #DDDFE0",
"[;	c #858280",
"};	c #635954",
"|;	c #534033",
"1;	c #4A301A",
"2;	c #643C1A",
"3;	c #4F3B30",
"4;	c #615956",
"5;	c #86807D",
"6;	c #9FA0A1",
"7;	c #B9BFC2",
"8;	c #E8E9EB",
"9;	c #F5FAFD",
"0;	c #EFF4F6",
"a;	c #F3F6F8",
"b;	c #D8DADC",
"c;	c #848281",
"d;	c #5A5450",
"e;	c #42362C",
"f;	c #3E2714",
"g;	c #3A2B1C",
"h;	c #4A2A13",
"i;	c #4B3A33",
"j;	c #695F5B",
"k;	c #858181",
"l;	c #9C9FA1",
"m;	c #B5BBBE",
"n;	c #E3E6E9",
"o;	c #F2F4F8",
"p;	c #EDF2F5",
"q;	c #F3F8FA",
"r;	c #F6FBFC",
"s;	c #CDCCC9",
"t;	c #908881",
"u;	c #6E645D",
"v;	c #42352C",
"w;	c #2F1F13",
"x;	c #362617",
"y;	c #2E1B0F",
"z;	c #423935",
"A;	c #6A6260",
"B;	c #888989",
"C;	c #A0A5A8",
"D;	c #B6BCBF",
"E;	c #E0E5E7",
"F;	c #F3F7FA",
"G;	c #F5F9FD",
"H;	c #F1F7F9",
"I;	c #F2F6F9",
"J;	c #F2F6F8",
"K;	c #C7C1BA",
"L;	c #9E8C7E",
"M;	c #84766A",
"N;	c #6C523B",
"O;	c #6E5947",
"P;	c #684D34",
"Q;	c #241304",
"R;	c #281609",
"S;	c #281A10",
"T;	c #3E3937",
"U;	c #676363",
"V;	c #878688",
"W;	c #ABACAE",
"X;	c #C0C5C8",
"Y;	c #E3E7E9",
"Z;	c #EDF3F7",
"`;	c #E8F1F4",
" >	c #F6FAFD",
".>	c #F1F5F7",
"+>	c #C3BCB4",
"@>	c #A29080",
"#>	c #AE855F",
"$>	c #9E7651",
"%>	c #9C734A",
"&>	c #A57C53",
"*>	c #79532C",
"=>	c #4C331B",
"->	c #32241A",
";>	c #45403D",
">>	c #676666",
",>	c #8D8E8F",
"'>	c #ACACAF",
")>	c #CACCCF",
"!>	c #EDF1F3",
"~>	c #E5ECF0",
"{>	c #DEE7EB",
"]>	c #F4F8FA",
"^>	c #F0F1EF",
"/>	c #BDB5AC",
"(>	c #BA987A",
"_>	c #B78F68",
":>	c #B4885B",
"<>	c #C48D53",
"[>	c #B38657",
"}>	c #CC9355",
"|>	c #DFA15B",
"1>	c #BA8349",
"2>	c #996938",
"3>	c #8B633A",
"4>	c #2A1B0F",
"5>	c #2E231D",
"6>	c #484240",
"7>	c #6C6969",
"8>	c #939293",
"9>	c #B2B4B7",
"0>	c #D6DCDD",
"a>	c #F2F4F7",
"b>	c #F4F7FB",
"c>	c #F8FBFD",
"d>	c #F2F3F0",
"e>	c #C1B0A0",
"f>	c #D3A87D",
"g>	c #CD9862",
"h>	c #CC9458",
"i>	c #EAAA63",
"j>	c #F9C568",
"k>	c #E7A55B",
"l>	c #B47D45",
"m>	c #1F0E04",
"n>	c #34271E",
"o>	c #4D4744",
"p>	c #706E6E",
"q>	c #979697",
"r>	c #B4B6B9",
"s>	c #DBE1E4",
"t>	c #EEF4F7",
"u>	c #F4F4F2",
"v>	c #BFAD9B",
"w>	c #D4A87B",
"x>	c #CD9760",
"y>	c #D79957",
"z>	c #F0B56D",
"A>	c #F9C875",
"B>	c #F6D17B",
"C>	c #F3AA56",
"D>	c #E19D55",
"E>	c #D8934A",
"F>	c #B77939",
"G>	c #A56E35",
"H>	c #956D44",
"I>	c #4B3623",
"J>	c #403228",
"K>	c #514C4A",
"L>	c #767575",
"M>	c #979A9B",
"N>	c #B6BABC",
"O>	c #DDE3E6",
"P>	c #EBF2F5",
"Q>	c #EFF6F8",
"R>	c #F2F2EF",
"S>	c #BEAB98",
"T>	c #D9A471",
"U>	c #D89C5E",
"V>	c #EAAA64",
"W>	c #F6B869",
"X>	c #FDE38E",
"Y>	c #F7B659",
"Z>	c #F3A84C",
"`>	c #D68D44",
" ,	c #C58849",
".,	c #2D2017",
"+,	c #433730",
"@,	c #5A5553",
"#,	c #797B7B",
"$,	c #989C9F",
"%,	c #D4DEE2",
"&,	c #E2EAEF",
"*,	c #ECF5F8",
"=,	c #F0F6F9",
"-,	c #F3F7F9",
";,	c #EAE8E5",
">,	c #D2A884",
",,	c #D4A573",
"',	c #D79B5C",
"),	c #E8943B",
"!,	c #5C432A",
"~,	c #301F11",
"{,	c #413936",
"],	c #5D5B5C",
"^,	c #7D7F7F",
"/,	c #A1A3A5",
"(,	c #CAD3D6",
"_,	c #DBE3EA",
":,	c #E7EEF2",
"<,	c #EDF3F6",
"[,	c #EEF3F6",
"},	c #F0F5F6",
"|,	c #E4E2DF",
"1,	c #B9A38E",
"2,	c #CE9A67",
"3,	c #D79A5A",
"4,	c #FBE9A8",
"5,	c #E89946",
"6,	c #312017",
"7,	c #463C39",
"8,	c #676563",
"9,	c #848586",
"0,	c #CBCED1",
"a,	c #E2E9EE",
"b,	c #E7EFF3",
"c,	c #E8F1F5",
"d,	c #EAF2F5",
"e,	c #EBF1F5",
"f,	c #EBF2F3",
"g,	c #F1F4F6",
"h,	c #E2E0DD",
"i,	c #BB997B",
"j,	c #C69362",
"k,	c #D79A59",
"l,	c #F5A849",
"m,	c #A9733B",
"n,	c #936434",
"o,	c #8B6137",
"p,	c #544C46",
"q,	c #6E6C6A",
"r,	c #8E8F90",
"s,	c #E0E3E7",
"t,	c #F1F5F8",
"u,	c #F0F6F8",
"v,	c #E2E8EC",
"w,	c #E0EAED",
"x,	c #E7EFF1",
"y,	c #ECF2F4",
"z,	c #F2F6F7",
"A,	c #E2E0DC",
"B,	c #BA9676",
"C,	c #C5925F",
"D,	c #FBEDB0",
"E,	c #A97946",
"F,	c #372B23",
"G,	c #4E4948",
"H,	c #757372",
"I,	c #C9C8C5",
"J,	c #F2F8FA",
"K,	c #DFEAED",
"L,	c #EDF2F6",
"M,	c #F6F9FA",
"N,	c #E5E1DE",
"O,	c #AD8C6F",
"P,	c #CE9459",
"Q,	c #C67D35",
"R,	c #3A2E23",
"S,	c #382E29",
"T,	c #67605E",
"U,	c #D2D2D5",
"V,	c #F3F5F7",
"W,	c #EDF1F4",
"X,	c #EFF5F7",
"Y,	c #EAF0F4",
"Z,	c #F1F6F9",
"`,	c #F9FBFC",
" '	c #E4E1DD",
".'	c #AC8A6C",
"+'	c #C68B50",
"@'	c #D79956",
"#'	c #E38D36",
"$'	c #493728",
"%'	c #443324",
"&'	c #392A1D",
"*'	c #443D39",
"='	c #706C6D",
"-'	c #F5F7FA",
";'	c #EFF4F7",
">'	c #F5F8FA",
",'	c #FAFBFC",
"''	c #EAE6E1",
")'	c #A38062",
"!'	c #BB854E",
"~'	c #362C25",
"{'	c #46403C",
"]'	c #858281",
"^'	c #E1E7ED",
"/'	c #EFF0F3",
"('	c #E8EDF1",
"_'	c #987E67",
":'	c #B57F49",
"<'	c #F9D787",
"['	c #3B3128",
"}'	c #382F29",
"|'	c #868381",
"1'	c #CBCFD7",
"2'	c #D6DAE0",
"3'	c #E3E6EA",
"4'	c #E7EDF4",
"5'	c #E8EFF2",
"6'	c #DBE4E7",
"7'	c #E2EBEE",
"8'	c #EAE6E0",
"9'	c #987E66",
"0'	c #BB844D",
"a'	c #FBE499",
"b'	c #48423E",
"c'	c #878584",
"d'	c #BCC1C9",
"e'	c #CBD0D6",
"f'	c #DBDEE3",
"g'	c #E3E9EE",
"h'	c #F5F8F9",
"i'	c #FBFDFE",
"j'	c #F4F2EC",
"k'	c #988270",
"l'	c #BA844B",
"m'	c #F1CB86",
"n'	c #F9DC94",
"o'	c #D29D61",
"p'	c #878583",
"q'	c #ABB4BE",
"r'	c #BDC5CD",
"s'	c #CFD6DC",
"t'	c #DCE3E7",
"u'	c #EEF3F7",
"v'	c #F2F7F9",
"w'	c #F9F9FB",
"x'	c #FBFBFC",
"y'	c #F5F2EC",
"z'	c #98816E",
"A'	c #A97A48",
"B'	c #CD904E",
"C'	c #4E4844",
"D'	c #8A8B8D",
"E'	c #A5AEB8",
"F'	c #BCC4CC",
"G'	c #D0D7DD",
"H'	c #F8FAFC",
"I'	c #FCFDFE",
"J'	c #F3F4F7",
"K'	c #B39679",
"L'	c #3F342B",
"M'	c #53504F",
"N'	c #91979E",
"O'	c #ACB2BB",
"P'	c #C4CAD3",
"Q'	c #D3DADF",
"R'	c #DAE3E8",
"S'	c #F2F7FA",
"T'	c #F5F9FA",
"U'	c #FBFCFD",
"V'	c #F8F8F9",
"W'	c #B39678",
"X'	c #966E46",
"Y'	c #41372E",
"Z'	c #5B5653",
"`'	c #97A0AA",
" )	c #B4BBC5",
".)	c #C9CFD7",
"+)	c #DADFE4",
"@)	c #DCE4E9",
"#)	c #ECEEF1",
"$)	c #F0F5F8",
"%)	c #F1F6F8",
"&)	c #FBFDFD",
"*)	c #FDFDFE",
"=)	c #AF9E8D",
"-)	c #3D3835",
";)	c #3F3733",
">)	c #9DA5B0",
",)	c #BAC1CB",
"')	c #CFD5DD",
"))	c #DDE1E7",
"!)	c #E8EBEF",
"~)	c #EAF1F4",
"{)	c #F2F5F8",
"])	c #C9B5A2",
"^)	c #996A3B",
"/)	c #494543",
"()	c #727070",
"_)	c #B0B6C5",
":)	c #BCC4CB",
"<)	c #D8DCE2",
"[)	c #E5EAF0",
"})	c #F5F8FB",
"|)	c #F4F9FA",
"1)	c #F7FAFC",
"2)	c #FAFCFD",
"3)	c #CFC9C0",
"4)	c #946537",
"5)	c #3D342C",
"6)	c #504C4B",
"7)	c #8A8887",
"8)	c #ACB3BB",
"9)	c #CBCFD6",
"0)	c #DFE3E8",
"a)	c #E7ECF1",
"b)	c #F7FBFD",
"c)	c #FCFCFD",
"d)	c #D3D1D0",
"e)	c #D68E46",
"f)	c #E7A55C",
"g)	c #F6B86A",
"h)	c #F9D788",
"i)	c #F9DC95",
"j)	c #3B322D",
"k)	c #545150",
"l)	c #96999F",
"m)	c #D0D4DB",
"n)	c #DEE3E9",
"o)	c #F8FBFC",
"p)	c #E9E4DF",
"q)	c #8F745E",
"r)	c #997554",
"s)	c #B68251",
"t)	c #D79150",
"u)	c #E2A05F",
"v)	c #EAAC6A",
"w)	c #F1CC8A",
"x)	c #F1CC89",
"y)	c #F1CC88",
"z)	c #F1CB87",
"A)	c #F3AB59",
"B)	c #E89948",
"C)	c #F3AA57",
"D)	c #DFA15C",
"E)	c #C5894B",
"F)	c #CC9456",
"G)	c #99642F",
"H)	c #936537",
"I)	c #8C643D",
"J)	c #7A552F",
"K)	c #4D3927",
"L)	c #463628",
"M)	c #3C2E21",
"N)	c #3C3127",
"O)	c #3F3833",
"P)	c #5C5A59",
"Q)	c #9CA5AF",
"R)	c #BBC1CA",
"S)	c #CFD5DB",
"T)	c #E3E7ED",
"U)	c #F6F8FB",
"V)	c #F7FAFB",
"W)	c #F0F3F6",
"X)	c #A7998D",
"Y)	c #A8876F",
"Z)	c #B38969",
"`)	c #BB8E6A",
" !	c #D19D6D",
".!	c #EBB37B",
"+!	c #F6BE7E",
"@!	c #F1CF93",
"#!	c #F0BA7D",
"$!	c #F1CE90",
"%!	c #F1CD8E",
"&!	c #E89F5A",
"*!	c #E89E57",
"=!	c #F3AB5A",
"-!	c #E89D55",
";!	c #D79152",
">!	c #E39147",
",!	c #D5803B",
"'!	c #D79252",
")!	c #E89D54",
"!!	c #D89D61",
"~!	c #BC8855",
"{!	c #BC8856",
"]!	c #AB7F53",
"^!	c #976D47",
"/!	c #976D48",
"(!	c #876850",
"_!	c #5D4739",
":!	c #604B3D",
"<!	c #58493D",
"[!	c #584538",
"}!	c #483F38",
"|!	c #4B413A",
"1!	c #53473E",
"2!	c #504A48",
"3!	c #777576",
"4!	c #ADB4BE",
"5!	c #C2C7CF",
"6!	c #D3D9E1",
"7!	c #E4E7EC",
"8!	c #F5F9FB",
"9!	c #C8BDB1",
"0!	c #B4A297",
"a!	c #C1A594",
"b!	c #C8A58E",
"c!	c #DDAD8C",
"d!	c #E5B58F",
"e!	c #F0C498",
"f!	c #F5C593",
"g!	c #F5C591",
"h!	c #F0C190",
"i!	c #F1D29F",
"j!	c #E9AA78",
"k!	c #E9A974",
"l!	c #E9A871",
"m!	c #E8A56E",
"n!	c #D99765",
"o!	c #D99763",
"p!	c #D78E5E",
"q!	c #D99C6B",
"r!	c #E2A975",
"s!	c #D0A176",
"t!	c #CA996F",
"u!	c #BF8E69",
"v!	c #A67F64",
"w!	c #B38A6A",
"x!	c #A18067",
"y!	c #9B7E68",
"z!	c #9A7D67",
"A!	c #967965",
"B!	c #806E62",
"C!	c #72655E",
"D!	c #6E6560",
"E!	c #6D6661",
"F!	c #68635F",
"G!	c #66625F",
"H!	c #686563",
"I!	c #65615F",
"J!	c #6D6C6C",
"K!	c #989797",
"L!	c #BAC1CA",
"M!	c #CDD1D8",
"N!	c #DDE2E7",
"O!	c #D5D7D5",
"P!	c #C2C0BD",
"Q!	c #C9C2BD",
"R!	c #D0C0B7",
"S!	c #D5C1B4",
"T!	c #E2C5B2",
"U!	c #EDCBB1",
"V!	c #EFD0B3",
"W!	c #EDCAAE",
"X!	c #EDC8AB",
"Y!	c #EFCCAB",
"Z!	c #EABB9B",
"`!	c #E7B495",
" ~	c #EBB896",
".~	c #EAB792",
"+~	c #DDAB8C",
"@~	c #DCA988",
"#~	c #DCA887",
"$~	c #DFB290",
"%~	c #E5B794",
"&~	c #D0A98D",
"*~	c #D0AC91",
"=~	c #B09A8B",
"-~	c #B29686",
";~	c #B29E90",
">~	c #A99488",
",~	c #AC988C",
"'~	c #AA978A",
")~	c #A09087",
"!~	c #948D89",
"~~	c #8E8684",
"{~	c #8F8987",
"]~	c #8C8987",
"^~	c #858382",
"/~	c #8A8888",
"(~	c #8B8989",
"_~	c #8D8E90",
":~	c #AFB7BF",
"<~	c #C1C8CF",
"[~	c #D5DAE0",
"}~	c #E6EAF0",
"|~	c #EFF1F6",
"1~	c #E6EAEC",
"2~	c #D8DADB",
"3~	c #DBDBDA",
"4~	c #DED9D7",
"5~	c #E0D6D3",
"6~	c #E5D7D0",
"7~	c #EBDBD1",
"8~	c #EFDCD0",
"9~	c #EED9CC",
"0~	c #ECD9C9",
"a~	c #EED8C8",
"b~	c #EBCEBD",
"c~	c #E9CCBC",
"d~	c #EDCDBB",
"e~	c #E3C4B4",
"f~	c #E2C4B3",
"g~	c #D7BDAE",
"h~	c #DCBEAE",
"i~	c #E3C0AD",
"j~	c #E0C6B2",
"k~	c #D3BDAF",
"l~	c #D0BEB2",
"m~	c #C1B2AB",
"n~	c #C5B4AC",
"o~	c #C4B4AC",
"p~	c #BDAFA9",
"q~	c #BAB0AA",
"r~	c #BEB2AB",
"s~	c #B1ACA9",
"t~	c #ACA8A8",
"u~	c #A7A7A7",
"v~	c #AAAAAA",
"w~	c #AAAAAB",
"x~	c #AAA9AA",
"y~	c #A7A9AA",
"z~	c #ABABAC",
"A~	c #B3B5B7",
"B~	c #C4CBD1",
"C~	c #D2D7DD",
"D~	c #E0E3E9",
"E~	c #EEF4F6",
"F~	c #E7ECEE",
"G~	c #E9EBEE",
"H~	c #E8E6E7",
"I~	c #EBE6E6",
"J~	c #EEE9E8",
"K~	c #F2EDEA",
"L~	c #F0E8E4",
"M~	c #F0E7E2",
"N~	c #EDE5DF",
"O~	c #ECE1DA",
"P~	c #EBDED8",
"Q~	c #EFDFD8",
"R~	c #EADBD5",
"S~	c #E7D9D2",
"T~	c #E1D5CF",
"U~	c #DFD1CB",
"V~	c #DFD3CB",
"W~	c #DFD5D0",
"X~	c #DAD1CB",
"Y~	c #D2CBCA",
"Z~	c #D4CCC9",
"`~	c #D2CCCB",
" {	c #CDC9C9",
".{	c #D0CAC8",
"+{	c #CCC8C7",
"@{	c #C2C2C3",
"#{	c #BABEC1",
"${	c #BDBDBE",
"%{	c #BCBDBE",
"&{	c #BABEC0",
"*{	c #C0C1C3",
"={	c #C3C6C8",
"-{	c #C2C4C6",
";{	c #C4C7CA",
">{	c #CDCFD2",
",{	c #D4D8DE",
"'{	c #E0E3E8",
"){	c #E6E9EE",
"!{	c #EEEFF3",
"~{	c #EEEFF2",
"{{	c #F2F4F6",
"]{	c #F1F1F2",
"^{	c #F3F3F4",
"/{	c #EFF2F1",
"({	c #EEF0EF",
"_{	c #EAEBEB",
":{	c #E8E8E8",
"<{	c #E7E6E7",
"[{	c #E3E4E4",
"}{	c #E2E2E2",
"|{	c #E4E1E1",
"1{	c #EBE5E4",
"2{	c #E4E1E0",
"3{	c #E5E5E4",
"4{	c #E9E6E5",
"5{	c #DCDEE0",
"6{	c #DCDCDD",
"7{	c #E1DEE0",
"8{	c #E1E1E2",
"9{	c #E0E2E3",
"0{	c #DDE0E2",
"a{	c #DBDEE1",
"b{	c #D8D9DC",
"c{	c #D7D8DB",
"d{	c #D3D8DB",
"e{	c #D2D8DA",
"f{	c #D6D7DA",
"g{	c #D8DBDE",
"h{	c #D8E0E5",
"i{	c #DEE5EA",
"j{	c #F1F2F6",
"k{	c #F1F2F5",
"l{	c #EBF0F3",
"m{	c #EAF0F3",
"n{	c #E7EDF0",
"o{	c #E9EEF1",
"p{	c #ECF1F3",
"q{	c #EFEEF1",
"r{	c #EFF1F3",
"s{	c #EEF1F3",
"t{	c #EEEEF0",
"u{	c #EEF0F2",
"v{	c #ECEFF2",
"w{	c #E8EEF0",
"x{	c #E5EAEE",
"y{	c #E2E7EA",
"z{	c #E6E7EB",
"A{	c #E2E9EB",
"B{	c #DBE3E7",
"C{	c #DDE2E6",
"D{	c #E1E8EA",
"E{	c #DEE3E7",
"F{	c #E9EEF2",
"G{	c #E8EEF1",
"H{	c #F0F2F5",
"I{	c #E7EAED",
"J{	c #EBF1F4",
"K{	c #E3ECEF",
"L{	c #E9F0F3",
"M{	c #E2EBEF",
"N{	c #DFE6EA",
"O{	c #DFE7EB",
"P{	c #FAFBFE",
"Q{	c #F5F7F9",
"R{	c #E4ECEF",
"S{	c #ECEFF1",
"T{	c #F6F7FA",
"U{	c #F9FBFD",
"V{	c #F9FCFE",
"W{	c #FAFBFD",
"  . + @ # $ % % % & & & & & * = - * * ; ; > , , % , % , ' * , * ) ) * * = - - * ! ; ) ; ! ! ; ; ; ! ; ; > > = = ~ { ] ^ / ( _ : < [ } | | 1 2 3 4 5 6 6 7 8 9 0 a b c d e f g h ! ! ! = ~ = ! * ; ! ! i ",
"j k l g m ; & n & n n n , ; ! ! * - * ; ; ! , , % % , ' ' , ; * * = o ~ o * * * ! ; ; > > = ; ; ; & & & ) ) ! = p q { r s t u v w x y z 8 A B C D E F G H I J K L M N O P Q R S ! ; ; ! ; ! ! ! ! ! ! T ",
"U V W X S = = * ; , n & ; = * * Y ~ - ! n & % % , % , , , n ) ' ~ p Z ~ - * ) n ; ! * = * - = ! ; & & & & > o o o q `  ...+.@.#.$.%.[ &.8 *.=.-.;.>.,.'.).!.~.{.].^./.(._.R m ; ) & & ) & & ! ! ! ! ! * ",
":.<.[.}.S Y Y Y = * n & * = o o - Y ' ' & & % % % , , % & % & ! - o ~ ' ! ; n ) ) ! = = > - - ! ; , & & ) ! = o o = = { |.1.2.3.4.5.6.7.8.9.0.0.a.b.c.d.e.f.g.h.i.j.k.l.m.n.o.- ! ) ) & ) ; ! ! ! ! ! - ",
"p.q.r.s.t.= ! * * * ! ) = = ! ) n ' ! & % & & % % , , % % % % n ; > = = n & ; n & ; ! ! > = = ! ; ; , n , ! ! ! ; * = = u.v.w.x.y.z.A.B.C.D.E.F.G.H.I.J.K.L.M.N.O.P.Q.q.= R.S.' ! ; ! ; ! ; ; ; ; ) * > ",
"T.U.V.S ! * n n ) ) * - ~ Y ; & & , n % % % % & , ' , % % % & , ) ; ; ! ; n * ; ; ; ; & ; ! ! = - = = ! > = * ! ; & & n W.|.X.Y.Z.`. +.+++@+#+$+%+&+*+=+-+;+>+,+'+)+s !+~+V.n & ; ; ; ! * > ; ; ! = o ~ ",
"{+]+! i * * n n ; * * * - - * ) & & & , , % % , , , % % % % % , ; , ; & & ! * * = * ; & ; ; ; > = = > ; ! - > ! & % & & V.^+/+(+_+:+<+[+}+@+#+|+1+2+3+4+5+6+7+8+9+0+s a+i * ; ) ! * * * > = = = = p Y b+",
"c+d+e+S.; = - - ; ) ! ! ; ; * - - ; , > , , & & , % % , % , , , n n ; ) ) * = o p = ! ! ! n n ; > > ! , ; > ! ; ; n n n f+g+e+h+i+:+j+[+k+l+m+n+o+p+q+r+s+t+u+v+w+x+S y+; * Y * = ~ o - = - = * = p = S.",
"z+A+V.! > - Y ' ; ) ; ! ! ; ! = p ~ ; ; ! ; n , n n n , , n n > & & n & & ! q q Z o * n , ; , , , ; > ! ! * * ! * n n n B+C+D+E+F+G+H+I+n+J+C.K+L+M+N+O+P+Q+R+S+T+R+n ; ) ; * o o = = ! ; ; * ! * > * i ",
"U+R V+- ~ = ! , ; ) ; * * ) ; ; = ~ ! ! = ! , , n n n , > > > ; & & n n ) ! q q Z = ! ; > ' > > ! > = = * ! ! ! ; n n & B+W+X+Y+Z+`+<+ @n+.@+@@@#@$@%@&@*@=@-@;@>@& , ; ! * o q = ; & ) ; ! > * ! ! ! $ ",
"g+e+,@,@- ! & & ; ; ) * - n & & n > ! - = ; ; > > , , , > > n , n n ! ! ! * ~ o ~ ! ; n , ! ! > > = = = = ! & ) n n n & '@)@!@~@Z+{@]@ @^@/@(@_@:@<@[@}@|@1@2@3@& ; ; > = o q ,@- ! & n ! - p - * * * i ",
"A+V.- p o n % & ; ! * ~ - & & & n n ! > ) & & & ' > > > n n n n , n , ! * = = o - ! n n & % & n , n ; * = = ; ; & n & & 4@5@6@7@8@9@0@a@0 b@c@d@e@f@g@h@i@j@k@! Y ' > & & ) o p = ! & & ; * = = > * ! i ",
"W+$ > - * & & n ; * q ~ * & & n , ! n , n % % n > - - > > , , > > , , ! ! > = Y - ; & n % % & & & & ; ! = > > ! n n & $ l@m@n@o@p@q@z.@@r@b@s@t@u@v@w@s x@y@; > Y ' , % % n = = ! ! ! ) ! * ! * = > ) 4@",
"# B+& ! n & , , * - Y o - n ! ! , & & % % % % n ' - > n , , , > > > ; n ; ! > = = ! & n , ! ; ) n n ; ! > ' = ! ! , & 4@z@1@A@B@C@D@E@F@5 G@H@I@J@K@L@X |@R+- - = = n % % & ; = ! ! ! ! = o o p q > M@N@",
"O@> , n n n - q ~ - = - = * ' = > , % % % % n n - = , n n , , ; = = ; & n ; ; ; > > > n n ; ; ! ! , n n > Y - > , n $ P@Q@R@S@T@q@U@V@W@5 X@ @Y@Z@:.`@w+ #y+> Y Y > % % % & n ; ! * ! ! ; o q ,@,@Y t..#",
"R+, & & & ; ~ Z o * Y = * * ! * > & n % % % n n - Y - , n & & & > = ! ; n n n & n ! ! n n & ! = - > ! > - Y ' > > k@W++#@###$#%#&#*#=#-#;#X@>#,#'#)#!#~#e+= > = = > % & & & & ; ! * * ! ! * o o Y > S ^+",
"k@n ; ! ! * ~ Z q o o * * ! ! ! * ! ! ; ; n ; > Z ,@~ > & % % % & , ! & & n n n & n & ) ; ; = Y - > ! n ! , n {#R+W+]#^#/#(#  :@_#:#<#[#;#}#|#1#2#3#4#5#6#7#; n & ! n , n , n n ! ! ! ! ! ; ! ! ! n k@8#",
"9#, - p ~ o o Z o * * o q ~ * ~ q o * * > o p = ~ Z o * & & & % % % n n n n n , ; ; & & & ; = ~ ! n ! & n {#k@N@8#0#a#b#c#d#e#f#g#-#h#-#i#}#>#q@j#k#s l# #m#& & & & , ; ; n * * ! ! ! = ! ) = = n & O@n#",
"n ; = - o o - = ! ; * * - o o ~ ~ - * - - = - * = Y = * ; ! ; & n % n n , n & , ; & & & ) y+= = T T T R+k@# o#1@p#q#r#s#t#u#v#w#x#W@<#-#y#z#A#B#C#D#A@~#e+E#n % % & n > > ; * ; ) = - = - = = = n m#F#8#",
"n & ! > ; ! ; ; ! ! = o o o * * * * * o o * * * & n ; > = = = > , & & n ! n , & % & m#i k@m N@N@R.6#G#H#I#J#K#w+^#L#M#N#u#O#P#Q#-#-#R#R#G S#T#U#V#W#p.X#Y#Z#Y ! & & , , > > ; & ) = = = ~ = = * n n k@8#",
"& & & & ) & & & ; ! q ,@q ~ = = = = o p o * ) ; % % % = ,@Y = = , n , , n n & % % & y+`#E# $.$+$+#8#@$#$$$%$&$*$=$-$;$>$,$'$)$!$~${$]$^$F /$w#($_$j#3#:$<$S Y Y ' n , n ! - ; & ! = = = - * = * ; ; k@W+",
"& & & ) ! ) ) & & ; o p = ; n n ! ! ! ! * ; & & & & ; Y Y = = = ! n , n n & % % & , i R .$[$}$|$@$1$2$3$4$5$6$7$8$9$0$a$b$c$d$e$3 f$f$f$e$g$h$i$j$k$l$(+m$C+y+> > , ' > > Y > & ! = ~ ~ o = o = > ; T `#",
"; ; ! o = * ! & & ; * Y = ! & & ; n n n n n n n ) ; = - = = = - = = - ! , & & & ; B+4@n$s o$p$q$r$s$t$u$v$w$x$y$z$A$B$C$D$E$F$F$B C C 2 G$H$I$J$K$L$M$N$O$P$y@9#n > = ' > ' = > ; ) ~ ~ ~ Y * ! & ; > Q$",
"; > = = = * ! ! ! ! ; = Y = ; n n & n & n n n ; ; * = = * * > o - ~ ~ n & & n , & k@m T.R$S$T$U$V$W$X$Y$Z$`$ %.%+%@%#%$%%%>.@+&%&%>.;.D.*%=%-%;%>%,%'%)%!%R ~%{%{#n n > > > = = ; , ! - o ! & & & ; > U.",
"n ; * ! ; * ; = Y = ; = Y Y = > ! n ! n , ; ; ; > > = = ; ; ! = ! = = & & & , & & V.]%^%/%(%_%:%<%[%}%|%1%2%3%4%5%6%7%8%9%0%a%b%c%0%d%C ;.e%l+f%g%h%i%j%k%l%m%n%O@{#n > > n n , , , n , , n & ) ) ; ; ! ",
"> ! ! ; n ; - = = ; ; ! = = = - > n n , > = - > > ; ; n n ; ! = = = * ) & & & % & Q$o.s o%p%S@q%r%s%t%u%v%w%x%y%z%A%0%>.;.&%B%9%c%0%C%;.e$D%E%F%G%H%I%J%K%L%M%o#~%2@k@> , n n & % n n % n n ) & ; ! = = ",
"Y * ; ; ; - ~ = = ! ) > - > ! = > , & n , = Y ' > ; n & ; ; ! = - = ! & % % % & ! U.m N%O%P%Q%R%S%T%U%V%W%X%Y%Z%`%a%c%`% &>.C%.&`%0%C%+&0%B%c%J+@&#&$&%&&&*&=&-&;&8#C+R+k@n n n % % % % n ; ; ; ; > = = ",
"! ! ; & ; - - Y = * ; = o ! ! * > & % & & * = = = ; , , = = = = o Y > ! n & & , ; i g+>&X.,&'&)&!&~&{&]&^&.&B%`%C%B%B%/&(&_&C%.&e%`%B%+&_&C%`%C :&<&[&}&|&1&2&3&4&5&6&o#T+O@k@{#% % % % n ! ! ; ) ) ) & ",
"& ) & & ) * * * * ! * = ! ! ; * - n & % % , > n ; > - ' > - - ' - - > ! ; ; , n & V.m e+h+7&8&9&0&a&_&]&b&b% &D%.&C%B%^&.&d%c&e%c%`%F$=%0%D%&%d&e&f&g&h&i&j&k&l&m&n&$$o&1@p&l@F#k@>@n % > > = ! ; & % % ",
"& ) ) ) ! ! ! ; ! * o = ; ; ; o ,@> , & & & n n n > ' = > > > > > > ! ; ! ! ; ; & i m e+s q&r&s&t&u& &`%c% &e%^&.&.&d%D%^&e%>.=%`%]&`%`%&%&%#+@+v&b.w&x&y&z&A&B&C&D&E&F&G&3@~%H&# $ 3@, ! - - ! ; & % % ",
"* = Y Y * ; ) ) ! o - * ; ! ! ; - = > n , , n , , ; ; n & , , ! > n ; ! * * > ! ; i N@A+I&J&K&L&M&N& &e%_&C%B%C%.&.&B%a% & &_&B%/&0%b%(&>.F$c%0%;.O&$+P&Q&R&S&T&U&V&W&X&Y&Z&`&6@8#j@y@$ n > > n , , & n ",
"! * Y = ! ! ) ) ; ! ! ! o * * ! - ' ! & n n n n , , n & % & & & n n ; * * = = = * S.D+A+ *.*+*@*#*$*D%B%b&%*C%_&(&.&D% &+&]&e%^&/& &D%.&d% &&*b&c&@+;.;.**=*-*;*>*,*'*)*!*~*{*]*^*V.j@4@$ ; ; n & ; n & ",
"; ; = * * ; ; ; n n , , > ! ; = ' = , n n , , , ; , , & & & % & n n > > = - Y Y ~ = V+o&/*(*_*:*<*Y%.&B%C%.&.&`%+&0% &]&9%[*]&_&D% &d%9%e%+&&*D%_&@+}*|*1*2*3*4*5*6*7*8*9*0*a*b*!%c*z@# $ 7#n & n n % n ",
"* * * ; n ; ; & & & & & n ; ; * = > , n , , , , n n , , ; n n n , , > ' = Y Y = > * d*e*f*g*h*i*j*k*(&_&C%.&C% &F$F$+&D%l*(&`% & &=%+&&%F$=%=%]&0%-. &]&m*O&=%n*$+o*p*q*r*s*t*u*v*w*x*y*V+> n n n n n n ",
"- > * n & & & & & % % , ; - ' - = > , , , , n n n n , ; > , n ; , n n , ; > > ! * = S.|$z*A*B*C*D*E*D%]&_&9%c% &B%]&c%B%C%B%`%=%-.F*F*=.F$a%=%#+B G*>.e%@+-.}*v&H*I*J*K*L*M*N*O*P*Q*!%+$~#= ! ! n , & n ",
"> ; ; ) ; ) & & & & & n ; ' * * ; & n , , , > > ; ; > = > , & n ! n & % n n n ! o R*S*T*U*V*W*X*Y*E*B%c%`%}*F$0%b&Z*=%`%_&e%a%=%F*B%b%1*e%9%F*#+0.n*+&`%v&H* &v&H*1*n*=.$+`* =.=+=@=#=$=+$- = > n , , n ",
"n ) ; ; ! ; & & % & & & n ; ; * ; & & , > , = Y = ! = - ! ) & * = ! ) & & n , > o %=S*P$&=*===-=;=>=#+F$v&=.D.;.]&a%@+&%`%a%m*v&|*9%0%@+d%d%@+=%c%&%O&H*n*H*a%v&=.m*B H*1*n*,='=)=!=~=A+!@T {=; n > - = ",
") n ! * > > ) & n > > , ; n * ; n & & ' > - Y ' ! ! > > ) & ! = Y = ! , & n ! = ~ o S*!@]=^=/=(=_=:=n*C F$-.=%O&a.-.=.-.&%#+2*O&@+F*C #+e% &=.G$Z*e%D.<=J*H*G$B G*m*D.D.G$H*[=}=|=1=2=X+!@T {=; ; Y Y ,@",
"* - * * = = ; , , > ! , n n ; ; & n & , > = - > ) ; ! > ) ) ! = - > ; & & , , - = = .$+$3=4=5=6=7=8=a%&*F*G$b%F*O&F.O&E.J*9=#+=%n*0=G*v&0% &2*F*`% &=.2*2*B n*9=<=H*n*D.&%@+a=b=c=d=e=f=R g+g=; ! = = = ",
"; ; ; n ; > ; , n & % % % n > * ; n , n , ; = = ; n ) ! ! ! ! * Y = ! , , ! ! = = * S*h=i=j=k=l=m=n=Z*d%+&=%]&|*H*-.G$;.2*@+0%&*H*2*0.-.F*F*2*&% &=%0.@+=%G*J*0.2*F.o=n*;.v&<=p=q=r=s=t=u=g=> = > = > ; ",
"; ; n n ) n ! ' - & % % & > - q - ; , ; n ; = > ) ; ; ; > ! ! * = = ! ! ; ; ! ! ! ! S*T*v=w=x=y=z=A=B= &F*#+;.1*D.G$c&}*D.C=c& &-.-.&%*%*%C G*&%G$O&2*D=}*n*D.=%;.=.J*E.C 9.<=E=F=G=H=I=J=K=.$= * ! > n ",
"* * ! ; ; ! ! * - n % % & > Y o ~ o * ; ; * * > ! ) ; > ; ) ) ; > ! ! ! > ! ! & & & .$L=M=N=O=P=Q=R=S=>.m*=.B n*O&G$ &F*D.1*>.+&2*T=c&m*a.0.0.=%H*F.d&0%1*G*1*D=e$2*2*2*2*J*J*U=V=W=X=Y=Z=o..$> = ! n n ",
"- * ; * ! * * ! ; n & & & n - - - - * * * > ; ; ; & ! ! ; ! ! ; ! > * * > ! ! n & & ! 6#`= -.-+-@-#-$-d&F.=.0.F.D.G$ &F*D.@+F*=%=.F*`%>.I*0.=.=.F.0.H*G$v&J*@+F*H*0.1*H*F.%-0=&-*-=---;->-,-'-.$= n & & ",
"- ; ; ; ! * * n ) & & & & n , ; ; ; * ! , ; ; ; ! ) ) * ! ! ! ! = = = ) , n n & & ; .$A+V.)-!-~-{-]-^-F.2*H*-.O&O&D.m*@+O&F$G$@+O&+& &=%/-@+m*2*G*-.*%0.J*F.O&H*(-=.T==%2*D.n*_-:-<-[-}-|-1-y*! n n & n ",
"- ! ! ) & ; * ! ) & ) ) ) & , , , , > > > ; ; ; ; ; ! - * ! ! = = = * ) ! ! > & n ; ; 2-3-4-5-6-7-8-9-=.@+e$-.C m*0.2*2*2*2*=.E.E.G$F*E.F.e$D=D.d&e$-.F.0=H*=.0=0-D.G$H*0.T=1*a-b-c-d-e-f-g-n & n ; * ! ",
"- * n ! ! ! * - ! ; ! ; ! ! ; , , & n ; > > > > ; ) ; = ! ! - o = = = ! ! ! - ! n & % 2-h-i-j-k-l-m-J+=.1*C n*-.T=C <=J*=.n*o=n-G*@+d&0.H*}*m*D.D.;.m*G*1*e$n*o=0==.=%d&F.1*H*o-p-q-r-s-t-u-v-& ! * * ; ",
"' - * ! * ' ! * = o o = = = ; & % % & & ; = = ! ! ) ; ! * = ~ ~ * ! o ! n n > n & % % '@'@w-x-y-z-A-B-0=G*B n*2*D.C n*n*T=G$=.n*E.<=C-<=m*F*m*E.=.=%H*2*>.G$/-I*1*G*G*<=<=@+v&o-D-E-F-G-H-I-v-y*! = > n ",
"- * ! ; ! - - - ~ Z o ~ Z = ; n % % % % n = = ! ! ! ! = = = = * ) ! = ! , n ! n n & & '@J-K-L-M-N-O-P-o=n-n-9=%-G*/-0=B d&v&=.1*m*2*G*n*O&D.E.%-2*O&n*=.G$=%0=d&G$I*F.F.<=0.F.Q-R-S-T-U-V-W-U.0+- = ! n ",
"! ; ) n ; = ~ = = ~ = = ! * * ! n & & % & > - > ! , ! ! > > ! ; n n > > , n , , n & & J-J-X-Y-Z-N-`-Q-J*(-n-n-o=%-n-9=J*G*n*F.H*d&2*d&1*0=n-n-n*B 0=0=E.1*H*0=d&C B F.B d&F.%-K* ;.;+;@;#;$;%;g+= = = ! ",
"; n & n & n = = ; ! ! ! ; o o - ! ) n & & > - > , & n ; ! ! ! ; n & n > , ! > > n , , J--@X-&;*;=;-;;;o=(-(-J*(-(-%-G*/-9=0=2*=.D.0=v&C n*0=B >;,;0=J*0=B J*%-F.<=J*2*D d&J*D.';);!;~;{;];^;/;v-! = Y ~ ",
"; n & % n , , > ! ; ! ! ! = = = * ! ! ) ! = > n n & & & n , , & & & n n > > - , ! '-(;_;:;-@<;[;};|;1;J*o=(-/-0=I*0=o=I*J*n-F.=.G*J*n*B /-0=C d&n*F.0=0=J*n-(-G*J*%-G*9.(-J*d&2;3;4;5;6;7;8;9;5@! = ,@q ",
"! ! n n & n , & ) ) ; ; ; ! ! = * ! ! ! = ; & , n n n n n % n & & & & & & n , > > '-,-R.0;a;b;c;d;e;f;J*J*o=(-J*/-o=o=/-o=9=0=G*0=n-0=0=o=o=/-n*0=J*9.9./-g;>;d&/-J*J*J*G*%-E.h;i;j;k;l;m;n;-@v-* = Y ~ ",
"' > > , , & % % n & n n ! , n > = ! ! ! = > , & % n n n n & % & n & n % % % & , > , o;p;q;r;s;t;u;v;w;x;I*o=(-x;n-n-9=C-J*9.I*9=%-/-o=n-0-%-J*0=%-/-B n*0=/-E.E.<=/-/-n-0-0-%-y;z;A;B;C;D;E;F;v-! * ! = ",
"> > - - > > % % n n & n ! & ; = ~ = * * = Y > , % n n n n n n n , n % % % n n n n & G;H;I;J;K;L;M;X@N;O;D P;O;D ,;/-x;0=o=I*(-o=/-9.0=n-/-<=0-Q;0-E.0=0=0=0=2*0=n-/-/-J*R;9=n-S;T;U;V;W;X;Y;Z;`;- = > , ",
"! > > = - ' = > , , n n ! n ; = p = > > Y ~ = ; & n ; ! ! ; ; ! > ! , , , n ! n n & G; >I;.>+>@>#>$>%>&>%>%>&>%>D *>d&,;G*n-%-%-I*B o=/-=>/-C-0-n-J*o=o=n-J*F.J*0-G*9=R;9=(-x;->;>>>,>'>)>!>~>{>Y > n % ",
"& , , , > Y ' ' = , & n > ; > = ~ ~ ~ = = * ; = ' ' = > = > ! ; > > = - > ! n n , 5@F; >]>^>/>(>_>:><><>[>}>|><>1>2>3>*>,;n*=>/-<=E.0=/-/-0=n-o=n-n-n-4>R;n-n-R;R;9=R;Q;9=9=0-5>6>7>8>9>0>Z;~#- = ! n % ",
"% n n n > = > , > > & , ' , n ! * = ! ! * * ! * = = = ! = = ! ; ; ! = > > n n n ; a>b>3-c>d>e>f>g>h>i>i>i>i>j>k>}>1>l>2>*>D 2 ,;<=<=J*/-(-J*9=/-9=C-Q;Q;Q;Q;Q;Q;R;Q;m>R;4>n-Q;n>o>p>q>r>s>i D+S.; n & % ",
", n n & , , n n n & n , = > n ; ! ! ) * = = * ! * ; ; * ! ! ! * > > , & n n , , ; `#t>3-c>u>v>w>x>y>i>z>j>A>B>j>C>D>E>F>G>2>H>D >;I>9=9=o=C-/-/-9=n-9=C-R;C-C-n-Q;m>Q;C-C-Q;Q;J>K>L>M>N>O>+$P>W.& & & , ",
", , n % , , , n n % n n > ! ! ; ! * ! * * ! ; ; ; * ; ; ) ) ! * = * ; & n % , , , Q>H;q;]>R>S>T>U>V>z>W>j>B>X>j>Y>k>Z>`> ,l><>%>D >;,;I*R;C-o=/-Q;9=x;C-n-o=o=C-0-C-n-m>Q;m>.,+,@,#,$,7;%,&,*,$ & & ! - ",
"> , n n n > , n n % % % n n ! > = * ! * ; ) & ) ; n ; ; ) ) ; ; = = ; & % % % % & =,H;I;-,;,>,,,',i>z>W>j>B>X>j>j>Y>Y>),),8%D> ,2>*>>;!,,;,;o=9=R;o=C-Q;n-C-9=Q;n-9=Q;R;R;Q;~,{,],^,/,(,_,:,<,$ & ) - Y ",
"> n n & n > > > , n & % & , ! = Y - o Y * & & n ; n & ! ! ; ! ; ! = * & % % % % & =,v-[,},|,1,2,3,i>W>A>B>X>4,B>j>Y>Y>),),),C>5,F>2>e$T=P;2 !,g;g;n-R;o=C-9=C-C-o=n-Q;9=9=Q;6,7,8,9,0,H#a,b,{=* ! * = = ",
"' ! n n n , > , , , & % % n > > * o Z o ! ; ) ; ; ; ; = ~ o o ! ) = = ; n % % , c,d,e,f,g,h,i,j,k,i>W>A>B>X>4,B>j>Y>Y>l,l,),C>5,Z*m,n,o,n,E O;2 !,g;x;x;C-9=Q;C-C-Q;C-o=n-n-,=p,q,r,s,t,u,(;v,Y * * * * ",
", n n n n , n > ' ! n % & > - = ! = = ! * * > > ; ; ! Y Z q o ; ! - = * ; , > > w,d,x,y,z,A,B,C,y>i>W>A>B>4,D,B>j>j>Y>%*l,Z>C>5,/&[*&*E,1>[>E 3>2 P;!,=>g;n-C-n-n-R;C-4>C-Q;F,G,H,I,-,J,H;E#K,~ = ) & ; ",
"n n n n , n n ; ' > & & n = o - ; ) ) ! - ~ = * * ; ) ! o o * ; = q Z = ! = = .$A+R.L,I;M,N,O,P,y>i>W>A>B>4,D,B>A>j>Y>l,l,Y>W>5,8%8%Q,[*}>[>%>[>D O;P;!,!,=>R,x;C-x;4>R;Q;.,S,T,U,V,W,X,Y,A+v,~ Y ! & ; ",
"% % & % & & , , > , n ! > > > = ; ; & ; = > ; , n n , , > - = > > Y ~ = = ~ o K,A+t>Z,]>`, '.'+'@'k>W>A>X>4,4,B>B>B>j>l,l,j>j>5,#'#'b&`>k>|>[>[>2>H>D P;!,!,$'%'R,g;x;x;x;&'*'='a>-', ;'I#Z=> * > > n % ",
"n , n & n % n & n , > > = > ! = ! ! ; ; ; ; , n n & n , ; ! > = = = > = o ~ o {>L= #Z,>',''')'!'}>i>W>A>X>4,4,X>B>B>Y>l,l,Y>Y>5,#'/&/&E>k>@'<><>2>&>E D 2 P;$'%'R,g;~'~'4>&'{']'^'a#/':;('Y - > ! > & n ",
"> ; > > ! ; & , , > > > , n , > ! = = ! ; n , n n % & & n & ; > = ; , > = = o K,L=V.[,a;`,''_':'}>k>W>A>X>D,D,X>B><'j>l,l,j>Y>l*l*#'#'E>i>@'@'<>E,E,2>3>D 2 !,$'['R,~'x;~'}'{'|'1'2'3'4'5'a+S * ! > ! n ",
"' > = - ~ = ! > , , , n , n ! > = Y Y > ; n n , n & & % & n & n , , & , ! ! = 6'7'e,o#-,`,8'9'0'@'|>Y>A>X>D,4,a'B>B>j>Y>Y>j>Y>l,),l*),|>z>@'@'1>l>E,2>3>3>D !,I>%'R,~'x;~'}'b'c'd'e'f'g'J=V.S ! n , > , ",
"* = - - Y - ! ; n , n n ; ; > * - ~ = ! ) & n , > > , , n n & % % & & n > = = `;E#e,;'h'i'j'k'l'}>@'W>A><'D,4,4,m'n'j>l,C>A>C>5,),#'5,k>z>@'o'l>l>l>n,2>C=D >;=>=>R,R,x;g;}'b'p'q'r's't'%;u'i ! , ; ! , ",
"! ! - = * * ; n , , n n n ! ! > = = = ! ; ! ! ; n & n ! ; n , , n , , n = Y ; & 9;v'-,w'x'y'z'A'B'D>C>W><'D,4,4,<'n'j>Y>l,A>l,5,l*#'5,k>i>@'@'F>l>E,2>H>C=D >;9.=>%'g;x;~'}'C'D'E'F'G'L#x+ $V.! ; ; & & ",
"; ! > > ! > ; n n n & & & n ; > ! ; & & & ; > & n % % & n n , > n & & & > = > 5@9; >c>H'I'J'K'A' ,D>C>A>m'4,4,4,n'a'j>l,Y>j>C>5,),#'5,C>i>}>@'m,l>E,2>H>n,D >;I>%'%'g;x;~'L'M'N'O'P'Q'R'T*}.S ! n n % & ",
"n ; , ! > > > ! > > n & & n ; > = & & & & & , ! > & & n n n , , & , > ; * ! = `;i S'T'H'U'V'W'X'1>E>C>W>m'4,4,4,m'a'W>Y>l,j>5,),),),5,i>i>}>}>m,l>G>n,n,n,*>d&9.=>['g;g;~'Y'Z'`' ).)+)@)d+R.V.; ! ! ; n ",
"& n & n > > > > > , n n , > - > ! & & & & ; = = Y > = ! ; n n n & & , ; = = = D+#)$)%)>'&)*)=)X'l>E>k>W>m'a'a'4,m'a'z>C>l,W>5,),),),5,i>k>}>}>G>l>2>2>o,C=*>,;I>%'['x;g;-);)7>>),)')))!)~)i ; * > > ' ' ",
"& n & & , , , > , n > ' > > = = ; ; n n n ! = = Y > = * ; n n n & n , , ! = ~ 0+Z;$){)T'&)I'])^)l>}>5,i>m'a'n'n'n'n'W>l,l,W>l,5,),#'5,C>@'}>1>G>l>|*n,o,C=T=9.I>%'R,x;R,}'/)()_):)<)[)l%2@k@; > > ' = = ",
", , , & % % & & n > > > n n > > ! = ! ! ! ! = = > ; ! = > n n n n ; > * ! = o g+F;})|)1)2)I'3)4)l> ,E>C>W>n'n'n'm'n'Y>%*l,C>5,5,#'5,D>i>}>B'F>G>E,e$n,2>C=!,9.$'I>g;x;['5)6)7)8)9)0)a)1@F#, ; > > , , , ",
"! > , & % n n % n , n & n n n > ; ; ; = - = = = > > * > > n n n n , n > * * ! g+F; >X-b)`,c)d)-%A'Q,e)f)g)h)i)<'m'n'C>l,l,C>5,5,#'`>5,k>B'}>G>m,G>D=n,2>C=!,9.I>%'g;x;~'j)k)l)c m)n)J=o#k@& n n n & & n ",
"> > , & n > & & & n n n n & n n , ; ; = - - ; ! ! = ! ; , n , , n ; ; ' = ! & n & 9;})1)o),'p)q)r)s)t)u)v)w)w)x)y)z)A)B)C)B)B)a&a&B)y>D)E)F)G)A'^)d$H)I)J)m+K)K)L)M)M)N)O)P)Q)R)S)T)g'2@& % % & % % % % ",
"> > ! n , , ; > n n ; ; , > n n & ; = = = ! n n ! ; ! > > > > > n n ; ; ! ; ) & % G;b>U)]>V)W)X)Y)Z)`) !.!+!@!#!$!%!&!*!=!-!;!>!,!'!)!!!~!{!j*]!^!/!^!(!8-_!:!<![!}!|!1!2!3!4!5!6!7!~>Q$, & & & % n n n ",
"> ! n ; ! ; ! > n n > = ' = ! n ! ~ ~ = n n & n n n n ; ! ; > n n n ; ; ) ; n & % % G;H;;'8!]>9!0!a!b!c!d!e!f!g!h!i!j!k!l!m!n!o!p!q!r!s!t!u!v!w!x!y!z!A!B!C!D!E!F!G!H!I!J!K!L!M!N!]+R.R+, , n n n % % n ",
"n n n ; ! ! ! ! ; ; ; > = = = ! ! - ~ - > & n % % n n n > ! > > n ; ; ! n n n % % % & g =, >q;O!P!Q!R!S!T!U!V!W!X!Y!Z!`! ~.~+~@~#~$~%~&~*~=~-~;~>~,~'~)~!~~~{~]~]'^~/~(~_~:~<~[~}~x+|~n > > , & n % % n ",
"! ; ; ; ) ! ! ! ; n ; ; ! * ! ! ; > > > ! ! ! , n n , > > ! ! ! ) ; ; ! ; ! n & n & & n Q>=,Z,1~2~3~4~5~6~7~8~9~0~a~b~c~d~e~f~g~h~i~j~k~l~m~n~o~p~q~r~s~t~u~v~w~x~y~z~z~A~B~C~D~%;G#R+, , n n n n n & n ",
"= ! ! ; ! ; ; ! ; n ; n ! ! > > ; ; ; ! n > ! ! n n n n , ! n n & ; ; > = > > ! , , ! ! ) ) G;E~F~G~;&H~I~J~K~L~M~N~O~P~Q~R~S~T~U~V~V~W~X~Y~Z~`~ {.{+{@{#{${%{&{*{={-{;{>{,{'{){n#F#n n n n n ! , , , , ",
"; ! ! ! ! ) ; ; ! ! = = * * > > ! * ! ! ; n n n n , > > > ! > > = = = = = ' ' - ' ' ' > ! ! ! ! R.5'!{~{t,a>{{]{^{/{({_{:{<{[{}{|{1{2{3{4{5{6{7{8{8{9{0{a{b{c{d{d{e{f{g{h{i{M%1@# $ n & n & ! ! > > > > ",
"! ! ! ; ) ) ; ; ! ! = = = = = = > ! ; ; ; ! n ; , > , > ! ! * > > ; ; n & n & , ; ! n ; ! = = = > Q$Q$V.V.j{k{k{,-l{m{%;n{o{p{1-q{r{s{t{u{v{w{x{y{W,K#!)@$z{A{B{C{D{C{E{~#5'~)2@k@> , > > > > > > > > > ",
"; ; ; ; ; ! > ! ! > = = > > = > * ! ; ; ) & n ; ; n n n n ; ; ; ; ; ; n ! n n ; ; , ; ; ! ! ! ! ! ; ! ! = > > = ' ! > b,b,d*d*b,F{G{H{G{Y,Y,('G#G#I{H#E#P>J{b+K{m{L{M{N{O{ #i k@n n n n n , ! , , , ! > ",
"= = = * > > > ! ; ; ; n n n > > > * ! ; ; ! ! ; > > = > ; ; ; ! n n ; ; , ; n n , , n n ) & & ; ; ; ; ! ; ; , ; ; > = ' Y = Y Y - > > ! ; & n ! > - > V.i V.i i i k@k@i V.Q$; n n ; n n , ' > > n n n ! ",
"& ) ) = = > ! , n > ; ; ; ! > ! ! ; ! ; ; * * ! n > = = > ' > > ! , ! , n n ; ; ! ! ! > ! n ) ; ! = - = = * ! ) & ) n n ; * = * > > > ! ! ; & ; ! ! > ! ; ; * ! * = * n , * * ! > ; ; > n n n n n n n n ",
") ) ; ! > > ! ! n n n > > ! > > * ! ; ! ! ! ! ; ; ! = = ; ! n n n ! , > = = = > Y - = = ! ) ; ; ; ! > ! * ; ) ) ! ! ! ; ; * = = > > > ! ; ; ; ; ; ! > - Y = ~ = * > - > ; n n ; ! ! ; > > > > > > , > ! ",
"! ! * = = * ; n n n n > , > ! ! ; ) ) ! ! ; ; & n ; > ! n n ! ! > , > > > = o = o = ! ! ! ! = * = ! ! ! ! > = = = = = = > = = ! ! ; ; ; ) ) ) ) ; ! = = = = * ! ! = = = ! ! ! * > > = ! > > ! ! n n , > ",
"! ! = = Y * ; & & & & & n & ; ! ! * ! ; ! ; ! ! > ; > ! ! > > > > > > > ! ! ! * ! = ! ; ! > ! = > = > > = = * ! ; ) ; ) ! ! ! ! ! ! ; ; * ; ! ! ! > = > ! ) & ; ! = = = = = = - - = = - = > > > > , n n ",
"= * ! ! ; ; n n , > > = > > > ! ! ! ! * = = = - = > - = , n n n n & & n ; ! > ! = o o = = ! ! * = - - - = ! ! ! ! ; ; ; ; ! ! ! > = * ! ! ! ! * = - = ! ; & ! ! * = ! ! ! ! * ! ! ) ) ) ! > , n n > n n ",
"! ! ; ) ; ; ; n n ! , n n > n > = = > ! ! = = = = = - - n % n n n & n & & n ! > * ! = = ! ) ) ; ; ; n ! ! = - = = ! ! ! ; ) & ) ) & & ) ; ; ; ! ! > = = = * ! * = = o = ! ! ! ! ! ! ! ; n n , n n > > > ",
"* = * - Y - - * ! ; ; & n n n , = Y = = = > ! ! ! ; ; ; n , n n & & n & n n & n ; , ; ! ! ! * ; ; n ! ! ! = = ; n n n & n ; n ; ) & , & ) ; ; ; ; n n & ) ) ! ! = = = > ! ! ! * = > = = > > , , n n n n ",
"' * ! ! ! * * * = = o p p Y = > n & & n & n ; ) & ) ) ; n n n & n n n , n , n & & & & ; = o - = ! ; ; ; ! ! ! ; ! ! ; ! ; ; n ; = > > > ; ; ; * ; ; ; > ! ; ! ! ) ! ! ! ! ! ; * > > ' ; n ! , n n n ! ! ",
"n & & % & & & & ! * = - = ! n n n n , , , ! > = ! ! ; ; ; ; , ; = = = > > , ! & & n n ; ; ! ! ! ! ! ; ; ! > = = Y > > > ; n ; ) & & & n & & & > * * * * ! ) ! ! ! ! ! ! ! ! ! ! ; ! ' > n > > ' ' ' - .$",
"' * n & & n n ; ! > = > > * ! ! ! , , ! ! ; ; ; ) ! ! ; ! * = Y - Y Y ' > , , & & & n ; ; ; ) ! ! ! = ! ! = = > , & n & & & & & & & & & % % & & ! ! ! ! ! ! * * ! ! ! ! * * ! ; ; n , n n & & n , , y*,-",
"; ; , n n n , , n & & & , n n ; > > , ; , & ; ; n ; ; & ) * = ~ p p p Y > , , , , , ! ! ! > ! ! ! * * * ! ! ! > > > ; ; ; ; ; ) & n & n ; ; ; ; ! = = = = = = > * ; > ! = Y = = Y > * n , n & & % % P{ >",
"& & % % % n n , ; & % % % % % % & , , & n ; ; ; ; ; ; ) ; ! = * * > ; > > & & & n , n ; ! > = > * ! * ! ! ! ! * > = ! ; ) ) ) ) ; ) ) ; = = Y = = = = > > ; ; ) ; ) & ) ; ! * * * * , & , , , n o;b>})Q{",
"% % % % % % & , > , & , & & & & & , ' ' ' ~ Y ~ ~ = > ! & , ; n , & n ; > > > ! > > ' - = ; ! ; ; ; ) ) ; ) ; ; ! * = ~ o = o = * * = = * o ~ o Y Y Y = = ! ; ; > = = o = * * ! n & % & & , m{R{S{e,T{U{",
"n % % % % % % n n n , > , , , , ; > ; > = - - - = = ~ = * > > > ! ; ; , n > = > > > > ! ; ; ; & & ; & & & ! ; ! * * * * = q q q q q q o * ) ) & & > > ! ! ; ! > = - ~ o = * * = > ; , ; ; m{,-p;:;T{V{W{"};
