/* XPM */
static char * exit_pl_xpm[] = {
"100 100 4155 2",
"  	c #F5F9F6",
". 	c #EDEDED",
"+ 	c #EDF1EE",
"@ 	c #F3F4F3",
"# 	c #F9F6F9",
"$ 	c #ECF9F4",
"% 	c #F2EEF2",
"& 	c #F1ECE6",
"* 	c #E5F1EE",
"= 	c #E4FAFD",
"- 	c #E4F2F5",
"; 	c #F1EEED",
"> 	c #F4F6F9",
", 	c #ECEEF1",
"' 	c #E6EAE9",
") 	c #ECF3F4",
"! 	c #F9F6F5",
"~ 	c #F3F1EE",
"{ 	c #EEEEEE",
"] 	c #F1ECE7",
"^ 	c #F3F5F8",
"/ 	c #F2F0ED",
"( 	c #F4F2EF",
"_ 	c #FBFBFB",
": 	c #F9F3EC",
"< 	c #F4FBFC",
"[ 	c #FCFCFC",
"} 	c #D6E7EC",
"| 	c #BCE2ED",
"1 	c #DEFAFE",
"2 	c #EEF2EF",
"3 	c #ECF0ED",
"4 	c #EDF2F3",
"5 	c #F9F7F9",
"6 	c #F1EEEE",
"7 	c #E6E9E8",
"8 	c #BCDEEA",
"9 	c #DBEDF3",
"0 	c #EEF1EE",
"a 	c #E5F0EE",
"b 	c #EDF8F4",
"c 	c #F6F9F7",
"d 	c #FAFAFA",
"e 	c #EBF2F3",
"f 	c #E8EBEB",
"g 	c #FBFBFA",
"h 	c #EDEEF1",
"i 	c #FBF9F5",
"j 	c #EBF5FA",
"k 	c #E4F4FA",
"l 	c #B7D8E5",
"m 	c #79A7BC",
"n 	c #A9D3DD",
"o 	c #EDF3F4",
"p 	c #F4F8F5",
"q 	c #F9F9F9",
"r 	c #F1F1EF",
"s 	c #96C6D9",
"t 	c #76ABC7",
"u 	c #C2E5F5",
"v 	c #ECF8F4",
"w 	c #F4F5F8",
"x 	c #E8F2F0",
"y 	c #F4FAFB",
"z 	c #F3F9FA",
"A 	c #ECF2F3",
"B 	c #FBFCFC",
"C 	c #F8F5F8",
"D 	c #ECFBFC",
"E 	c #E3EEF2",
"F 	c #D5F4F8",
"G 	c #88C5DB",
"H 	c #6AB4CC",
"I 	c #5494AC",
"J 	c #D4ECF4",
"K 	c #EDF9F4",
"L 	c #F8F7F6",
"M 	c #BBE2ED",
"N 	c #5795BB",
"O 	c #67B6D9",
"P 	c #9BCBE2",
"Q 	c #DCF1F6",
"R 	c #F1F3F6",
"S 	c #F5FBFC",
"T 	c #F2F4F5",
"U 	c #F3F8F9",
"V 	c #F5F6F9",
"W 	c #DDFAFE",
"X 	c #B3DDED",
"Y 	c #99D4E8",
"Z 	c #69C3DC",
"` 	c #6AC6E6",
" .	c #52A1BB",
"..	c #A9D2DD",
"+.	c #FAFAF9",
"@.	c #A6D8E9",
"#.	c #78C6E6",
"$.	c #C5E3EC",
"%.	c #FAF9F5",
"&.	c #FAF8F5",
"*.	c #F8F6F5",
"=.	c #E8F7F9",
"-.	c #D5E9ED",
";.	c #EEF7F4",
">.	c #F9F8F9",
",.	c #EDF6F3",
"'.	c #F4F9FA",
").	c #F9F9FA",
"!.	c #F7F5F4",
"~.	c #F3F1EF",
"{.	c #F8F5F4",
"].	c #B7D3DE",
"^.	c #87B7CA",
"/.	c #97CBD7",
"(.	c #BBE4F4",
"_.	c #869CAF",
":.	c #4D647D",
"<.	c #87A5B9",
"[.	c #B7CBD6",
"}.	c #C5DCE7",
"|.	c #58819C",
"1.	c #1B628D",
"2.	c #27739A",
"3.	c #5193AB",
"4.	c #A8D2DD",
"5.	c #77A6BB",
"6.	c #78D1EE",
"7.	c #79C6E6",
"8.	c #A5D3E4",
"9.	c #F2EFF2",
"0.	c #7AC4DB",
"a.	c #98B8C9",
"b.	c #EEF4F5",
"c.	c #EEFAFB",
"d.	c #F7F7F7",
"e.	c #F5FAFB",
"f.	c #CEE3EC",
"g.	c #9EB7C2",
"h.	c #9FB6C8",
"i.	c #B1C5D4",
"j.	c #C6DDE4",
"k.	c #E6ECEE",
"l.	c #E1E8EC",
"m.	c #CEDAE2",
"n.	c #EAF1F4",
"o.	c #F8F5F5",
"p.	c #F2EFEA",
"q.	c #EDF0ED",
"r.	c #F9F8F4",
"s.	c #F9F4EE",
"t.	c #F2F0EE",
"u.	c #DDF1F6",
"v.	c #54A2BC",
"w.	c #2D759B",
"x.	c #2A749A",
"y.	c #20749D",
"z.	c #5293AB",
"A.	c #97B8C9",
"B.	c #627E92",
"C.	c #94ABBB",
"D.	c #D2DDE3",
"E.	c #658093",
"F.	c #71899D",
"G.	c #B8D3DE",
"H.	c #D7E7EC",
"I.	c #95ABBB",
"J.	c #648093",
"K.	c #2F4D6B",
"L.	c #1A395D",
"M.	c #18395C",
"N.	c #284A69",
"O.	c #395B7B",
"P.	c #2D557C",
"Q.	c #194776",
"R.	c #1A739C",
"S.	c #09588B",
"T.	c #32688A",
"U.	c #5688A9",
"V.	c #607D91",
"W.	c #93AABA",
"X.	c #87D3E9",
"Y.	c #99E3F6",
"Z.	c #A3CEE2",
"`.	c #ECECEC",
" +	c #A7D8E9",
".+	c #E4EEF2",
"++	c #E5F2F5",
"@+	c #E5F9FC",
"#+	c #CEE6EA",
"$+	c #D4ECF5",
"%+	c #D5EBF8",
"&+	c #ACC8D4",
"*+	c #C2DCE3",
"=+	c #C6E2ED",
"-+	c #A7B6C4",
";+	c #A6B7C7",
">+	c #ABBAC8",
",+	c #ADBDCA",
"'+	c #ACB0BC",
")+	c #B2B7BE",
"!+	c #AAB0BA",
"~+	c #A2A5AD",
"{+	c #A4ADB9",
"]+	c #E8F0F2",
"^+	c #ECF4F8",
"/+	c #FAF9F9",
"(+	c #F5F8F6",
"_+	c #91ACBE",
":+	c #5A90AF",
"<+	c #407B9E",
"[+	c #31789F",
"}+	c #2F86AF",
"|+	c #2985AE",
"1+	c #2F79A8",
"2+	c #2E759B",
"3+	c #C8E5EA",
"4+	c #39556E",
"5+	c #1C3557",
"6+	c #284261",
"7+	c #3D5770",
"8+	c #405971",
"9+	c #2E4463",
"0+	c #344D6E",
"a+	c #39567D",
"b+	c #405C81",
"c+	c #6B8496",
"d+	c #B9CCD7",
"e+	c #C7DDE7",
"f+	c #7A97AF",
"g+	c #354965",
"h+	c #2D4362",
"i+	c #2E4F79",
"j+	c #24466F",
"k+	c #274B77",
"l+	c #274C79",
"m+	c #173B66",
"n+	c #15436C",
"o+	c #1C547E",
"p+	c #1F749C",
"q+	c #186799",
"r+	c #255689",
"s+	c #0C3C65",
"t+	c #7292AC",
"u+	c #B6E3ED",
"v+	c #98DAF2",
"w+	c #ABDDF1",
"x+	c #D4F3FC",
"y+	c #87C8E5",
"z+	c #ABE9F3",
"A+	c #C5EBFA",
"B+	c #E4F2F4",
"C+	c #E6F5FA",
"D+	c #EDFBFC",
"E+	c #B2D5DE",
"F+	c #80A3BC",
"G+	c #8DABC1",
"H+	c #8DAABF",
"I+	c #94A4B9",
"J+	c #A9B9C8",
"K+	c #AABACD",
"L+	c #ADBAC5",
"M+	c #BFCCDA",
"N+	c #BCC8D7",
"O+	c #B4BFCA",
"P+	c #BEC1C9",
"Q+	c #C2C5CB",
"R+	c #AEB3BC",
"S+	c #AEB2BE",
"T+	c #B1B5BD",
"U+	c #A7B1BC",
"V+	c #C2CDD3",
"W+	c #CEE3EB",
"X+	c #BECBD4",
"Y+	c #CDDEE7",
"Z+	c #E7F9FC",
"`+	c #9CB3C3",
" @	c #586780",
".@	c #4E82A4",
"+@	c #4A8EB3",
"@@	c #3F7CA1",
"#@	c #3988AF",
"$@	c #3688B0",
"%@	c #378BB8",
"&@	c #216C9D",
"*@	c #2A6B9B",
"=@	c #537491",
"-@	c #C6E3EC",
";@	c #99B9CA",
">@	c #557591",
",@	c #2D4C6D",
"'@	c #304E6E",
")@	c #324C6D",
"!@	c #3A5171",
"~@	c #3D547B",
"{@	c #435E82",
"]@	c #496892",
"^@	c #4D6E9C",
"/@	c #4B6D9B",
"(@	c #46618C",
"_@	c #4C658E",
":@	c #4A648E",
"<@	c #415877",
"[@	c #45608C",
"}@	c #37537B",
"|@	c #314C72",
"1@	c #2F4E73",
"2@	c #294B71",
"3@	c #22476F",
"4@	c #1E466F",
"5@	c #1F638D",
"6@	c #0C4579",
"7@	c #176CA3",
"8@	c #16588A",
"9@	c #0D4274",
"0@	c #A2B9D1",
"a@	c #D3EEFA",
"b@	c #8FE1F1",
"c@	c #89D8F4",
"d@	c #F3F0F3",
"e@	c #CAF2FC",
"f@	c #8AD8F4",
"g@	c #B7E3ED",
"h@	c #D6ECF3",
"i@	c #89B3CC",
"j@	c #87B0C4",
"k@	c #7795AC",
"l@	c #7E9EBC",
"m@	c #91AEC3",
"n@	c #94ACC3",
"o@	c #A4BBCB",
"p@	c #B1C5D6",
"q@	c #B8C4D4",
"r@	c #C0C5CD",
"s@	c #C6CDD7",
"t@	c #CBD0D5",
"u@	c #C0C4C8",
"v@	c #C5C4C8",
"w@	c #C9CBD0",
"x@	c #BFBDBE",
"y@	c #BABCC2",
"z@	c #BABEC7",
"A@	c #B0B2B8",
"B@	c #A5A9B2",
"C@	c #A4ACB6",
"D@	c #969BA4",
"E@	c #8C97A5",
"F@	c #8C9CAB",
"G@	c #78899D",
"H@	c #6985A1",
"I@	c #618FB4",
"J@	c #5C94B5",
"K@	c #5486AE",
"L@	c #4482AD",
"M@	c #4982AC",
"N@	c #437FAB",
"O@	c #376F9D",
"P@	c #3E6E9B",
"Q@	c #97B8CD",
"R@	c #748B9E",
"S@	c #45708F",
"T@	c #36547C",
"U@	c #324663",
"V@	c #3F6386",
"W@	c #3E5C85",
"X@	c #41597F",
"Y@	c #49638E",
"Z@	c #4D6690",
"`@	c #4F6792",
" #	c #546E92",
".#	c #5B7CA6",
"+#	c #5B7EAD",
"@#	c #5D8DB3",
"##	c #5D8BB1",
"$#	c #5C80A8",
"%#	c #5A7DA6",
"&#	c #557AA1",
"*#	c #4B6D95",
"=#	c #456493",
"-#	c #435F8B",
";#	c #385B8A",
">#	c #32507B",
",#	c #2C4C72",
"'#	c #274A71",
")#	c #20476E",
"!#	c #1D466F",
"~#	c #164267",
"{#	c #194675",
"]#	c #276697",
"^#	c #144A7C",
"/#	c #123E71",
"(#	c #4E718F",
"_#	c #F2EFF3",
":#	c #CCEBF5",
"<#	c #88D3E9",
"[#	c #7CC5DB",
"}#	c #A2CFDA",
"|#	c #5D81A5",
"1#	c #6D96BD",
"2#	c #80A0BE",
"3#	c #88A9C0",
"4#	c #95ADC8",
"5#	c #A9BFD0",
"6#	c #B4C4D4",
"7#	c #B5C5D4",
"8#	c #C7CCD7",
"9#	c #C8CBD1",
"0#	c #C7C8CB",
"a#	c #CACCCF",
"b#	c #CCCCCD",
"c#	c #C3BEBD",
"d#	c #C4C2C1",
"e#	c #C6C5C5",
"f#	c #C8C3BE",
"g#	c #BBB8B7",
"h#	c #BBBFC7",
"i#	c #BAC0CD",
"j#	c #A9ADB6",
"k#	c #A4AAB8",
"l#	c #9FA7B7",
"m#	c #8B919F",
"n#	c #7F91A9",
"o#	c #7F95AC",
"p#	c #7498B8",
"q#	c #688DAF",
"r#	c #6693B7",
"s#	c #5C7E9D",
"t#	c #5383A3",
"u#	c #4E81AA",
"v#	c #4B7497",
"w#	c #496B9A",
"x#	c #426392",
"y#	c #466A93",
"z#	c #415778",
"A#	c #4970A1",
"B#	c #456A93",
"C#	c #4B6188",
"D#	c #4A6389",
"E#	c #4E6790",
"F#	c #58728F",
"G#	c #587599",
"H#	c #5A7699",
"I#	c #6A869E",
"J#	c #9DB3C3",
"K#	c #80B2CB",
"L#	c #6788AD",
"M#	c #70A7C4",
"N#	c #7DBDDB",
"O#	c #87C1DE",
"P#	c #83C3E3",
"Q#	c #5892B4",
"R#	c #5B87A6",
"S#	c #536E95",
"T#	c #466C9B",
"U#	c #3D5E8C",
"V#	c #374F6F",
"W#	c #2D496B",
"X#	c #244469",
"Y#	c #214369",
"Z#	c #1A4067",
"`#	c #18446E",
" $	c #29578A",
".$	c #0D3E6B",
"+$	c #DCF4FB",
"@$	c #95CBE2",
"#$	c #F2F3F2",
"$$	c #67A7C9",
"%$	c #53A1BB",
"&$	c #5FC1E6",
"*$	c #D6F4F8",
"=$	c #8CB1C3",
"-$	c #658FB6",
";$	c #76A0BC",
">$	c #8BACC4",
",$	c #95B1C6",
"'$	c #A0B7C9",
")$	c #B4C7D6",
"!$	c #C0CFDB",
"~$	c #C3CDD6",
"{$	c #CAC7C7",
"]$	c #C6C3C3",
"^$	c #C4BAB1",
"/$	c #BCB7B3",
"($	c #C8BCB0",
"_$	c #B8B3AE",
":$	c #ACA6A0",
"<$	c #B9B3AD",
"[$	c #B5B0AB",
"}$	c #ACA8A6",
"|$	c #B7B3B5",
"1$	c #C3C5CC",
"2$	c #B6B5B9",
"3$	c #ADB2BA",
"4$	c #ABB2C0",
"5$	c #9FA5B1",
"6$	c #919AAC",
"7$	c #8E9DB3",
"8$	c #84A3C4",
"9$	c #7697B1",
"0$	c #759FBB",
"a$	c #6A82A1",
"b$	c #5F7A9B",
"c$	c #628BAF",
"d$	c #5B789B",
"e$	c #5C76A0",
"f$	c #536D92",
"g$	c #597199",
"h$	c #566988",
"i$	c #5D86A3",
"j$	c #5680A7",
"k$	c #5E82A6",
"l$	c #5C7D9C",
"m$	c #617EA3",
"n$	c #6A91AE",
"o$	c #6D95B7",
"p$	c #7BA9CC",
"q$	c #CFECF5",
"r$	c #EDF8F8",
"s$	c #9BC6DA",
"t$	c #647FA1",
"u$	c #7BA9C5",
"v$	c #91CCDE",
"w$	c #90C1D3",
"x$	c #9BCFE1",
"y$	c #8FCEE7",
"z$	c #6898B6",
"A$	c #88B5D1",
"B$	c #97A8B8",
"C$	c #5673A1",
"D$	c #4D6996",
"E$	c #405B84",
"F$	c #365274",
"G$	c #2E4A6C",
"H$	c #243E5F",
"I$	c #1E3B5E",
"J$	c #1A456D",
"K$	c #274F7A",
"L$	c #15406C",
"M$	c #E5EFF8",
"N$	c #ABD4E4",
"O$	c #69C6E6",
"P$	c #48A4CA",
"Q$	c #3892AD",
"R$	c #3986AC",
"S$	c #3A99C5",
"T$	c #54B3D6",
"U$	c #8AC9E5",
"V$	c #799AB4",
"W$	c #779BBB",
"X$	c #85AAC3",
"Y$	c #8AABC2",
"Z$	c #A2B9CB",
"`$	c #B2C5D4",
" %	c #B6C6D3",
".%	c #C7D2D9",
"+%	c #CBCFD2",
"@%	c #BEBAB7",
"#%	c #B6ABA0",
"$%	c #ADA094",
"%%	c #A6A09A",
"&%	c #958475",
"*%	c #927E6D",
"=%	c #907C6B",
"-%	c #716C69",
";%	c #796B5E",
">%	c #7B7778",
",%	c #858486",
"'%	c #A8A19E",
")%	c #B3B0B2",
"!%	c #BAB6B4",
"~%	c #ACB1BB",
"{%	c #B0B6BF",
"]%	c #A8AFBB",
"^%	c #95A4B6",
"/%	c #91B0C6",
"(%	c #8DA4C1",
"_%	c #819EBB",
":%	c #788BA5",
"<%	c #788CA9",
"[%	c #7495B5",
"}%	c #69809F",
"|%	c #6F82A1",
"1%	c #6C7791",
"2%	c #667486",
"3%	c #A8C2CF",
"4%	c #8CB7D1",
"5%	c #698AAC",
"6%	c #6F9FC0",
"7%	c #7592B2",
"8%	c #7895B3",
"9%	c #759FBF",
"0%	c #7FA2C5",
"a%	c #90B4CA",
"b%	c #DEF2F0",
"c%	c #E6E8E6",
"d%	c #81A4B4",
"e%	c #556B91",
"f%	c #739EB7",
"g%	c #A9D0DA",
"h%	c #98BFD5",
"i%	c #B1D9E8",
"j%	c #A1DAEF",
"k%	c #7EA0C4",
"l%	c #95BFD2",
"m%	c #DAF3F6",
"n%	c #7BA0BF",
"o%	c #587199",
"p%	c #4C688E",
"q%	c #46658E",
"r%	c #39557C",
"s%	c #294B70",
"t%	c #1C456D",
"u%	c #0D416B",
"v%	c #234D79",
"w%	c #CCE4EC",
"x%	c #C4EAF5",
"y%	c #3AA3CF",
"z%	c #2473A3",
"A%	c #F8EFF5",
"B%	c #558DB4",
"C%	c #2D98C6",
"D%	c #41A4D0",
"E%	c #9ECCE2",
"F%	c #D9E8EC",
"G%	c #6D879E",
"H%	c #7EA6C1",
"I%	c #8EAFC6",
"J%	c #ACC0CF",
"K%	c #BCCCD9",
"L%	c #BBC9D4",
"M%	c #C9CED1",
"N%	c #C3C2C3",
"O%	c #ACA7A1",
"P%	c #AD9782",
"Q%	c #A28F7B",
"R%	c #978676",
"S%	c #796857",
"T%	c #6B513D",
"U%	c #584A40",
"V%	c #61564D",
"W%	c #5F544D",
"X%	c #645852",
"Y%	c #695F5B",
"Z%	c #887C76",
"`%	c #8C8A8E",
" &	c #A39C99",
".&	c #B6B4B7",
"+&	c #B5BAC4",
"@&	c #B7BECA",
"#&	c #A7B7C5",
"$&	c #9FB3CA",
"%&	c #9FB1C9",
"&&	c #91A5BF",
"*&	c #8A9EB6",
"=&	c #8C9EB7",
"-&	c #889EB8",
";&	c #7A869D",
">&	c #808A97",
",&	c #8E9EAF",
"'&	c #C3D8E1",
")&	c #9CBCCD",
"!&	c #7EA4C4",
"~&	c #80ADC6",
"{&	c #89A0BA",
"]&	c #8BA6C2",
"^&	c #87A8C4",
"/&	c #8FA9C4",
"(&	c #9CC3DC",
"_&	c #D5E6E6",
":&	c #D0CDC7",
"<&	c #86949E",
"[&	c #646E8E",
"}&	c #7490A5",
"|&	c #A4BEC5",
"1&	c #B0CED7",
"2&	c #C2E8EF",
"3&	c #B3E1F4",
"4&	c #92B0C6",
"5&	c #A7C8D9",
"6&	c #B8D2DF",
"7&	c #6C7F9A",
"8&	c #5A76A2",
"9&	c #526C98",
"0&	c #456086",
"a&	c #2C4C71",
"b&	c #1B4468",
"c&	c #154267",
"d&	c #153E66",
"e&	c #12426D",
"f&	c #0A345A",
"g&	c #2A97C6",
"h&	c #2877A7",
"i&	c #6699B8",
"j&	c #AEC3CC",
"k&	c #3098C6",
"l&	c #4F99C6",
"m&	c #B0DCEB",
"n&	c #9CB8CD",
"o&	c #748098",
"p&	c #839EB5",
"q&	c #93B1C7",
"r&	c #AABFCF",
"s&	c #B3C4D1",
"t&	c #BCC9D4",
"u&	c #C6CBCE",
"v&	c #BDBAB5",
"w&	c #AA9C90",
"x&	c #AF9178",
"y&	c #937E6C",
"z&	c #827263",
"A&	c #7A6956",
"B&	c #5A4B3E",
"C&	c #594B3E",
"D&	c #594B3F",
"E&	c #584A3F",
"F&	c #574A42",
"G&	c #5D534F",
"H&	c #70635C",
"I&	c #7E7270",
"J&	c #938986",
"K&	c #B5ADA8",
"L&	c #B9B9C0",
"M&	c #B4B6BE",
"N&	c #BAC6D1",
"O&	c #B3C6D8",
"P&	c #A4B6C9",
"Q&	c #A7B6CA",
"R&	c #A2AFC3",
"S&	c #97A8BE",
"T&	c #95A3BB",
"U&	c #A0ACBA",
"V&	c #C1CDD6",
"W&	c #E6EDF0",
"X&	c #F8F6F9",
"Y&	c #9FD0E0",
"Z&	c #94B1C7",
"`&	c #9BBCD1",
" *	c #94ABC4",
".*	c #9AAFC8",
"+*	c #A2BACF",
"@*	c #A0B2C8",
"#*	c #A4BDC9",
"$*	c #BBC5C6",
"%*	c #C2B3AD",
"&*	c #8E97A6",
"**	c #81788A",
"=*	c #717C86",
"-*	c #89A5AE",
";*	c #BACCCB",
">*	c #C9E7F3",
",*	c #AED7EA",
"'*	c #96A8BE",
")*	c #B3C6D5",
"!*	c #F9F7F4",
"~*	c #E5EEF1",
"{*	c #8A9BA8",
"]*	c #6981A6",
"^*	c #577099",
"/*	c #4D668F",
"(*	c #33517B",
"_*	c #204368",
":*	c #1B4067",
"<*	c #143E66",
"[*	c #15395C",
"}*	c #69B4CC",
"|*	c #257BB2",
"1*	c #B8CBD6",
"2*	c #52B3D6",
"3*	c #5EA8CA",
"4*	c #C7E4ED",
"5*	c #E4F8FB",
"6*	c #7D91A5",
"7*	c #7C879D",
"8*	c #85A0B6",
"9*	c #98ADBF",
"0*	c #B3C3D4",
"a*	c #B6C4D4",
"b*	c #BCC5CF",
"c*	c #B1B5B5",
"d*	c #989089",
"e*	c #9E8E80",
"f*	c #9E8875",
"g*	c #95806C",
"h*	c #736454",
"i*	c #5A4B3D",
"j*	c #544335",
"k*	c #5D5145",
"l*	c #5B534C",
"m*	c #685B51",
"n*	c #665A52",
"o*	c #655A57",
"p*	c #726965",
"q*	c #8B7E79",
"r*	c #A29790",
"s*	c #AEABAA",
"t*	c #B2B3B4",
"u*	c #C1CDD7",
"v*	c #C2D1E0",
"w*	c #B4C0CD",
"x*	c #B7C7DA",
"y*	c #B6C3D4",
"z*	c #A6B3C5",
"A*	c #ACBED2",
"B*	c #E1F2F8",
"C*	c #EFF3F4",
"D*	c #ECEDEA",
"E*	c #F2F5F4",
"F*	c #F9F8F6",
"G*	c #BCD7DE",
"H*	c #B0D1E4",
"I*	c #BBDFEF",
"J*	c #A3AFBF",
"K*	c #A8BDD0",
"L*	c #B5C4D6",
"M*	c #B3BECA",
"N*	c #9DAEB7",
"O*	c #AEB6B7",
"P*	c #C9BAB4",
"Q*	c #9499A2",
"R*	c #8D7981",
"S*	c #9F8883",
"T*	c #999499",
"U*	c #C0C3BE",
"V*	c #D4E5EC",
"W*	c #B4CFE2",
"X*	c #A1B5C8",
"Y*	c #C6D5E0",
"Z*	c #E5EDF3",
"`*	c #DEEBEF",
" =	c #A3B8C7",
".=	c #7190B0",
"+=	c #587BA2",
"@=	c #3D5B8C",
"#=	c #335581",
"$=	c #284C78",
"%=	c #1B426D",
"&=	c #14406C",
"*=	c #86BBD5",
"==	c #4997C5",
"-=	c #589AC7",
";=	c #F3F3F3",
">=	c #5CA7CA",
",=	c #7DB6CD",
"'=	c #F4F6F8",
")=	c #ECF8F3",
"!=	c #C0DCE7",
"~=	c #708299",
"{=	c #818AA0",
"]=	c #9AA9B8",
"^=	c #A4ABB9",
"/=	c #AFBDC9",
"(=	c #B6BEC8",
"_=	c #AEB3B5",
":=	c #8A8784",
"<=	c #90847D",
"[=	c #94867B",
"}=	c #947F6C",
"|=	c #7B6B5B",
"1=	c #5E5144",
"2=	c #52463B",
"3=	c #54493E",
"4=	c #5D5349",
"5=	c #6D6053",
"6=	c #6A5C4F",
"7=	c #695C50",
"8=	c #73665C",
"9=	c #736155",
"0=	c #74665D",
"a=	c #807168",
"b=	c #958274",
"c=	c #A5A7A6",
"d=	c #C9C8C3",
"e=	c #BFCACC",
"f=	c #CBD7E0",
"g=	c #C6CFDA",
"h=	c #C3D4E2",
"i=	c #BCC6D3",
"j=	c #BDCBDC",
"k=	c #C6D9E7",
"l=	c #E4F0F3",
"m=	c #F0F0F0",
"n=	c #F3F2F1",
"o=	c #F6F4F3",
"p=	c #F6F6F6",
"q=	c #D3EEF3",
"r=	c #C2E1EF",
"s=	c #C3E1EF",
"t=	c #BAC8D8",
"u=	c #BEC7D4",
"v=	c #C2CAD3",
"w=	c #98A0A3",
"x=	c #A2A3A1",
"y=	c #C1AAA1",
"z=	c #928F92",
"A=	c #7A6671",
"B=	c #9D8480",
"C=	c #AF9D96",
"D=	c #B7B9B2",
"E=	c #D5DDDC",
"F=	c #C3D7E5",
"G=	c #B9C6D5",
"H=	c #CCDCE4",
"I=	c #F5F3F5",
"J=	c #EBEDEC",
"K=	c #F7F4F7",
"L=	c #F6F4F6",
"M=	c #CBE8F8",
"N=	c #83B5D8",
"O=	c #597DAA",
"P=	c #44608E",
"Q=	c #3D5B8E",
"R=	c #2F5486",
"S=	c #29507E",
"T=	c #2B507B",
"U=	c #214D7D",
"V=	c #063664",
"W=	c #859BAE",
"X=	c #4995BA",
"Y=	c #6CB5CD",
"Z=	c #B8E4ED",
"`=	c #F3FAFB",
" -	c #90A6BA",
".-	c #747E96",
"+-	c #808BA1",
"@-	c #A2AAB7",
"#-	c #ADB3BB",
"$-	c #AFBAC3",
"%-	c #B1AFAE",
"&-	c #83878E",
"*-	c #7E7674",
"=-	c #897A6E",
"--	c #8D7E6E",
";-	c #887564",
">-	c #746454",
",-	c #5A4E41",
"'-	c #65584B",
")-	c #635445",
"!-	c #7C6C5B",
"~-	c #7B6C5C",
"{-	c #736457",
"]-	c #81705F",
"^-	c #796B5D",
"/-	c #76675A",
"(-	c #76685D",
"_-	c #91867D",
":-	c #BBAFA3",
"<-	c #C4B9A9",
"[-	c #BCBFBA",
"}-	c #CACDD0",
"|-	c #D5DDE8",
"1-	c #CCDCE7",
"2-	c #C4CCD6",
"3-	c #CEDAE6",
"4-	c #D0DFE7",
"5-	c #E9EDF0",
"6-	c #F2EFEE",
"7-	c #F5F4F5",
"8-	c #E0ECF2",
"9-	c #C1D1DD",
"0-	c #C2D2DC",
"a-	c #CED8E2",
"b-	c #CDD7E4",
"c-	c #C2C9D4",
"d-	c #D1CECA",
"e-	c #92928E",
"f-	c #A79A92",
"g-	c #AD9A91",
"h-	c #7A787A",
"i-	c #5D4A56",
"j-	c #957166",
"k-	c #B5927E",
"l-	c #B9A696",
"m-	c #D9DFDE",
"n-	c #D2E1ED",
"o-	c #C9D3DC",
"p-	c #D1DFE2",
"q-	c #F5F4F3",
"r-	c #F7FBFC",
"s-	c #F6F5F2",
"t-	c #E3F3F7",
"u-	c #93CEE8",
"v-	c #6F9FC7",
"w-	c #5170A0",
"x-	c #456A9D",
"y-	c #395E8D",
"z-	c #2F598D",
"A-	c #295189",
"B-	c #254F84",
"C-	c #1E4977",
"D-	c #042C53",
"E-	c #87C5DB",
"F-	c #78B4CC",
"G-	c #CAD7DF",
"H-	c #6D798A",
"I-	c #7C869C",
"J-	c #8E96A2",
"K-	c #A2A9B4",
"L-	c #B0B3B9",
"M-	c #B9BEC8",
"N-	c #9E9FA3",
"O-	c #817873",
"P-	c #7B736D",
"Q-	c #7E7066",
"R-	c #827467",
"S-	c #75675A",
"T-	c #7B6956",
"U-	c #8B7965",
"V-	c #83715E",
"W-	c #7B6A59",
"X-	c #82715F",
"Y-	c #74685C",
"Z-	c #6D645A",
"`-	c #736A61",
" ;	c #8E8277",
".;	c #A79788",
"+;	c #B7AB9D",
"@;	c #A59F98",
"#;	c #B4B1AF",
"$;	c #CCCFD4",
"%;	c #D8E2E8",
"&;	c #D6E0E8",
"*;	c #D3DCE4",
"=;	c #D8E3EA",
"-;	c #F3F4F2",
";;	c #F4F3F4",
">;	c #F3F4F5",
",;	c #E3EDF3",
"';	c #D0DCE4",
");	c #D1DAE1",
"!;	c #CFD8E2",
"~;	c #D2DAE3",
"{;	c #D8DDE4",
"];	c #D9D9D8",
"^;	c #AA978A",
"/;	c #A79183",
"(;	c #877B76",
"_;	c #6C6D6B",
":;	c #8E705F",
"<;	c #A2725D",
"[;	c #C39F80",
"};	c #AC9382",
"|;	c #E1E1DB",
"1;	c #DCE9EE",
"2;	c #DFE9EE",
"3;	c #F7F6F4",
"4;	c #F8F7F4",
"5;	c #E8F2F5",
"6;	c #98C6E5",
"7;	c #6BA8CC",
"8;	c #517BA3",
"9;	c #4479A9",
"0;	c #426D9F",
"a;	c #3A71A4",
"b;	c #2D588D",
"c;	c #255084",
"d;	c #174B85",
"e;	c #244868",
"f;	c #86A5B9",
"g;	c #97C6D9",
"h;	c #96A7B7",
"i;	c #666F80",
"j;	c #818B9A",
"k;	c #969DA6",
"l;	c #9BA1AB",
"m;	c #B3B3B8",
"n;	c #BFC0C5",
"o;	c #938C89",
"p;	c #706863",
"q;	c #706765",
"r;	c #776759",
"s;	c #74685E",
"t;	c #736455",
"u;	c #6E6052",
"v;	c #83715D",
"w;	c #76685A",
"x;	c #6D6256",
"y;	c #665D53",
"z;	c #6C6158",
"A;	c #827569",
"B;	c #8A7B6E",
"C;	c #A49383",
"D;	c #9F8F81",
"E;	c #A2A09F",
"F;	c #BDBCB9",
"G;	c #DAE0E3",
"H;	c #E6EFF4",
"I;	c #D1D8DE",
"J;	c #D9E0E5",
"K;	c #FBFAFB",
"L;	c #ECEEEF",
"M;	c #E9ECED",
"N;	c #F5F5F5",
"O;	c #E3E8E7",
"P;	c #DAE1E7",
"Q;	c #E2E7EE",
"R;	c #D1D7DF",
"S;	c #DADFE5",
"T;	c #E4E8EE",
"U;	c #E3E0DC",
"V;	c #C2B09F",
"W;	c #A48B79",
"X;	c #897165",
"Y;	c #AA9C89",
"Z;	c #E0C9A7",
"`;	c #E8CFAA",
" >	c #F1DCB9",
".>	c #EBDDC1",
"+>	c #F3EBDC",
"@>	c #E6E9E5",
"#>	c #D3DADF",
"$>	c #EBF1F1",
"%>	c #FAF6ED",
"&>	c #F2EBE4",
"*>	c #E6F1F5",
"=>	c #85AAD2",
"->	c #6EA0C2",
";>	c #597EAD",
">>	c #5692BA",
",>	c #4B7BA9",
"'>	c #396EA7",
")>	c #305F98",
"!>	c #2A578C",
"~>	c #21548C",
"{>	c #1C5284",
"]>	c #6D869B",
"^>	c #78B7D8",
"/>	c #EBF5F9",
"(>	c #E5FAFD",
"_>	c #717F90",
":>	c #6F7584",
"<>	c #828999",
"[>	c #979EAA",
"}>	c #A4A9B3",
"|>	c #B2B4B9",
"1>	c #AEB0B6",
"2>	c #77777F",
"3>	c #71655F",
"4>	c #665E5A",
"5>	c #786A5D",
"6>	c #817261",
"7>	c #6A5C4E",
"8>	c #6B5C4D",
"9>	c #97816C",
"0>	c #6E6153",
"a>	c #65594D",
"b>	c #5B5248",
"c>	c #564F48",
"d>	c #6F645A",
"e>	c #71665C",
"f>	c #82786B",
"g>	c #918075",
"h>	c #A2968D",
"i>	c #CFCBC9",
"j>	c #E5EBEF",
"k>	c #DDE0E5",
"l>	c #E4E7E7",
"m>	c #F2F4F3",
"n>	c #EEEFF0",
"o>	c #F1F0F2",
"p>	c #F7F8F9",
"q>	c #EBEBEB",
"r>	c #E1E6E9",
"s>	c #E5EBF0",
"t>	c #E1E4E9",
"u>	c #E5E6E7",
"v>	c #EEEAE2",
"w>	c #EBE2D4",
"x>	c #D3B18C",
"y>	c #BF9B7D",
"z>	c #CDB79E",
"A>	c #F1DCB8",
"B>	c #F0DAB4",
"C>	c #F2DBB5",
"D>	c #E2CEB7",
"E>	c #EAD4AD",
"F>	c #E7CEAB",
"G>	c #ECE2CD",
"H>	c #E3DED2",
"I>	c #EBE4D2",
"J>	c #F2E8D4",
"K>	c #EFE2D0",
"L>	c #F2EAE0",
"M>	c #F6F3F0",
"N>	c #E8F2F7",
"O>	c #85A5BD",
"P>	c #6F97B8",
"Q>	c #5E9ECA",
"R>	c #6DBEE4",
"S>	c #6199CC",
"T>	c #3B6FA7",
"U>	c #326CA5",
"V>	c #255585",
"W>	c #204F84",
"X>	c #1C528B",
"Y>	c #2A547B",
"Z>	c #134474",
"`>	c #3E607E",
" ,	c #90E1F1",
".,	c #BCCDD7",
"+,	c #5C6A81",
"@,	c #757F90",
"#,	c #838B9A",
"$,	c #939AA7",
"%,	c #ACB2BC",
"&,	c #B4B5BA",
"*,	c #9C9EA4",
"=,	c #7A6F6E",
"-,	c #796D66",
";,	c #7D7066",
">,	c #817163",
",,	c #7B6D5E",
"',	c #766759",
"),	c #8B725C",
"!,	c #5A4C3E",
"~,	c #4C433A",
"{,	c #4F453C",
"],	c #594F46",
"^,	c #5B5149",
"/,	c #695E54",
"(,	c #6E645A",
"_,	c #796D61",
":,	c #87796B",
"<,	c #B1A498",
"[,	c #DCDCDB",
"},	c #EDF0F3",
"|,	c #EBEFF0",
"1,	c #E4E6E7",
"2,	c #F1F3F5",
"3,	c #F3EEE7",
"4,	c #F4EEE6",
"5,	c #F4F5F3",
"6,	c #E9E7E2",
"7,	c #E1DDD9",
"8,	c #F0EDE4",
"9,	c #EBE7E0",
"0,	c #E8DABF",
"a,	c #E1C8A5",
"b,	c #D0AA85",
"c,	c #E4BE8B",
"d,	c #F3DCB6",
"e,	c #CCB59B",
"f,	c #C6AD94",
"g,	c #C6AD95",
"h,	c #B8987B",
"i,	c #CAA580",
"j,	c #D3BCA0",
"k,	c #E6D4B5",
"l,	c #D7C5B0",
"m,	c #CBB5A3",
"n,	c #D8C1B0",
"o,	c #D5CBC0",
"p,	c #E7E2E0",
"q,	c #ECF6F8",
"r,	c #90ADC9",
"s,	c #7098BE",
"t,	c #658AB2",
"u,	c #61ADD3",
"v,	c #67AACB",
"w,	c #346CA6",
"x,	c #2B5D94",
"y,	c #1C4C86",
"z,	c #214E83",
"A,	c #1C4B7C",
"B,	c #1A436B",
"C,	c #A5BAC8",
"D,	c #6B8CA3",
"E,	c #5A6679",
"F,	c #758195",
"G,	c #838A9C",
"H,	c #9399A5",
"I,	c #AEB2B9",
"J,	c #B4B3B7",
"K,	c #92979B",
"L,	c #7C7373",
"M,	c #867A72",
"N,	c #84756B",
"O,	c #716357",
"P,	c #62564A",
"Q,	c #64564A",
"R,	c #4B4036",
"S,	c #3C352E",
"T,	c #3A332C",
"U,	c #464039",
"V,	c #4A4139",
"W,	c #534A42",
"X,	c #554D45",
"Y,	c #62554B",
"Z,	c #69574B",
"`,	c #85807D",
" '	c #C7C0B8",
".'	c #F4F0E6",
"+'	c #EFF1EF",
"@'	c #EAECEC",
"#'	c #F7F2E7",
"$'	c #F9F4E9",
"%'	c #E5DED7",
"&'	c #F5E6CD",
"*'	c #F0E9D7",
"='	c #EDE6D6",
"-'	c #EFE0C8",
";'	c #F0E0C8",
">'	c #E3C9A6",
",'	c #E3BB8D",
"''	c #E1BA87",
")'	c #E9C48A",
"!'	c #F1D7AB",
"~'	c #E8C799",
"{'	c #B59D86",
"]'	c #B7A797",
"^'	c #D6C8B8",
"/'	c #D4CDC5",
"('	c #CBC3B9",
"_'	c #B69F88",
":'	c #C39D7C",
"<'	c #D2B391",
"['	c #E8CEAC",
"}'	c #D1AC93",
"|'	c #C5AD9F",
"1'	c #C7B9AF",
"2'	c #F1E9E1",
"3'	c #F0FAFB",
"4'	c #9AB6CD",
"5'	c #759BBF",
"6'	c #688BB2",
"7'	c #5FA0C0",
"8'	c #5F9EC8",
"9'	c #4274A5",
"0'	c #37639A",
"a'	c #2C528A",
"b'	c #21538C",
"c'	c #1B4D83",
"d'	c #4B96BA",
"e'	c #9BBACA",
"f'	c #4E617D",
"g'	c #5B6A84",
"h'	c #6C7688",
"i'	c #848C9B",
"j'	c #989FAB",
"k'	c #A7ABB6",
"l'	c #A7A6AC",
"m'	c #8C868B",
"n'	c #7A7072",
"o'	c #85786E",
"p'	c #7D6F65",
"q'	c #594E44",
"r'	c #52463D",
"s'	c #43382F",
"t'	c #3B332B",
"u'	c #373028",
"v'	c #3D362F",
"w'	c #3D362E",
"x'	c #473D34",
"y'	c #4E453D",
"z'	c #4B413A",
"A'	c #4A413A",
"B'	c #6D6155",
"C'	c #A29C97",
"D'	c #E2E0DD",
"E'	c #ECEDED",
"F'	c #F9F4E8",
"G'	c #F4EAD9",
"H'	c #F5E5CB",
"I'	c #F7E1BB",
"J'	c #F0D9B5",
"K'	c #F0D9B4",
"L'	c #E4CAA5",
"M'	c #F1D39C",
"N'	c #F1D195",
"O'	c #EDD09E",
"P'	c #E7CCA5",
"Q'	c #ECE3D7",
"R'	c #FAF4E8",
"S'	c #EBE4DC",
"T'	c #CAB59E",
"U'	c #C09A7A",
"V'	c #DBC4AA",
"W'	c #CFB39C",
"X'	c #AE9D95",
"Y'	c #CDC8BF",
"Z'	c #F9FAFA",
"`'	c #EFF4F5",
" )	c #A0C0D5",
".)	c #83A2BF",
"+)	c #6B8DB2",
"@)	c #5983AD",
"#)	c #6394BD",
"$)	c #71AED6",
"%)	c #97B7CD",
"&)	c #597FA4",
"*)	c #C4CED8",
"=)	c #6AA3BC",
"-)	c #A7BBC9",
";)	c #3C5570",
">)	c #495E7B",
",)	c #5A6984",
"')	c #65728A",
"))	c #808A9C",
"!)	c #959DAD",
"~)	c #A1A8B8",
"{)	c #9FA0A7",
"])	c #807E89",
"^)	c #7F777A",
"/)	c #807470",
"()	c #836F62",
"_)	c #706359",
":)	c #594D45",
"<)	c #594B40",
"[)	c #6E6053",
"})	c #787069",
"|)	c #645649",
"1)	c #46362A",
"2)	c #4C4037",
"3)	c #4C4238",
"4)	c #453C35",
"5)	c #433931",
"6)	c #5A4C40",
"7)	c #83796F",
"8)	c #CAC3BA",
"9)	c #F5E4CA",
"0)	c #F5E5CA",
"a)	c #F8E2BB",
"b)	c #F3DBB6",
"c)	c #F1D5A4",
"d)	c #E5BD8D",
"e)	c #EAC48A",
"f)	c #E7C798",
"g)	c #F2CD94",
"h)	c #F3D49C",
"i)	c #E8C798",
"j)	c #C5B8A9",
"k)	c #DCD9D7",
"l)	c #E4E1DD",
"m)	c #F2F1EE",
"n)	c #F6F7F8",
"o)	c #F1EEEC",
"p)	c #E2DBD4",
"q)	c #B19D89",
"r)	c #CDAA8E",
"s)	c #D2BAA4",
"t)	c #A19C96",
"u)	c #E4E0DC",
"v)	c #F3F4F4",
"w)	c #AAC9D7",
"x)	c #85A1B8",
"y)	c #738EB5",
"z)	c #5A8EBA",
"A)	c #659FC0",
"B)	c #9ED5E8",
"C)	c #CDE4EC",
"D)	c #3B6087",
"E)	c #1A4D84",
"F)	c #22548B",
"G)	c #D8ECF8",
"H)	c #3C566F",
"I)	c #31486D",
"J)	c #435B7F",
"K)	c #53627B",
"L)	c #6A7691",
"M)	c #79849B",
"N)	c #8D96A9",
"O)	c #A3ABBC",
"P)	c #A6A6AC",
"Q)	c #898993",
"R)	c #766F75",
"S)	c #766C6A",
"T)	c #82746A",
"U)	c #776960",
"V)	c #61564E",
"W)	c #5C534C",
"X)	c #746455",
"Y)	c #6C5A4C",
"Z)	c #453B33",
"`)	c #4A3E34",
" !	c #3B332C",
".!	c #52473C",
"+!	c #B7A898",
"@!	c #E7D9C7",
"#!	c #F3E9D6",
"$!	c #F8E1BA",
"%!	c #F3DBB5",
"&!	c #ECD4AC",
"*!	c #E7CCA6",
"=!	c #D8BA98",
"-!	c #D8A778",
";!	c #D8A777",
">!	c #E9B877",
",!	c #CAB297",
"'!	c #A49C96",
")!	c #E3DCD4",
"!!	c #C2AC96",
"~!	c #BA9F8B",
"{!	c #C4B2A2",
"]!	c #C2AEA1",
"^!	c #F2ECE5",
"/!	c #F7F4EF",
"(!	c #FAFAFB",
"_!	c #BDD7E2",
":!	c #7F96B2",
"<!	c #7792B5",
"[!	c #6CA5C3",
"}!	c #7BB9CF",
"|!	c #C0E9F9",
"1!	c #79A7BB",
"2!	c #214E88",
"3!	c #87A6B9",
"4!	c #204268",
"5!	c #335280",
"6!	c #3C5577",
"7!	c #4E5F79",
"8!	c #65728E",
"9!	c #73819E",
"0!	c #848FA7",
"a!	c #9FA7B9",
"b!	c #A1A2AE",
"c!	c #7D8392",
"d!	c #6E6D75",
"e!	c #736969",
"f!	c #796E6B",
"g!	c #756961",
"h!	c #605550",
"i!	c #584B44",
"j!	c #6D6055",
"k!	c #756657",
"l!	c #77685A",
"m!	c #6B5644",
"n!	c #F8E1B9",
"o!	c #F3DBB4",
"p!	c #E2CDB5",
"q!	c #DAC3A6",
"r!	c #E7BD8C",
"s!	c #D4AC84",
"t!	c #DAB489",
"u!	c #DDC29C",
"v!	c #9A8876",
"w!	c #544B42",
"x!	c #37170A",
"y!	c #E2DEDB",
"z!	c #D9D2CC",
"A!	c #B4AFAB",
"B!	c #AE9C8B",
"C!	c #C2AC97",
"D!	c #BEA99D",
"E!	c #E5D4C2",
"F!	c #F3EFE8",
"G!	c #B9D1DC",
"H!	c #8493AA",
"I!	c #7D9BBB",
"J!	c #77B7DA",
"K!	c #7ABBDB",
"L!	c #D5ECF4",
"M!	c #29588A",
"N!	c #14457A",
"O!	c #507290",
"P!	c #1D3D67",
"Q!	c #284870",
"R!	c #3A5477",
"S!	c #485B7F",
"T!	c #586786",
"U!	c #6F7D96",
"V!	c #808CA8",
"W!	c #909FBE",
"X!	c #9AA0B3",
"Y!	c #828C9F",
"Z!	c #777783",
"`!	c #847F86",
" ~	c #887A7A",
".~	c #6C6566",
"+~	c #655D5A",
"@~	c #514B49",
"#~	c #625750",
"$~	c #716457",
"%~	c #78695C",
"&~	c #AA9987",
"*~	c #F8E0AD",
"=~	c #ECD4AB",
"-~	c #C69B75",
";~	c #C59467",
">~	c #3F3731",
",~	c #160C07",
"'~	c #664937",
")~	c #EFF0F1",
"!~	c #C9C6C5",
"~~	c #ADA7A0",
"{~	c #9A8676",
"]~	c #9D9084",
"^~	c #AF9A8A",
"/~	c #D4BCAA",
"(~	c #E4E0D9",
"_~	c #F9F5EF",
":~	c #C9DFE8",
"<~	c #90A7BB",
"[~	c #7F9CBB",
"}~	c #7DB6D8",
"|~	c #96CADD",
"1~	c #E5F4FA",
"2~	c #567EA3",
"3~	c #1D4D86",
"4~	c #0B3E72",
"5~	c #144B83",
"6~	c #365A7A",
"7~	c #264970",
"8~	c #35537B",
"9~	c #40597F",
"0~	c #4E668F",
"a~	c #667899",
"b~	c #7B8EB0",
"c~	c #8498B8",
"d~	c #8B98B3",
"e~	c #788198",
"f~	c #656E7F",
"g~	c #73707A",
"h~	c #666370",
"i~	c #5A5E68",
"j~	c #4E4E55",
"k~	c #46454C",
"l~	c #484547",
"m~	c #594E47",
"n~	c #62574C",
"o~	c #78695A",
"p~	c #766657",
"q~	c #ECD1A7",
"r~	c #EBC589",
"s~	c #BC926D",
"t~	c #976949",
"u~	c #B57C54",
"v~	c #C9A27A",
"w~	c #BAB2A8",
"x~	c #2E2720",
"y~	c #0C0502",
"z~	c #240D06",
"A~	c #856C57",
"B~	c #E4DCD4",
"C~	c #BBB8B6",
"D~	c #A59F9A",
"E~	c #877365",
"F~	c #93887E",
"G~	c #958981",
"H~	c #D9C0AC",
"I~	c #DAD2C6",
"J~	c #ECEAE6",
"K~	c #E0F2F7",
"L~	c #A0BDD8",
"M~	c #7D9FBD",
"N~	c #85B5D7",
"O~	c #A3D0E5",
"P~	c #C5D4DD",
"Q~	c #234A77",
"R~	c #3C5A83",
"S~	c #596E93",
"T~	c #6E85B0",
"U~	c #7E95B9",
"V~	c #8395B4",
"W~	c #757E92",
"X~	c #7A93A3",
"Y~	c #6E7F8E",
"Z~	c #60707F",
"`~	c #58606C",
" {	c #3F5060",
".{	c #374251",
"+{	c #47494F",
"@{	c #575453",
"#{	c #6E6459",
"${	c #7F7060",
"%{	c #7C6D5C",
"&{	c #423B34",
"*{	c #B9A38B",
"={	c #B68C67",
"-{	c #B08F74",
";{	c #F3DAAB",
">{	c #D3BCA3",
",{	c #5A4436",
"'{	c #27130C",
"){	c #B59D85",
"!{	c #F3EDE4",
"~{	c #EBE9E6",
"{{	c #C9C6C4",
"]{	c #ABA8A6",
"^{	c #989592",
"/{	c #80726A",
"({	c #797672",
"_{	c #8D7D79",
":{	c #D5C1AD",
"<{	c #DDD3C5",
"[{	c #ECE7E2",
"}{	c #A2CAE0",
"|{	c #85A3C4",
"1{	c #89C1DD",
"2{	c #B4D7E6",
"3{	c #CAE6F4",
"4{	c #386999",
"5{	c #31506B",
"6{	c #ADC3CC",
"7{	c #154475",
"8{	c #264B77",
"9{	c #345B88",
"0{	c #43608C",
"a{	c #4F6F9C",
"b{	c #6081AF",
"c{	c #758FB6",
"d{	c #808DA9",
"e{	c #9CADB9",
"f{	c #C5D0CE",
"g{	c #7B9EAF",
"h{	c #5B7E90",
"i{	c #4F6177",
"j{	c #476172",
"k{	c #3E4756",
"l{	c #464B54",
"m{	c #515B5C",
"n{	c #746F67",
"o{	c #7F7368",
"p{	c #817263",
"q{	c #8A7866",
"r{	c #4C433B",
"s{	c #ECD7B6",
"t{	c #DBB27F",
"u{	c #C7A787",
"v{	c #947B65",
"w{	c #DFD1BE",
"x{	c #E6E6E6",
"y{	c #BBB7B5",
"z{	c #9B938C",
"A{	c #6E6863",
"B{	c #606669",
"C{	c #7A7270",
"D{	c #C4B09D",
"E{	c #E0D4C8",
"F{	c #EDE5DC",
"G{	c #EAF0EE",
"H{	c #A4C7DC",
"I{	c #89BAD4",
"J{	c #8EC1D4",
"K{	c #C6E5F3",
"L{	c #77ABC7",
"M{	c #275C97",
"N{	c #1A5B94",
"O{	c #254E7D",
"P{	c #295188",
"Q{	c #3A5A88",
"R{	c #486B9D",
"S{	c #577DAD",
"T{	c #687FA7",
"U{	c #798FB1",
"V{	c #DFE4E5",
"W{	c #D4D2D2",
"X{	c #6FA1B6",
"Y{	c #507796",
"Z{	c #49677F",
"`{	c #466D83",
" ]	c #2E475D",
".]	c #334B5C",
"+]	c #5C666B",
"@]	c #867E74",
"#]	c #8F8174",
"$]	c #837464",
"%]	c #7E7061",
"&]	c #7C6C5C",
"*]	c #65594C",
"=]	c #917E69",
"-]	c #EED09D",
";]	c #B89779",
">]	c #F1D6AA",
",]	c #DAD2CB",
"']	c #B6AFA9",
")]	c #AAA7A5",
"!]	c #96918E",
"~]	c #807973",
"{]	c #5E5A58",
"]]	c #62686A",
"^]	c #7F7A78",
"/]	c #AE9F93",
"(]	c #E1D0BF",
"_]	c #EBE0D2",
":]	c #ECEDE9",
"<]	c #B0CFE2",
"[]	c #90C4DE",
"}]	c #8DC1D4",
"|]	c #2B639B",
"1]	c #2A5FA0",
"2]	c #204C7D",
"3]	c #29578D",
"4]	c #336095",
"5]	c #5882AA",
"6]	c #84B1CB",
"7]	c #556888",
"8]	c #9AB5C9",
"9]	c #F2EFED",
"0]	c #D2DDDC",
"a]	c #678C9D",
"b]	c #477390",
"c]	c #3E6884",
"d]	c #3F758B",
"e]	c #30627A",
"f]	c #4A5965",
"g]	c #7E827F",
"h]	c #998E82",
"i]	c #91867B",
"j]	c #877A6D",
"k]	c #796C5F",
"l]	c #7B6D5D",
"m]	c #88644A",
"n]	c #C6BFB6",
"o]	c #948F8C",
"p]	c #736E68",
"q]	c #545654",
"r]	c #5F6C6C",
"s]	c #797C7F",
"t]	c #9E8F89",
"u]	c #D1CDC6",
"v]	c #EBE1D6",
"w]	c #F4EFE8",
"x]	c #B7D8E6",
"y]	c #96C5DF",
"z]	c #9AC4DE",
"A]	c #497BA6",
"B]	c #26558C",
"C]	c #2A69A4",
"D]	c #34669C",
"E]	c #AAD3DE",
"F]	c #819BB2",
"G]	c #D0E5EC",
"H]	c #F3F2F2",
"I]	c #DEE3E2",
"J]	c #577992",
"K]	c #336589",
"L]	c #346F95",
"M]	c #46829E",
"N]	c #3F6D86",
"O]	c #526370",
"P]	c #878985",
"Q]	c #A99D8F",
"R]	c #958B7C",
"S]	c #928375",
"T]	c #7B7164",
"U]	c #75685C",
"V]	c #6E6255",
"W]	c #6F6154",
"X]	c #6D513A",
"Y]	c #A7927B",
"Z]	c #C5BDB4",
"`]	c #8A837E",
" ^	c #605C58",
".^	c #585552",
"+^	c #6C7272",
"@^	c #757E81",
"#^	c #9D8B84",
"$^	c #C9C9BE",
"%^	c #F0E9DC",
"&^	c #E8E4DD",
"*^	c #C2DBE8",
"=^	c #A1CAE6",
"-^	c #B8D8E5",
";^	c #87ACC5",
">^	c #A2B4BF",
",^	c #2969A4",
"'^	c #336EA3",
")^	c #C5EAF5",
"!^	c #F4F0EF",
"~^	c #E3E9E9",
"{^	c #5687A6",
"]^	c #2F6B97",
"^^	c #2E6188",
"/^	c #3F7091",
"(^	c #426986",
"_^	c #647281",
":^	c #868C8A",
"<^	c #A59F95",
"[^	c #9E9587",
"}^	c #8C8377",
"|^	c #7D7469",
"1^	c #6C6258",
"2^	c #6B5E50",
"3^	c #5F564D",
"4^	c #563928",
"5^	c #88817B",
"6^	c #786F67",
"7^	c #635D58",
"8^	c #615650",
"9^	c #6F6A64",
"0^	c #737472",
"a^	c #9F9693",
"b^	c #B1B7B4",
"c^	c #E7E1D6",
"d^	c #E7E3DE",
"e^	c #CAD9DD",
"f^	c #A3D3EB",
"g^	c #CCE8F6",
"h^	c #DDEDF3",
"i^	c #94B6CC",
"j^	c #245B93",
"k^	c #2668A4",
"l^	c #2874A3",
"m^	c #ACD4E4",
"n^	c #F0EDEB",
"o^	c #EAF0F1",
"p^	c #5F91B6",
"q^	c #296D9C",
"r^	c #2D5D87",
"s^	c #316385",
"t^	c #3F6D8D",
"u^	c #5B6A7C",
"v^	c #979A99",
"w^	c #B0A99F",
"x^	c #ABA092",
"y^	c #90877A",
"z^	c #777067",
"A^	c #696057",
"B^	c #5E564C",
"C^	c #5E5246",
"D^	c #956E50",
"E^	c #78624D",
"F^	c #68422B",
"G^	c #3A2317",
"H^	c #968D85",
"I^	c #867C73",
"J^	c #867A70",
"K^	c #765E4C",
"L^	c #6C5C55",
"M^	c #6B6968",
"N^	c #667274",
"O^	c #827E81",
"P^	c #90979C",
"Q^	c #C2C6C4",
"R^	c #E5DFD9",
"S^	c #CADAE1",
"T^	c #99BDD4",
"U^	c #D4E7EE",
"V^	c #F8F2EC",
"W^	c #D4DEE4",
"X^	c #C8D6DE",
"Y^	c #4B637C",
"Z^	c #295D94",
"`^	c #0E81B3",
" /	c #7DBCDB",
"./	c #71A4C9",
"+/	c #286D97",
"@/	c #2A5B8C",
"#/	c #295B84",
"$/	c #38728D",
"%/	c #557689",
"&/	c #A9A9A6",
"*/	c #BEB4A9",
"=/	c #A69E94",
"-/	c #8E857C",
";/	c #7B766F",
">/	c #625C55",
",/	c #5F5950",
"'/	c #63574C",
")/	c #5D554C",
"!/	c #A78468",
"~/	c #E4BC86",
"{/	c #BA8659",
"]/	c #79543A",
"^/	c #5D402F",
"//	c #472717",
"(/	c #583F34",
"_/	c #604637",
":/	c #80604D",
"</	c #897060",
"[/	c #616668",
"}/	c #53676D",
"|/	c #3C4E65",
"1/	c #9BA3A6",
"2/	c #E5EDEC",
"3/	c #EEEAE8",
"4/	c #DBEBF0",
"5/	c #99B4C8",
"6/	c #DEEDF2",
"7/	c #E7EBEA",
"8/	c #1A86B7",
"9/	c #5BB4D8",
"0/	c #8BB4C5",
"a/	c #2A628E",
"b/	c #285D90",
"c/	c #215C88",
"d/	c #2F7492",
"e/	c #618297",
"f/	c #BAB8B2",
"g/	c #C5BBAF",
"h/	c #B6A89F",
"i/	c #948C85",
"j/	c #807A74",
"k/	c #59544E",
"l/	c #655F57",
"m/	c #655A4F",
"n/	c #54493F",
"o/	c #755A46",
"p/	c #DBA468",
"q/	c #C78A57",
"r/	c #997457",
"s/	c #291C15",
"t/	c #A38C76",
"u/	c #9D623B",
"v/	c #977155",
"w/	c #C89063",
"x/	c #957A68",
"y/	c #606869",
"z/	c #576E79",
"A/	c #234B66",
"B/	c #698495",
"C/	c #D4DFE2",
"D/	c #F8F6F4",
"E/	c #E2F1F6",
"F/	c #BDDAE2",
"G/	c #F2F8F9",
"H/	c #2C6CA2",
"I/	c #A0CADB",
"J/	c #40729F",
"K/	c #306393",
"L/	c #276B9A",
"M/	c #407CA1",
"N/	c #7CA0AF",
"O/	c #D0CDC1",
"P/	c #C5BDB6",
"Q/	c #BBB0A6",
"R/	c #9B958F",
"S/	c #87817A",
"T/	c #64645F",
"U/	c #696660",
"V/	c #645E56",
"W/	c #64594E",
"X/	c #5E5145",
"Y/	c #A76638",
"Z/	c #BB723A",
"`/	c #A55B29",
" (	c #9A572A",
".(	c #8A471D",
"+(	c #7C411C",
"@(	c #372C24",
"#(	c #2B231C",
"$(	c #A56C45",
"%(	c #764629",
"&(	c #C88C5B",
"*(	c #D09360",
"=(	c #B38568",
"-(	c #676969",
";(	c #426671",
">(	c #194C67",
",(	c #677C88",
"'(	c #BAD0D9",
")(	c #E7F0F2",
"!(	c #D2E7EE",
"~(	c #386EA4",
"{(	c #9FCADB",
"](	c #517AA1",
"^(	c #3C78A1",
"/(	c #4787AF",
"((	c #5098B6",
"_(	c #A3BDC6",
":(	c #D9D4CD",
"<(	c #CFC6BD",
"[(	c #BBB4AC",
"}(	c #ABA299",
"|(	c #908A84",
"1(	c #6C6D69",
"2(	c #736E66",
"3(	c #71685E",
"4(	c #5C554D",
"5(	c #5D544B",
"6(	c #B97847",
"7(	c #C57D43",
"8(	c #C5793C",
"9(	c #B56C35",
"0(	c #AC632D",
"a(	c #C18D65",
"b(	c #C9854B",
"c(	c #CF8E55",
"d(	c #D69657",
"e(	c #DEA25D",
"f(	c #D48A47",
"g(	c #CD8448",
"h(	c #CD8852",
"i(	c #D29B6B",
"j(	c #8A766C",
"k(	c #47616E",
"l(	c #4D6074",
"m(	c #8B98A2",
"n(	c #B4C8D4",
"o(	c #EDF0EF",
"p(	c #E8F8FB",
"q(	c #4A84B3",
"r(	c #2B92B9",
"s(	c #ADD4DE",
"t(	c #5784A4",
"u(	c #5E86AB",
"v(	c #549ABB",
"w(	c #72ADC0",
"x(	c #BACED4",
"y(	c #DAD6D3",
"z(	c #CCC7C0",
"A(	c #C3BAB2",
"B(	c #B0A8A1",
"C(	c #9C938A",
"D(	c #7A7874",
"E(	c #79756F",
"F(	c #66615A",
"G(	c #534C45",
"H(	c #52473F",
"I(	c #CC8242",
"J(	c #A25F32",
"K(	c #5B321B",
"L(	c #4B2A17",
"M(	c #DB944E",
"N(	c #CC803E",
"O(	c #C68049",
"P(	c #D48F55",
"Q(	c #E2A76B",
"R(	c #C09677",
"S(	c #948279",
"T(	c #848687",
"U(	c #B3B4B3",
"V(	c #AFC0CD",
"W(	c #D3E4E9",
"X(	c #F4F5F7",
"Y(	c #F8F3ED",
"Z(	c #F8F6F8",
"`(	c #5494C3",
" _	c #87CBF1",
"._	c #2683AB",
"+_	c #51A1BB",
"@_	c #D9ECF7",
"#_	c #649FBF",
"$_	c #608CB1",
"%_	c #75AECF",
"&_	c #99C2D0",
"*_	c #D4DDDE",
"=_	c #E3DAD0",
"-_	c #D6CDC4",
";_	c #C1B8B2",
">_	c #B0ABA4",
",_	c #A2988F",
"'_	c #86837D",
")_	c #7D7973",
"!_	c #5F5953",
"~_	c #4A4441",
"{_	c #4B423B",
"]_	c #37322B",
"^_	c #8D5029",
"/_	c #451D0B",
"(_	c #965B35",
"__	c #D38E54",
":_	c #E2A66B",
"<_	c #DDA876",
"[_	c #BBA38D",
"}_	c #B2ACA4",
"|_	c #B2BAC4",
"1_	c #A2ADB7",
"2_	c #C2D7DE",
"3_	c #F6F8FA",
"4_	c #EEF9F9",
"5_	c #F8F9F9",
"6_	c #F2F0EF",
"7_	c #A6C8D9",
"8_	c #4D8BBB",
"9_	c #58A6C9",
"0_	c #2788B6",
"a_	c #B5E3F4",
"b_	c #D9ECF8",
"c_	c #75ACCB",
"d_	c #69A2CA",
"e_	c #87CCE7",
"f_	c #B0CFDB",
"g_	c #E5EDE7",
"h_	c #E8DACC",
"i_	c #D6CDC5",
"j_	c #BDBAB8",
"k_	c #B0AAA1",
"l_	c #9E9790",
"m_	c #948D85",
"n_	c #7A7873",
"o_	c #5B5A56",
"p_	c #4B4A49",
"q_	c #423B36",
"r_	c #38332D",
"s_	c #D49B68",
"t_	c #885737",
"u_	c #DB9652",
"v_	c #DA9759",
"w_	c #E2A56B",
"x_	c #E1B684",
"y_	c #DCC59E",
"z_	c #C2C3C0",
"A_	c #AEBBC5",
"B_	c #8FA7B7",
"C_	c #B5D0DB",
"D_	c #F4F7F5",
"E_	c #F8F0F5",
"F_	c #F2F3F3",
"G_	c #69BCE2",
"H_	c #3899C5",
"I_	c #94CBE7",
"J_	c #7AB0D7",
"K_	c #6DB0D6",
"L_	c #7EBFDD",
"M_	c #B9D7E3",
"N_	c #EDEDE8",
"O_	c #E8DCCE",
"P_	c #E0D6CB",
"Q_	c #C8C8C2",
"R_	c #B6B5AB",
"S_	c #A29B95",
"T_	c #978F88",
"U_	c #707371",
"V_	c #505255",
"W_	c #4A4949",
"X_	c #433C38",
"Y_	c #443B34",
"Z_	c #34251C",
"`_	c #A87A57",
" :	c #663C25",
".:	c #58260D",
"+:	c #C19F82",
"@:	c #D48C4C",
"#:	c #DA9658",
"$:	c #DBAE81",
"%:	c #D8BB96",
"&:	c #BBB6AF",
"*:	c #95A7B5",
"=:	c #9AB0BF",
"-:	c #E6EEEC",
";:	c #F5F3F0",
">:	c #F1EEF1",
",:	c #437CAD",
"':	c #47A9D4",
"):	c #4EBBE4",
"!:	c #7CBCDB",
"~:	c #7AB5D5",
"{:	c #5FAACC",
"]:	c #80BBD0",
"^:	c #D2EBF4",
"/:	c #F2EEEC",
"(:	c #E6E2DB",
"_:	c #DDD9D7",
"::	c #CCC9C1",
"<:	c #BDB8B2",
"[:	c #A8A39A",
"}:	c #8E8A84",
"|:	c #676E6F",
"1:	c #4B5559",
"2:	c #4C4D4D",
"3:	c #4B4541",
"4:	c #4C443C",
"5:	c #544437",
"6:	c #683619",
"7:	c #773C19",
"8:	c #724C35",
"9:	c #DB9653",
"0:	c #D99658",
"a:	c #D8A36C",
"b:	c #D9BA92",
"c:	c #BEAE9D",
"d:	c #98A6AF",
"e:	c #B0CEDF",
"f:	c #B3D8E5",
"g:	c #DFEAEE",
"h:	c #F9F8F5",
"i:	c #24639B",
"j:	c #3894BA",
"k:	c #7EC5DC",
"l:	c #73BADB",
"m:	c #87B9CE",
"n:	c #F8F5F2",
"o:	c #D4E5E3",
"p:	c #E4DFD8",
"q:	c #CCC4BD",
"r:	c #BAB9B5",
"s:	c #ACA5A0",
"t:	c #979089",
"u:	c #5D6A71",
"v:	c #555D61",
"w:	c #4E5253",
"x:	c #544840",
"y:	c #674D3F",
"z:	c #755B48",
"A:	c #562A14",
"B:	c #E29F5A",
"C:	c #DCA365",
"D:	c #E2B786",
"E:	c #DDB78B",
"F:	c #D1B795",
"G:	c #C2C3BC",
"H:	c #BAD4E3",
"I:	c #B1CEDA",
"J:	c #D9ECEF",
"K:	c #F4F7F4",
"L:	c #79C4DB",
"M:	c #0E4066",
"N:	c #74B3D4",
"O:	c #4FB2D6",
"P:	c #2C7CAB",
"Q:	c #8AC6DC",
"R:	c #73BFE3",
"S:	c #ABD5E4",
"T:	c #F4FAFA",
"U:	c #EFF4F4",
"V:	c #95AAB3",
"W:	c #ABB1BB",
"X:	c #D5D0CC",
"Y:	c #C0BCB5",
"Z:	c #ADA8A5",
"`:	c #566A70",
" <	c #555D62",
".<	c #615E5B",
"+<	c #654C41",
"@<	c #896750",
"#<	c #956F51",
"$<	c #F4D9A5",
"%<	c #A9734A",
"&<	c #421E12",
"*<	c #E3AB6E",
"=<	c #DFAA73",
"-<	c #DCB083",
";<	c #D8B38D",
"><	c #D4B894",
",<	c #C5BDAB",
"'<	c #C3DADF",
")<	c #B0CBDA",
"!<	c #CFE0E7",
"~<	c #E4F1F4",
"{<	c #3888B6",
"]<	c #3578A9",
"^<	c #5DC1E6",
"/<	c #0A689B",
"(<	c #98C7D9",
"_<	c #86BFE4",
":<	c #C6E6F5",
"<<	c #D8F0F2",
"[<	c #7E8F9D",
"}<	c #8BA6B7",
"|<	c #CCD1CD",
"1<	c #BEBCB7",
"2<	c #AFAAA5",
"3<	c #8D908E",
"4<	c #566671",
"5<	c #57676D",
"6<	c #695D58",
"7<	c #775746",
"8<	c #957157",
"9<	c #9D633D",
"0<	c #F2D5A3",
"a<	c #864A25",
"b<	c #E9B372",
"c<	c #DDB284",
"d<	c #D8B088",
"e<	c #D8B996",
"f<	c #C0AD96",
"g<	c #C5DEE2",
"h<	c #ADCBDD",
"i<	c #B2D3E1",
"j<	c #F5F9F7",
"k<	c #D7F3F7",
"l<	c #6590AE",
"m<	c #A8C9DA",
"n<	c #56B9E3",
"o<	c #5AB4D8",
"p<	c #1C83AD",
"q<	c #A4CEE2",
"r<	c #7DB9D9",
"s<	c #CDE7F4",
"t<	c #F3FAFA",
"u<	c #ABD0D7",
"v<	c #7497AE",
"w<	c #9ABDCD",
"x<	c #AFC4C8",
"y<	c #C4C0BD",
"z<	c #ABA9A6",
"A<	c #8A9293",
"B<	c #5F6D79",
"C<	c #57696F",
"D<	c #565151",
"E<	c #937059",
"F<	c #A87D5D",
"G<	c #A26137",
"H<	c #F2D295",
"I<	c #AD815D",
"J<	c #652B0F",
"K<	c #DEA361",
"L<	c #E3AA6D",
"M<	c #E8BF84",
"N<	c #E5C593",
"O<	c #DDB78F",
"P<	c #D9C09D",
"Q<	c #BEA085",
"R<	c #B9C6C6",
"S<	c #ADC8D6",
"T<	c #B1CDDD",
"U<	c #CDE7F3",
"V<	c #4F8DB0",
"W<	c #6FB6CD",
"X<	c #BDE9FA",
"Y<	c #99CCD7",
"Z<	c #5F98BD",
"`<	c #DDF1F5",
" [	c #7EA7B8",
".[	c #83B1C9",
"+[	c #9FCCDC",
"@[	c #A6BEC5",
"#[	c #BDBCB8",
"$[	c #B0ADA9",
"%[	c #888F92",
"&[	c #5A6676",
"*[	c #5B6066",
"=[	c #544446",
"-[	c #977760",
";[	c #B57F5C",
">[	c #915F41",
",[	c #351D13",
"'[	c #DBA56B",
")[	c #DBA264",
"![	c #E8BF82",
"~[	c #E1BD8F",
"{[	c #DFBA90",
"][	c #E1C9A3",
"^[	c #BE9F80",
"/[	c #B3AFA2",
"([	c #ACC1CD",
"_[	c #B2D3E6",
":[	c #DFEFF4",
"<[	c #B2DFF1",
"[[	c #73B7CE",
"}[	c #4595AF",
"|[	c #CDEBF5",
"1[	c #2C6A9D",
"2[	c #7393AC",
"3[	c #16537D",
"4[	c #8AB8CB",
"5[	c #ECFAFB",
"6[	c #D9E8ED",
"7[	c #6FA5BA",
"8[	c #97CBE2",
"9[	c #A2C4CB",
"0[	c #9FB9C1",
"a[	c #BBBDC0",
"b[	c #AFB1AA",
"c[	c #819297",
"d[	c #626871",
"e[	c #5D5C5F",
"f[	c #665751",
"g[	c #B27F5F",
"h[	c #A36643",
"i[	c #9A5930",
"j[	c #C5966A",
"k[	c #E6B77B",
"l[	c #E2B77F",
"m[	c #E6C794",
"n[	c #DCBC95",
"o[	c #E4CCA6",
"p[	c #C3AA8A",
"q[	c #B1A191",
"r[	c #ACB6B9",
"s[	c #AAC9E1",
"t[	c #E8F8F9",
"u[	c #F8F6F3",
"v[	c #D9EEF5",
"w[	c #A0CED9",
"x[	c #8DD4E9",
"y[	c #3987AD",
"z[	c #89C6DB",
"A[	c #0B5D93",
"B[	c #AFDCEB",
"C[	c #D6ECF4",
"D[	c #69A3C1",
"E[	c #C3E5F1",
"F[	c #CFE2E6",
"G[	c #A1BDC6",
"H[	c #B3BEC0",
"I[	c #BDB4B1",
"J[	c #829398",
"K[	c #5D6876",
"L[	c #6D5C5E",
"M[	c #816457",
"N[	c #B38060",
"O[	c #9D603E",
"P[	c #B9794A",
"Q[	c #E6AA67",
"R[	c #986C4E",
"S[	c #E4BA84",
"T[	c #E8C794",
"U[	c #E5C89B",
"V[	c #E5D1B0",
"W[	c #C3AE90",
"X[	c #AF998A",
"Y[	c #A7AFB4",
"Z[	c #A8CDE2",
"`[	c #E3F8FB",
" }	c #C8E6F4",
".}	c #B8E4F4",
"+}	c #177BB3",
"@}	c #CEE5EC",
"#}	c #6495B5",
"$}	c #C5DEE8",
"%}	c #F6F4F2",
"&}	c #B6CDCF",
"*}	c #B0BDC3",
"=}	c #C2BDB8",
"-}	c #869CA3",
";}	c #6D757F",
">}	c #6E6360",
",}	c #9F7963",
"'}	c #B38161",
")}	c #A87352",
"!}	c #C57E47",
"~}	c #EDB578",
"{}	c #241D15",
"]}	c #442D23",
"^}	c #1D1812",
"/}	c #DDC39D",
"(}	c #E8C58E",
"_}	c #EBC58A",
":}	c #E8C793",
"<}	c #E5CFA8",
"[}	c #EED6B4",
"}}	c #B49B84",
"|}	c #A6AEB0",
"1}	c #A0C6DA",
"2}	c #DDF4F7",
"3}	c #FAF9F6",
"4}	c #BDE4ED",
"5}	c #BDE8F5",
"6}	c #6FA5BD",
"7}	c #6CB5CC",
"8}	c #4788AB",
"9}	c #7392AC",
"0}	c #3472A4",
"a}	c #2D90C7",
"b}	c #1877A8",
"c}	c #548CB4",
"d}	c #3785AC",
"e}	c #BBD5DF",
"f}	c #5F95B4",
"g}	c #97C1D3",
"h}	c #ECF4ED",
"i}	c #ACC8D1",
"j}	c #A1B9C0",
"k}	c #BEBFB6",
"l}	c #7B8996",
"m}	c #727681",
"n}	c #62595B",
"o}	c #9F7862",
"p}	c #A47459",
"q}	c #C78452",
"r}	c #C57F49",
"s}	c #855D42",
"t}	c #19120C",
"u}	c #ADA59C",
"v}	c #A8947D",
"w}	c #E9C68E",
"x}	c #ECCB9A",
"y}	c #EAD1A9",
"z}	c #E7D7BC",
"A}	c #C5AE91",
"B}	c #B1A592",
"C}	c #ACBBBD",
"D}	c #A1B8D3",
"E}	c #BDDFEA",
"F}	c #E7F8FA",
"G}	c #B1DBEA",
"H}	c #D7F4F7",
"I}	c #5398BC",
"J}	c #79ACC8",
"K}	c #096CA4",
"L}	c #37769A",
"M}	c #88ACC5",
"N}	c #BFE3ED",
"O}	c #5E8AAA",
"P}	c #7AB2CF",
"Q}	c #CCEAF5",
"R}	c #ABDAE3",
"S}	c #98B3BC",
"T}	c #A6B4B5",
"U}	c #707A82",
"V}	c #72767E",
"W}	c #7A5E5B",
"X}	c #AB795C",
"Y}	c #B77F5B",
"Z}	c #BB7441",
"`}	c #813F15",
" |	c #332B23",
".|	c #A48E78",
"+|	c #C6A37F",
"@|	c #ECC893",
"#|	c #EFD9AE",
"$|	c #EEDCB9",
"%|	c #C7BD9E",
"&|	c #B19E8A",
"*|	c #AAB2B5",
"=|	c #9FB6C9",
"-|	c #A0C4D5",
";|	c #C0E4EC",
">|	c #9BCDDF",
",|	c #C0E5F4",
"'|	c #BAE8F5",
")|	c #6DA4BD",
"!|	c #95B6CC",
"~|	c #0B74AA",
"{|	c #C9E5EA",
"]|	c #5893B5",
"^|	c #72A6C3",
"/|	c #B4DBE9",
"(|	c #C3E7EC",
"_|	c #A6C1CE",
":|	c #A7ADAE",
"<|	c #7F848C",
"[|	c #6D6D73",
"}|	c #8C756C",
"||	c #BC855F",
"1|	c #C38054",
"2|	c #C67F4C",
"3|	c #C57F48",
"4|	c #2E2821",
"5|	c #655C55",
"6|	c #E2CEB6",
"7|	c #E9D0A8",
"8|	c #ECD09A",
"9|	c #ECD5A5",
"0|	c #EBD6AA",
"a|	c #E7D5BA",
"b|	c #C8BAA1",
"c|	c #B6A894",
"d|	c #A7ACAC",
"e|	c #97A1B1",
"f|	c #9FBED1",
"g|	c #ACD9E9",
"h|	c #9ACEE7",
"i|	c #BDE9F6",
"j|	c #8DCAE5",
"k|	c #3887AD",
"l|	c #0B4B83",
"m|	c #4483B4",
"n|	c #98CBD7",
"o|	c #AEEAF3",
"p|	c #68ABCB",
"q|	c #5391B4",
"r|	c #73A8C5",
"s|	c #A0C6DC",
"t|	c #C1E6F0",
"u|	c #A2C0D1",
"v|	c #A2A4A7",
"w|	c #7D8893",
"x|	c #796E6C",
"y|	c #9A776B",
"z|	c #BA784E",
"A|	c #C38256",
"B|	c #C57E4B",
"C|	c #CC8448",
"D|	c #E29D56",
"E|	c #B8A899",
"F|	c #DAC29F",
"G|	c #EBD09B",
"H|	c #ECD5A6",
"I|	c #E9D4AA",
"J|	c #E3D4BB",
"K|	c #C7B9A2",
"L|	c #B7A795",
"M|	c #A89F98",
"N|	c #92A0AD",
"O|	c #A0C1DC",
"P|	c #98BCD1",
"Q|	c #A5DCF1",
"R|	c #ADDAE9",
"S|	c #67AFD6",
"T|	c #308AB8",
"U|	c #55A2BC",
"V|	c #B6E3F4",
"W|	c #58AAD4",
"X|	c #A8D9E9",
"Y|	c #5CA9CC",
"Z|	c #5293BC",
"`|	c #6C9CBB",
" 1	c #97C6DF",
".1	c #BBE1F0",
"+1	c #B0C8D5",
"@1	c #A7B6BE",
"#1	c #8B959C",
"$1	c #817475",
"%1	c #AC8973",
"&1	c #C4895E",
"*1	c #D1915F",
"=1	c #DA985B",
"-1	c #DB9553",
";1	c #AB9B89",
">1	c #8A7563",
",1	c #E1C59C",
"'1	c #EBD5A5",
")1	c #E4D4B1",
"!1	c #E5DABE",
"~1	c #CAC0AC",
"{1	c #AF9C8C",
"]1	c #A79A8F",
"^1	c #929DA9",
"/1	c #A2C7DD",
"(1	c #8FAFC6",
"_1	c #98D6E9",
":1	c #92D5EA",
"<1	c #5B9DC8",
"[1	c #318AB9",
"}1	c #4E96BB",
"|1	c #68B6D9",
"11	c #0D7BB4",
"21	c #1B8EC4",
"31	c #67AAD4",
"41	c #3A7DB3",
"51	c #7AA7BC",
"61	c #A8D8E9",
"71	c #509ABD",
"81	c #62A5CB",
"91	c #658FB2",
"01	c #96C6DF",
"a1	c #B0D0E4",
"b1	c #A6B0C1",
"c1	c #AFBCCB",
"d1	c #A7B0BE",
"e1	c #8E8180",
"f1	c #C18F6C",
"g1	c #C08762",
"h1	c #DEA26A",
"i1	c #E09F5F",
"j1	c #D5975B",
"k1	c #E8A45B",
"l1	c #F0AA5F",
"m1	c #A59E98",
"n1	c #B7A48E",
"o1	c #E5D1AD",
"p1	c #E9DBB6",
"q1	c #E5D6B3",
"r1	c #E1D9BF",
"s1	c #CBCEBF",
"t1	c #B7AB99",
"u1	c #A69A92",
"v1	c #95A5AE",
"w1	c #95B8C9",
"x1	c #7A95AB",
"y1	c #84B3D0",
"z1	c #87CAE7",
"A1	c #4597BB",
"B1	c #307CAA",
"C1	c #6AB7D9",
"D1	c #7AC6E6",
"E1	c #869CAE",
"F1	c #69B2D8",
"G1	c #6591BB",
"H1	c #87B8D3",
"I1	c #A2BCD6",
"J1	c #A4AFBC",
"K1	c #B5C1CB",
"L1	c #C1CBD9",
"M1	c #B7A8A0",
"N1	c #C18F6A",
"O1	c #C98759",
"P1	c #E1AB72",
"Q1	c #E4AC6F",
"R1	c #E5AB6A",
"S1	c #9B8A79",
"T1	c #D4C8B9",
"U1	c #E0C8A6",
"V1	c #E6D5B4",
"W1	c #E5DABC",
"X1	c #DAD1BA",
"Y1	c #C8C3B5",
"Z1	c #B6A591",
"`1	c #A89F97",
" 2	c #959FA7",
".2	c #8999AC",
"+2	c #7493B3",
"@2	c #658DA9",
"#2	c #79B1D7",
"$2	c #418EB8",
"%2	c #4597BC",
"&2	c #89D3E9",
"*2	c #50BBE4",
"=2	c #6E879C",
"-2	c #4789B7",
";2	c #5093CA",
">2	c #59A8CC",
",2	c #578AB2",
"'2	c #76B2D0",
")2	c #7EA7C5",
"!2	c #92A9C7",
"~2	c #ABC4DA",
"{2	c #C4D9E9",
"]2	c #C2CCD9",
"^2	c #CDBEAA",
"/2	c #C7976A",
"(2	c #D9A471",
"_2	c #E1AC76",
":2	c #EAB574",
"<2	c #EBB46F",
"[2	c #69635C",
"}2	c #99948D",
"|2	c #B8A48F",
"12	c #C4AF98",
"22	c #E7D4AF",
"32	c #EAE1BE",
"42	c #DDDDC7",
"52	c #C7C2B6",
"62	c #B6A48E",
"72	c #A79C94",
"82	c #92959A",
"92	c #8EABC1",
"02	c #89AECD",
"a2	c #6797B6",
"b2	c #599DBF",
"c2	c #66A0CA",
"d2	c #60A8CA",
"e2	c #7BC5DB",
"f2	c #6BC6E6",
"g2	c #869BAE",
"h2	c #3D7AAC",
"i2	c #346CA2",
"j2	c #50B2D6",
"k2	c #79B4CC",
"l2	c #BDE3ED",
"m2	c #65AACB",
"n2	c #4D79A2",
"o2	c #789FC2",
"p2	c #7EADC7",
"q2	c #889FBB",
"r2	c #A5B7CB",
"s2	c #C3D8E5",
"t2	c #C2CAD5",
"u2	c #CDBDAA",
"v2	c #D7A56E",
"w2	c #E3A469",
"x2	c #ECC792",
"y2	c #EDC384",
"z2	c #ECB579",
"A2	c #F2C789",
"B2	c #A49D97",
"C2	c #968371",
"D2	c #C0AC98",
"E2	c #E6D3AD",
"F2	c #E3D6B6",
"G2	c #DEDBC8",
"H2	c #C8C1B0",
"I2	c #B2A395",
"J2	c #A5988D",
"K2	c #979AA4",
"L2	c #8DA7C5",
"M2	c #81ABC3",
"N2	c #5E88AD",
"O2	c #5685AF",
"P2	c #81C9E7",
"Q2	c #6FC4DC",
"R2	c #6AC3DC",
"S2	c #51B2D6",
"T2	c #6BC3DC",
"U2	c #5D97BC",
"V2	c #448FB9",
"W2	c #4F7EAB",
"X2	c #668CAF",
"Y2	c #7C9CBA",
"Z2	c #92A0BA",
"`2	c #A2ACC0",
" 3	c #B3C4D4",
".3	c #C6CDDA",
"+3	c #CFC3B0",
"@3	c #D7A676",
"#3	c #DAB48B",
"$3	c #ECC791",
"%3	c #EFC58B",
"&3	c #F1C68A",
"*3	c #A4531E",
"=3	c #524D48",
"-3	c #BAB7B5",
";3	c #635952",
">3	c #B4A290",
",3	c #E6D2AC",
"'3	c #E3D2AD",
")3	c #D9D1BE",
"!3	c #CBC2AF",
"~3	c #B1A391",
"{3	c #A69C93",
"]3	c #98989D",
"^3	c #89A9C2",
"/3	c #6F86A9",
"(3	c #709AB6",
"_3	c #5991B2",
":3	c #70AACB",
"<3	c #8BC9E5",
"[3	c #3F96BB",
"}3	c #49A9D4",
"|3	c #E1DFDE",
"13	c #73ADD6",
"23	c #4AA4CA",
"33	c #4F8CB8",
"43	c #4E9EC7",
"53	c #5585AC",
"63	c #6491B5",
"73	c #7C94B6",
"83	c #939BAE",
"93	c #A3AFC2",
"03	c #B1BAC9",
"a3	c #CED6E1",
"b3	c #C8BFB9",
"c3	c #CFAB80",
"d3	c #E5C08D",
"e3	c #EBD1A5",
"f3	c #F0D29C",
"g3	c #F1D196",
"h3	c #EAE8E6",
"i3	c #87827E",
"j3	c #938275",
"k3	c #EBD8B0",
"l3	c #E2D1AD",
"m3	c #D1BFA2",
"n3	c #C7C3B2",
"o3	c #B0A396",
"p3	c #A49B95",
"q3	c #8993A5",
"r3	c #708BA9",
"s3	c #6085A0",
"t3	c #6181A5",
"u3	c #4E7597",
"v3	c #8CC9E5",
"w3	c #8BD4E9",
"x3	c #4CAAD4",
"y3	c #3CA3CF",
"z3	c #3A95BA",
"A3	c #7AD1EE",
"B3	c #50A6CB",
"C3	c #599CC7",
"D3	c #6190BA",
"E3	c #6C99B7",
"F3	c #7E9BBB",
"G3	c #92A6C0",
"H3	c #AABED4",
"I3	c #BACDDE",
"J3	c #CCDBE8",
"K3	c #D4C5B1",
"L3	c #D6B586",
"M3	c #E5CCA3",
"N3	c #EDD4A6",
"O3	c #EFD29D",
"P3	c #F2D39C",
"Q3	c #98928B",
"R3	c #F1F0ED",
"S3	c #E9E1D6",
"T3	c #D0C4B8",
"U3	c #DFCBAB",
"V3	c #E2D2AF",
"W3	c #D1C1AB",
"X3	c #C3BBAA",
"Y3	c #B4A79B",
"Z3	c #867E89",
"`3	c #5991AC",
" 4	c #518AB2",
".4	c #478DB7",
"+4	c #336692",
"@4	c #4A7C9C",
"#4	c #AEE9F3",
"$4	c #8CD9F4",
"%4	c #5CABD4",
"&4	c #81BDE4",
"*4	c #3A94BA",
"=4	c #6BBCE2",
"-4	c #508CB9",
";4	c #42709C",
">4	c #5B87B1",
",4	c #779FC5",
"'4	c #85A3C3",
")4	c #8AA2BD",
"!4	c #A5BBCC",
"~4	c #BFCEDD",
"{4	c #C4D0DB",
"]4	c #D0C7BA",
"^4	c #D5BC9D",
"/4	c #E4C896",
"(4	c #EBD0A4",
"_4	c #F0D6A5",
":4	c #272118",
"<4	c #EAE8E5",
"[4	c #E7E1DA",
"}4	c #DBC8B3",
"|4	c #DEC9A7",
"14	c #D5C3A7",
"24	c #D2C5B3",
"34	c #C3B39F",
"44	c #AFA8A5",
"54	c #748DA8",
"64	c #5182A8",
"74	c #4F86AF",
"84	c #4376A6",
"94	c #3A78AB",
"04	c #4891B5",
"a4	c #94C9E4",
"b4	c #6CABD4",
"c4	c #297CB2",
"d4	c #356899",
"e4	c #5DACD5",
"f4	c #6098C5",
"g4	c #85BBD9",
"h4	c #9BD1F2",
"i4	c #9BC8E5",
"j4	c #93AECB",
"k4	c #A5B5C3",
"l4	c #B6C0CE",
"m4	c #C3CBD7",
"n4	c #D5CCC0",
"o4	c #D9C09C",
"p4	c #E5CA9B",
"q4	c #F0D6A4",
"r4	c #E6E3E1",
"s4	c #CEC2B6",
"t4	c #CCB8A3",
"u4	c #CFBAA2",
"v4	c #D2C6AF",
"w4	c #C3BEB5",
"x4	c #A29C9F",
"y4	c #596C90",
"z4	c #3E638F",
"A4	c #45739E",
"B4	c #4877A3",
"C4	c #2D6295",
"D4	c #4992B5",
"E4	c #76C3E2",
"F4	c #5BB3D7",
"G4	c #3C9AC5",
"H4	c #326B9D",
"I4	c #3B89B6",
"J4	c #5BABD4",
"K4	c #7BBCE2",
"L4	c #87BFE5",
"M4	c #87C0E4",
"N4	c #8DBEDB",
"O4	c #96BCDB",
"P4	c #ADD1E5",
"Q4	c #AEC8DE",
"R4	c #B1C3D6",
"S4	c #CBD6E3",
"T4	c #D4D6D8",
"U4	c #DEC7A0",
"V4	c #E1C79F",
"W4	c #EAD0A9",
"X4	c #EED2A2",
"Y4	c #F3D8A5",
"Z4	c #DBD8D6",
"`4	c #C5C3C2",
" 5	c #AEA9A7",
".5	c #BEAD9E",
"+5	c #C6B8A7",
"@5	c #CAC0AD",
"#5	c #C0BBB6",
"$5	c #A0A0A5",
"%5	c #515D7D",
"&5	c #39628F",
"*5	c #538DB5",
"=5	c #5A94D8",
"-5	c #528EBB",
";5	c #56A6CF",
">5	c #68C3E3",
",5	c #58A9D3",
"'5	c #2B89B6",
")5	c #3879A9",
"!5	c #4C98C5",
"~5	c #5DABD4",
"{5	c #70B9DA",
"]5	c #94C4E5",
"^5	c #90BADA",
"/5	c #A2C4DF",
"(5	c #B3CFE2",
"_5	c #BCD0E1",
":5	c #D1DEE5",
"<5	c #DADBD7",
"[5	c #DBCDB5",
"}5	c #E8D1A7",
"|5	c #ECD2A7",
"15	c #F1D7A6",
"25	c #F1D4A3",
"35	c #252017",
"45	c #A9A6A5",
"55	c #C0B9B2",
"65	c #C1BCB7",
"75	c #C3B5AA",
"85	c #B0A8A4",
"95	c #B9B2AC",
"05	c #B4ABA6",
"a5	c #9E9FA9",
"b5	c #677C9A",
"c5	c #32608E",
"d5	c #3C72A2",
"e5	c #4883B0",
"f5	c #427EAD",
"g5	c #58B0D3",
"h5	c #67B9DF",
"i5	c #207CB3",
"j5	c #3C7EB3",
"k5	c #78BBE2",
"l5	c #2984AB",
"m5	c #5695CB",
"n5	c #6FADD5",
"o5	c #78B8CE",
"p5	c #84B6D9",
"q5	c #90BBDB",
"r5	c #9BBED9",
"s5	c #AAC2D9",
"t5	c #BECFDF",
"u5	c #BFCBD6",
"v5	c #C9CBCD",
"w5	c #DFCAA6",
"x5	c #E6C99E",
"y5	c #E8CEA2",
"z5	c #F0D39F",
"A5	c #E7C698",
"B5	c #2B241E",
"C5	c #524F4C",
"D5	c #D4D4D5",
"E5	c #B1B3B6",
"F5	c #737A82",
"G5	c #6B7684",
"H5	c #958D94",
"I5	c #A5A2A4",
"J5	c #9D9BA3",
"K5	c #6A7997",
"L5	c #396493",
"M5	c #356697",
"N5	c #26578F",
"O5	c #54B5DE",
"P5	c #55B7E0",
"Q5	c #48A8D3",
"R5	c #3291C7",
"S5	c #427DB2",
"T5	c #4C86B5",
"U5	c #5E90B6",
"V5	c #7FB7D5",
"W5	c #82B3CF",
"X5	c #90B9D3",
"Y5	c #94BBD1",
"Z5	c #A9C2D9",
"`5	c #BCCDDC",
" 6	c #C3D1DE",
".6	c #D5D5CF",
"+6	c #DECAA8",
"@6	c #E6C79B",
"#6	c #EFC68D",
"$6	c #EAC58A",
"%6	c #2E2924",
"&6	c #383431",
"*6	c #56514C",
"=6	c #C7C3BD",
"-6	c #BDBBB8",
";6	c #8C8E94",
">6	c #727E8B",
",6	c #838D9B",
"'6	c #9A969C",
")6	c #9897A2",
"!6	c #8C8897",
"~6	c #6C7594",
"{6	c #3E6794",
"]6	c #336597",
"^6	c #33679A",
"/6	c #4179AD",
"(6	c #67B9DE",
"_6	c #56B7E1",
":6	c #4AA9D4",
"<6	c #3091C7",
"[6	c #4C647D",
"}6	c #376DA2",
"|6	c #4F86B4",
"16	c #5F98C5",
"26	c #76ADCC",
"36	c #7FB3D7",
"46	c #95BCDB",
"56	c #B6D5E2",
"66	c #CCE4EE",
"76	c #C0D4E2",
"86	c #CBDAE7",
"96	c #D8C4A7",
"06	c #E7C697",
"a6	c #E1BB8A",
"b6	c #D9B48A",
"c6	c #25201A",
"d6	c #2F2A25",
"e6	c #2C2927",
"f6	c #323333",
"g6	c #393534",
"h6	c #666564",
"i6	c #D7D7D8",
"j6	c #DADFE4",
"k6	c #D5DEE7",
"l6	c #C9D1DB",
"m6	c #BCC0C9",
"n6	c #B9BFCD",
"o6	c #A0A6B6",
"p6	c #7B7F9C",
"q6	c #607599",
"r6	c #426D9A",
"s6	c #346699",
"t6	c #336493",
"u6	c #3784B1",
"v6	c #5DBEE3",
"w6	c #53BBE3",
"x6	c #4E98C6",
"y6	c #287CB2",
"z6	c #1F456C",
"A6	c #3B75AA",
"B6	c #477FB3",
"C6	c #5589B5",
"D6	c #6495C0",
"E6	c #72A0C8",
"F6	c #8DB7D1",
"G6	c #BBD9E9",
"H6	c #D1E6ED",
"I6	c #C7DAE4",
"J6	c #DBE9F1",
"K6	c #E3E9E3",
"L6	c #E0C8A1",
"M6	c #E5B88C",
"N6	c #E1BE8F",
"O6	c #E7B97D",
"P6	c #E5AA6A",
"Q6	c #28231C",
"R6	c #26221E",
"S6	c #312E2A",
"T6	c #2E2A2A",
"U6	c #2C2F30",
"V6	c #303536",
"W6	c #434948",
"X6	c #4F5455",
"Y6	c #939392",
"Z6	c #D9DBDF",
"`6	c #CFD5DD",
" 7	c #D5DFEA",
".7	c #C7CFDB",
"+7	c #AFB7C6",
"@7	c #AEB7C9",
"#7	c #A1AABC",
"$7	c #8B94A4",
"%7	c #687C9E",
"&7	c #3E6494",
"*7	c #346391",
"=7	c #295C9B",
"-7	c #4F90C6",
";7	c #5CB9E2",
">7	c #4EAAD4",
",7	c #258FC4",
"'7	c #2774A3",
")7	c #14375B",
"!7	c #A3B5BF",
"~7	c #2A5D97",
"{7	c #3C6FA3",
"]7	c #4F81AF",
"^7	c #5A8CB8",
"/7	c #6F9AC2",
"(7	c #84AAC6",
"_7	c #A1BFD2",
":7	c #DAF2F9",
"<7	c #E6F0F1",
"[7	c #EDF1EC",
"}7	c #DDCEB5",
"|7	c #E6B688",
"17	c #EBB97F",
"27	c #DBA772",
"37	c #D6985B",
"47	c #302B25",
"57	c #29251E",
"67	c #2E2A25",
"77	c #302F2B",
"87	c #373533",
"97	c #383B39",
"07	c #363D3D",
"a7	c #383E42",
"b7	c #3E484B",
"c7	c #5E6666",
"d7	c #8E8F8B",
"e7	c #C5C4C3",
"f7	c #D6D7D9",
"g7	c #D3D8E1",
"h7	c #C9D2DE",
"i7	c #BBC3CF",
"j7	c #AEB5C3",
"k7	c #9EA8BA",
"l7	c #91A2B2",
"m7	c #91A4BA",
"n7	c #7891B1",
"o7	c #6286A1",
"p7	c #5280B0",
"q7	c #5C95C1",
"r7	c #6DB7D8",
"s7	c #58B4D7",
"t7	c #3F9AC6",
"u7	c #216EA4",
"v7	c #1D6899",
"w7	c #103865",
"x7	c #6F879C",
"y7	c #365D86",
"z7	c #3A73A4",
"A7	c #35679D",
"B7	c #40709F",
"C7	c #5185B6",
"D7	c #6B95BD",
"E7	c #7DA2C5",
"F7	c #87A3C1",
"G7	c #AFC8D8",
"H7	c #E9F3F9",
"I7	c #E8EFEE",
"J7	c #E8EAE9",
"K7	c #E8D6BC",
"L7	c #E0B081",
"M7	c #E0AB74",
"N7	c #D79B63",
"O7	c #C98750",
"P7	c #BA875A",
"Q7	c #473D36",
"R7	c #4D4239",
"S7	c #554B40",
"T7	c #7A726B",
"U7	c #564E46",
"V7	c #383530",
"W7	c #373431",
"X7	c #363634",
"Y7	c #3E413E",
"Z7	c #434645",
"`7	c #3B4143",
" 8	c #374245",
".8	c #3B4A54",
"+8	c #5F686B",
"@8	c #A4A9A8",
"#8	c #E1E3E3",
"$8	c #D9E3E8",
"%8	c #CED4DD",
"&8	c #CACFDA",
"*8	c #B3BDCD",
"=8	c #AEBBCD",
"-8	c #ABB9CF",
";8	c #9DB2C4",
">8	c #C8E0E9",
",8	c #DDF5FC",
"'8	c #94C2DD",
")8	c #86B4D8",
"!8	c #90C1DE",
"~8	c #83BBDA",
"{8	c #70BEE2",
"]8	c #56B3D6",
"^8	c #3F8AB7",
"/8	c #1C6DA3",
"(8	c #39779A",
"_8	c #0F3865",
":8	c #2D60A0",
"<8	c #31659C",
"[8	c #3A6497",
"}8	c #4977A7",
"|8	c #618DBA",
"18	c #7A9CBF",
"28	c #8CA7C5",
"38	c #98A6BC",
"48	c #BFCEDA",
"58	c #EBF4F6",
"68	c #F0F6F9",
"78	c #E6E1D5",
"88	c #C7A187",
"98	c #D19A72",
"08	c #CD8A57",
"a8	c #BA7D52",
"b8	c #A66F4B",
"c8	c #8A5B3F",
"d8	c #6B3D27",
"e8	c #5A4032",
"f8	c #49362E",
"g8	c #49352E",
"h8	c #3D342F",
"i8	c #66584B",
"j8	c #E2CDB6",
"k8	c #C5BEB5",
"l8	c #887E76",
"m8	c #776F68",
"n8	c #60574E",
"o8	c #6C6761",
"p8	c #A69E99",
"q8	c #A69F99",
"r8	c #464440",
"s8	c #494744",
"t8	c #4D4D4A",
"u8	c #494C49",
"v8	c #535554",
"w8	c #636463",
"x8	c #7B7E7E",
"y8	c #999896",
"z8	c #B3B8BB",
"A8	c #C6C9C9",
"B8	c #E3EAEB",
"C8	c #E9EFF0",
"D8	c #D9E6ED",
"E8	c #BFC9D7",
"F8	c #B6C2D1",
"G8	c #AEC1D4",
"H8	c #A5B3C8",
"I8	c #96ACC4",
"J8	c #9DBFD5",
"K8	c #C3E6F3",
"L8	c #CCEBF4",
"M8	c #A3D0E8",
"N8	c #9ECEE7",
"O8	c #A0D6E9",
"P8	c #9DDBF2",
"Q8	c #78AFD7",
"R8	c #498AB7",
"S8	c #194072",
"T8	c #7493AD",
"U8	c #2C5E95",
"V8	c #2F5F95",
"W8	c #416D9C",
"X8	c #476B9A",
"Y8	c #587DA9",
"Z8	c #7399BE",
"`8	c #8AA4C5",
" 9	c #94A7C2",
".9	c #A6B0BB",
"+9	c #DCEDF4",
"@9	c #E5EDEF",
"#9	c #E7E5E0",
"$9	c #DCCDB8",
"%9	c #C8A282",
"&9	c #B8886C",
"*9	c #9C765D",
"=9	c #8D634B",
"-9	c #785949",
";9	c #64473C",
">9	c #5F4A40",
",9	c #53403A",
"'9	c #50443F",
")9	c #443F3C",
"!9	c #45423F",
"~9	c #484641",
"{9	c #C6BFB7",
"]9	c #F9F9F5",
"^9	c #ECE3D8",
"/9	c #DAD3CD",
"(9	c #E4E2DE",
"_9	c #DCDAD9",
":9	c #DAD4CE",
"<9	c #DBD4CE",
"[9	c #666562",
"}9	c #5D5F5E",
"|9	c #5E6364",
"19	c #767672",
"29	c #AFACA9",
"39	c #DDDEDD",
"49	c #E9EEEF",
"59	c #E5EBED",
"69	c #E3EEF3",
"79	c #D5DCE0",
"89	c #D4DBDF",
"99	c #CDDDEC",
"09	c #B8C4D3",
"a9	c #AABED3",
"b9	c #B7D0E5",
"c9	c #A6C5DF",
"d9	c #97BCD9",
"e9	c #9CC0DE",
"f9	c #96C1DB",
"g9	c #97BECE",
"h9	c #88BDDA",
"i9	c #9DCEE8",
"j9	c #BCE6F8",
"k9	c #ABE6F6",
"l9	c #6BACD5",
"m9	c #4D98C5",
"n9	c #4B97C5",
"o9	c #184072",
"p9	c #144073",
"q9	c #70889C",
"r9	c #2E5E98",
"s9	c #3965A2",
"t9	c #436999",
"u9	c #53729E",
"v9	c #6782AA",
"w9	c #839EBE",
"x9	c #8F9EB9",
"y9	c #A6B1C4",
"z9	c #B7C3CE",
"A9	c #C8CCD4",
"B9	c #E2E8EA",
"C9	c #EFECE0",
"D9	c #E0D3C2",
"E9	c #C9B7A4",
"F9	c #988C7E",
"G9	c #8F7665",
"H9	c #72625A",
"I9	c #675C59",
"J9	c #595251",
"K9	c #515252",
"L9	c #4C5050",
"M9	c #4E5151",
"N9	c #4C5151",
"O9	c #7F7C78",
"P9	c #EDEFF0",
"Q9	c #F1EDE6",
"R9	c #F1F2F3",
"S9	c #F7F7F5",
"T9	c #E9E9E8",
"U9	c #868583",
"V9	c #596163",
"W9	c #5D6768",
"X9	c #646E6F",
"Y9	c #788081",
"Z9	c #DAD7D4",
"`9	c #EBF0F2",
" 0	c #EAEFF2",
".0	c #E6EFF3",
"+0	c #E7F3F7",
"@0	c #E2F0F1",
"#0	c #DBE9EF",
"$0	c #CDE0EA",
"%0	c #C3DDEC",
"&0	c #B7D1DE",
"*0	c #AECEE3",
"=0	c #A5CCE1",
"-0	c #98C1D9",
";0	c #96C3DD",
">0	c #8FBDD1",
",0	c #95BDCE",
"'0	c #91BFD7",
")0	c #81BAD9",
"!0	c #88BEDD",
"~0	c #679FC8",
"{0	c #528DBC",
"]0	c #4A8AB8",
"^0	c #3A89B6",
"/0	c #3773A4",
"(0	c #1E4273",
"_0	c #879CAF",
":0	c #254F89",
"<0	c #306095",
"[0	c #356296",
"}0	c #3C6597",
"|0	c #597EAB",
"10	c #6783A7",
"20	c #748DB1",
"30	c #8A99B6",
"40	c #A0AFC9",
"50	c #A7B3C6",
"60	c #BAC2CE",
"70	c #D9E4EB",
"80	c #E6EEF0",
"90	c #E2E6E6",
"00	c #F1F5F3",
"a0	c #E7E8E7",
"b0	c #E4DBCE",
"c0	c #DDDCD9",
"d0	c #BEBFC0",
"e0	c #ABA9A7",
"f0	c #7A7C7B",
"g0	c #5F6466",
"h0	c #5D6265",
"i0	c #5C6567",
"j0	c #62696A",
"k0	c #BAB9B6",
"l0	c #F3F7F9",
"m0	c #F2F7F9",
"n0	c #E4E9EB",
"o0	c #EDEEEE",
"p0	c #E0E1E0",
"q0	c #767A7C",
"r0	c #6C7377",
"s0	c #6F7A7D",
"t0	c #717F80",
"u0	c #7C8489",
"v0	c #C4C7CA",
"w0	c #E0E4E6",
"x0	c #E3EAEC",
"y0	c #E6EEF3",
"z0	c #ECF6FB",
"A0	c #E3EFF4",
"B0	c #E1EFF4",
"C0	c #EBF7FB",
"D0	c #E2F4F6",
"E0	c #DBEFF5",
"F0	c #D9EEF8",
"G0	c #DFF2FA",
"H0	c #C6E4F1",
"I0	c #BCDEEB",
"J0	c #AED3E6",
"K0	c #A8CFE3",
"L0	c #9FCEE2",
"M0	c #A3CEE4",
"N0	c #A1CDE3",
"O0	c #6CA9CA",
"P0	c #588EB5",
"Q0	c #5795C3",
"R0	c #4684B4",
"S0	c #1D4273",
"T0	c #38699A",
"U0	c #326095",
"V0	c #5480A8",
"W0	c #A9D1E3",
"X0	c #94C3DF",
"Y0	c #6B7EA0",
"Z0	c #8495B8",
"`0	c #9EB1CA",
" a	c #AAC1D6",
".a	c #BBCFE1",
"+a	c #CDDAE3",
"@a	c #DDE2E9",
"#a	c #D3D8DD",
"$a	c #E3E8EC",
"%a	c #EDF2F5",
"&a	c #EEF4F7",
"*a	c #E9F0F4",
"=a	c #E4EAEE",
"-a	c #EEF5F8",
";a	c #E7EAEA",
">a	c #979897",
",a	c #737476",
"'a	c #6F787A",
")a	c #6D7779",
"!a	c #909596",
"~a	c #E8EFF3",
"{a	c #EBEEEF",
"]a	c #E3E9ED",
"^a	c #888F90",
"/a	c #75848C",
"(a	c #708389",
"_a	c #778B94",
":a	c #7E8F98",
"<a	c #7C959E",
"[a	c #98A7AC",
"}a	c #BBC8CB",
"|a	c #E1EEF1",
"1a	c #E8F2F9",
"2a	c #DEEBF1",
"3a	c #DAECF4",
"4a	c #E3EEF1",
"5a	c #E0F4F6",
"6a	c #DCEFF7",
"7a	c #E2F4F9",
"8a	c #E2F5FB",
"9a	c #BADEEB",
"0a	c #CCECF8",
"aa	c #C3E6F5",
"ba	c #BADFEE",
"ca	c #CDF2FB",
"da	c #CCF2FC",
"ea	c #C6EBFA",
"fa	c #9BD4E8",
"ga	c #5896C4",
"ha	c #508CBC",
"ia	c #457DAD",
"ja	c #1B477B",
"ka	c #2E4D6B",
"la	c #B8CCD7",
"ma	c #76AED6",
"na	c #4E82B4",
"oa	c #9FCFE8",
"pa	c #7696BA",
"qa	c #829DBC",
"ra	c #99BEDA",
"sa	c #B4D4EB",
"ta	c #C2D9E9",
"ua	c #C7DAE5",
"va	c #DCECF3",
"wa	c #DFEBF1",
"xa	c #DDE6EA",
"ya	c #E8F0F4",
"za	c #EDF7FB",
"Aa	c #D5DAE0",
"Ba	c #CCD5DF",
"Ca	c #DEE7EC",
"Da	c #E6E9E4",
"Ea	c #D5D5CE",
"Fa	c #B5A59D",
"Ga	c #A49997",
"Ha	c #909695",
"Ia	c #7F8E92",
"Ja	c #93A09F",
"Ka	c #DDE4E4",
"La	c #E1EAEE",
"Ma	c #EDF4F7",
"Na	c #EAF3F9",
"Oa	c #DDE3E4",
"Pa	c #8B9BA0",
"Qa	c #6E959F",
"Ra	c #587E98",
"Sa	c #5F8192",
"Ta	c #5F849A",
"Ua	c #557C99",
"Va	c #648A9D",
"Wa	c #86A7B3",
"Xa	c #B1C5C9",
"Ya	c #CCD2D5",
"Za	c #DAE6E9",
"`a	c #DBEBF1",
" b	c #D7EFFA",
".b	c #C9E6F7",
"+b	c #ABD1E5",
"@b	c #BEE1F3",
"#b	c #BFE5F3",
"$b	c #C9E4EC",
"%b	c #D5EEFA",
"&b	c #D4EEF9",
"*b	c #89B8CB",
"=b	c #3E75A5",
"-b	c #3F7BAC",
";b	c #1A477B",
">b	c #214E86",
",b	c #3E5E7D",
"'b	c #5E9DE6",
")b	c #75AED6",
"!b	c #6C9CBA",
"~b	c #7EAEC9",
"{b	c #92CBE6",
"]b	c #8BB8DA",
"^b	c #9EC5DA",
"/b	c #9EC5DD",
"(b	c #B3D0E1",
"_b	c #C8DFEB",
":b	c #D2E9F3",
"<b	c #DEF0F6",
"[b	c #E6F5F8",
"}b	c #E1EAEF",
"|b	c #E5EFF4",
"1b	c #E8F3FA",
"2b	c #D7E5E9",
"3b	c #D3E1E8",
"4b	c #DCE4E3",
"5b	c #BCC3C2",
"6b	c #ADA8A8",
"7b	c #ACA5A5",
"8b	c #B1A7A4",
"9b	c #9EA6A7",
"0b	c #929FA3",
"ab	c #8DA0A5",
"bb	c #B8C6CA",
"cb	c #E1EDF2",
"db	c #E9F5F9",
"eb	c #E3F0F4",
"fb	c #DEE9ED",
"gb	c #B0C1C8",
"hb	c #648BA6",
"ib	c #628BA2",
"jb	c #648B9F",
"kb	c #5282A2",
"lb	c #5385A5",
"mb	c #537D9E",
"nb	c #698CA2",
"ob	c #779FB9",
"pb	c #A0BDC9",
"qb	c #BBCCD9",
"rb	c #C3D7DF",
"sb	c #CAE2EB",
"tb	c #D9EEF7",
"ub	c #D4EEFA",
"vb	c #D8EFF9",
"wb	c #C8EBF8",
"xb	c #BDE0F3",
"yb	c #C8ECFA",
"zb	c #CDECF9",
"Ab	c #D5F3FC",
"Bb	c #CCECFA",
"Cb	c #CBF2FC",
"Db	c #5989AA",
"Eb	c #2E649B",
"Fb	c #2F6DA2",
"Gb	c #204E84",
"Hb	c #245084",
"Ib	c #405F7D",
"Jb	c #629DC7",
"Kb	c #639DC7",
"Lb	c #82BDE4",
"Mb	c #A2CEE3",
"Nb	c #BEE8F5",
"Ob	c #C5EAF9",
"Pb	c #C8E8F5",
"Qb	c #CFEBF7",
"Rb	c #DDF1FA",
"Sb	c #DCF0F5",
"Tb	c #DAEBF1",
"Ub	c #E1F0F6",
"Vb	c #DEEEF5",
"Wb	c #E1F3F7",
"Xb	c #DAE7E8",
"Yb	c #C4CBCC",
"Zb	c #B9BFBE",
"`b	c #B8B8B9",
" c	c #BAB7B9",
".c	c #A5B1B4",
"+c	c #98ACB2",
"@c	c #9AAFB6",
"#c	c #CBD9DE",
"$c	c #E3F2F7",
"%c	c #CDE2EE",
"&c	c #9BB5C7",
"*c	c #83A1BB",
"=c	c #6892B1",
"-c	c #618FB0",
";c	c #6290B3",
">c	c #5091B4",
",c	c #608AC7",
"'c	c #6B8EB1",
")c	c #6F8BA4",
"!c	c #A6BAC6",
"~c	c #CBE2E8",
"{c	c #C7E1EB",
"]c	c #D1ECF7",
"^c	c #D0ECF9",
"/c	c #CFEDF9",
"(c	c #CFEDFA",
"_c	c #CDECFA",
":c	c #689AB9",
"<c	c #28496E",
"[c	c #567692",
"}c	c #83BCDC",
"|c	c #88C8E5",
"1c	c #95B7CC",
"2c	c #9ECCE3",
"3c	c #B9DFF2",
"4c	c #CFF2FB",
"5c	c #D9F0FA",
"6c	c #D8EDF6",
"7c	c #D4E8F5",
"8c	c #DBF1FA",
"9c	c #D8EAF5",
"0c	c #D5E7F2",
"ac	c #E5F2F7",
"bc	c #E1F0F7",
"cc	c #D9E8F1",
"dc	c #D6E8EE",
"ec	c #C9D2D3",
"fc	c #C1CBCB",
"gc	c #B7C2C8",
"hc	c #B9C1C6",
"ic	c #C8C7C8",
"jc	c #B5C1C7",
"kc	c #A8B8C4",
"lc	c #A8BEC5",
"mc	c #C5D8E1",
"nc	c #DDEEF4",
"oc	c #D9EAEF",
"pc	c #D9EAF5",
"qc	c #E3F6FC",
"rc	c #BDD8E7",
"sc	c #9DB6D0",
"tc	c #ADCAE2",
"uc	c #A3C2DD",
"vc	c #90B2CD",
"wc	c #6F9DB7",
"xc	c #5896B4",
"yc	c #6490D0",
"zc	c #7196D4",
"Ac	c #4B5782",
"Bc	c #8CA5B9",
"Cc	c #D4EAEF",
"Dc	c #C4E3F0",
"Ec	c #CCE8F4",
"Fc	c #CDEBF8",
"Gc	c #CEECFA",
"Hc	c #CEEDFA",
"Ic	c #CCECF9",
"Jc	c #CBECFA",
"Kc	c #B4DDED",
"Lc	c #4C85B3",
"Mc	c #264F7E",
"Nc	c #233E5F",
"Oc	c #7896AE",
"Pc	c #EDEFF2",
"Qc	c #BAE6F9",
"Rc	c #BEE9FA",
"Sc	c #CDE7F8",
"Tc	c #D7EDF4",
"Uc	c #D7ECF4",
"Vc	c #D9EDF4",
"Wc	c #D2E8F3",
"Xc	c #D4EBF3",
"Yc	c #D6EAF7",
"Zc	c #D7EBF7",
"`c	c #DFEDF6",
" d	c #DDEEF7",
".d	c #DCEFF5",
"+d	c #D5E2E9",
"@d	c #BBCDD1",
"#d	c #BBCED5",
"$d	c #B5CAD4",
"%d	c #B2C7D2",
"&d	c #C0CFD6",
"*d	c #B2C4D1",
"=d	c #B1C8CF",
"-d	c #CAE1EA",
";d	c #DAECF8",
">d	c #D7EBF2",
",d	c #D5EBF4",
"'d	c #D9EFF9",
")d	c #D7EEF8",
"!d	c #DBF0F6",
"~d	c #AACCE2",
"{d	c #98B9EB",
"]d	c #89ACD2",
"^d	c #849FC2",
"/d	c #91B5EA",
"(d	c #95BBDA",
"_d	c #6E9DDB",
":d	c #518ABD",
"<d	c #5892BB",
"[d	c #465682",
"}d	c #7AA1B3",
"|d	c #D4EDF4",
"1d	c #CAE8F4",
"2d	c #CBE9F5",
"3d	c #CCEBF8",
"4d	c #CBE7F8",
"5d	c #4989AB",
"6d	c #599AC7",
"7d	c #293C5B",
"8d	c #A9BDCA",
"9d	c #ECECED",
"0d	c #B6DEF2",
"ad	c #C4EBFA",
"bd	c #C2E6F9",
"cd	c #CCE7F8",
"dd	c #CCE7F4",
"ed	c #CEE7F7",
"fd	c #CFEBF4",
"gd	c #D2EDF6",
"hd	c #D1E9F5",
"id	c #CFE6F2",
"jd	c #D4EDF5",
"kd	c #D6EEF6",
"ld	c #D4EBF2",
"md	c #D5E9F5",
"nd	c #D8ECF7",
"od	c #D0E0E7",
"pd	c #BBCFDC",
"qd	c #BDD6DF",
"rd	c #BBD0DD",
"sd	c #BACEDC",
"td	c #C3D3DE",
"ud	c #B6CDDC",
"vd	c #C0DBE5",
"wd	c #D5EAF5",
"xd	c #D2EAF2",
"yd	c #D7ECF9",
"zd	c #D5EAF8",
"Ad	c #D1E7F5",
"Bd	c #90B9D2",
"Cd	c #8EB2D1",
"Dd	c #769ABE",
"Ed	c #697898",
"Fd	c #738EB4",
"Gd	c #719FCD",
"Hd	c #5786B3",
"Id	c #3F8EC1",
"Jd	c #394A72",
"Kd	c #647B8E",
"Ld	c #D2EFF7",
"Md	c #CBEAF6",
"Nd	c #CAE9F7",
"Od	c #CBEBF8",
"Pd	c #CCE7F7",
"Qd	c #C3E5F5",
"Rd	c #4B7CA6",
"Sd	c #33516C",
"Td	c #617E92",
"Ud	c #647F93",
"Vd	c #52687F",
"Wd	c #758B9F",
"Xd	c #F0EDF0",
"Yd	c #CBE6F4",
"Zd	c #C7ECFA",
"`d	c #CEE8F7",
" e	c #CFE8F7",
".e	c #CAECF9",
"+e	c #C9E6F4",
"@e	c #D1E8F4",
"#e	c #D2E8F7",
"$e	c #D2E7F1",
"%e	c #C0DBEA",
"&e	c #B5D8E5",
"*e	c #C1E0EA",
"=e	c #B7D8E2",
"-e	c #BFD7E5",
";e	c #C2D8E3",
">e	c #BFD7E6",
",e	c #D1E8F3",
"'e	c #D0E8F3",
")e	c #CBEBF4",
"!e	c #CAE8F5",
"~e	c #81ABCD",
"{e	c #7DAAE7",
"]e	c #6685AE",
"^e	c #5A6F94",
"/e	c #5975A2",
"(e	c #5D80AC",
"_e	c #618AB3",
":e	c #659BCD",
"<e	c #5E91BD",
"[e	c #264472",
"}e	c #5B7FA3",
"|e	c #CAF1FA",
"1e	c #C3E9F8",
"2e	c #C4EAF9",
"3e	c #C4EBF9",
"4e	c #87BBD5",
"5e	c #EFEFEF",
"6e	c #557DA3",
"7e	c #C3E6F9",
"8e	c #C0EAFA",
"9e	c #C5E5F4",
"0e	c #C9ECFA",
"ae	c #C7E6F5",
"be	c #C7E5F4",
"ce	c #C9E8F6",
"de	c #C8E7F5",
"ee	c #C6E4F2",
"fe	c #BDDDEE",
"ge	c #BCDCED",
"he	c #BCDBE9",
"ie	c #BCE0ED",
"je	c #BDDDEB",
"ke	c #BCDBEA",
"le	c #C6E7F0",
"me	c #D0E8F4",
"ne	c #CAEBF5",
"oe	c #CBECF6",
"pe	c #C8EAF4",
"qe	c #C8EBF9",
"re	c #BBE0EE",
"se	c #72A4E6",
"te	c #5577A4",
"ue	c #4D658E",
"ve	c #466592",
"we	c #486B9B",
"xe	c #5079A9",
"ye	c #6FAACA",
"ze	c #356195",
"Ae	c #89ADC5",
"Be	c #C2E4F4",
"Ce	c #C2E6F8",
"De	c #88B7CA",
"Ee	c #1B3B5D",
"Fe	c #A9E6F6",
"Ge	c #ADDBEB",
"He	c #BCE4F4",
"Ie	c #C4E5F5",
"Je	c #BEE4F4",
"Ke	c #C5E7F9",
"Le	c #C5E6F5",
"Me	c #C0E2F4",
"Ne	c #BEE0F2",
"Oe	c #C2E3F4",
"Pe	c #BDDFF1",
"Qe	c #C4E4F2",
"Re	c #C2E2F0",
"Se	c #BFE0EF",
"Te	c #C8EBF5",
"Ue	c #C7EBF9",
"Ve	c #C7EBFA",
"We	c #BBDAE6",
"Xe	c #4D7492",
"Ye	c #486FA0",
"Ze	c #4C77A7",
"`e	c #416798",
" f	c #375782",
".f	c #456F9C",
"+f	c #5488B5",
"@f	c #5E9CC8",
"#f	c #5187B4",
"$f	c #88BCD5",
"%f	c #A4D3E4",
"&f	c #B9E6F9",
"*f	c #C4E6F9",
"=f	c #C4E7F9",
"-f	c #C4E6F8",
";f	c #C2E5F7",
">f	c #C3E5F7",
",f	c #C3E5F8",
"'f	c #BFE9F9",
")f	c #AFD6E5",
"!f	c #7DAEC9",
"~f	c #98B8CD",
"{f	c #46658B",
"]f	c #324D78",
"^f	c #366299",
"/f	c #396497",
"(f	c #5087B4",
"_f	c #518DBC",
":f	c #477EAE",
"<f	c #3C70A5",
"[f	c #3A6FA4",
"}f	c #4F7290",
"|f	c #5B8FB6",
"1f	c #39699D",
"2f	c #40799C",
"3f	c #2A4E79",
"4f	c #2A5288",
"5f	c #2C588D",
"6f	c #4278AB",
"7f	c #4884B5",
"8f	c #508CBB",
"9f	c #4A8AB7",
"0f	c #3D76AA",
"af	c #F8F5F7",
"bf	c #EFF0F0",
"cf	c #ACDDF1",
"df	c #4E7DA7",
"ef	c #29578C",
"ff	c #396EA3",
"gf	c #3162A1",
"hf	c #447EB2",
"if	c #5695C3",
"jf	c #366DA2",
"kf	c #F3F2EF",
"lf	c #EDEDEC",
"mf	c #F4F5F4",
"nf	c #F4F2F4",
"of	c #F4F5F5",
"pf	c #F6F7F6",
"qf	c #B7DEF2",
"rf	c #68AAD4",
"sf	c #74ADD6",
"tf	c #0F2F55",
"uf	c #34526C",
"vf	c #F2F0F2",
"wf	c #F5F2F0",
"xf	c #B8E8F6",
"yf	c #99DAF2",
"zf	c #59829D",
"Af	c #5A829D",
"Bf	c #A6BAC8",
"Cf	c #F5F8F5",
"Df	c #EDEFEC",
"Ef	c #F8F8F8",
"Ff	c #FAFBFB",
"Gf	c #F7F6F7",
"Hf	c #ECEDEC",
"If	c #EEEDEE",
"Jf	c #F3F6F4",
"Kf	c #F7F5F7",
"Lf	c #F4F4F4",
"Mf	c #FAF9F7",
"Nf	c #EDECEC",
"Of	c #F4F1F0",
"Pf	c #F3F6F7",
"Qf	c #F8F7F8",
"Rf	c #F1EEF2",
"Sf	c #EFF0F2",
"Tf	c #F4F6F4",
"Uf	c #F5F4F4",
"Vf	c #EDECEB",
"Wf	c #F1F1F1",
"Xf	c #F0F0F1",
"Yf	c #EFF2F0",
"Zf	c #F8F6F6",
"`f	c #EBE9E9",
" g	c #F6F8F8",
".g	c #E7E7E7",
"+g	c #EDEFF1",
"@g	c #F3F7F4",
"#g	c #F6F5F6",
"$g	c #F1F4F3",
"%g	c #EFEEEC",
"&g	c #F1EFF1",
"*g	c #F4F4F3",
"=g	c #F2F2F3",
"-g	c #FAF8FA",
";g	c #F2F2F2",
">g	c #EFEFEC",
",g	c #F7F7F8",
"'g	c #EAEAEA",
"  . + @ # $ % & * = - ; % @ > , ' ) # ! ; ; ~   { ~ ] ! ^ / ( ~ _ ; , % # > ) ' + ! # . & . ! ' $ + :   , % , < - % , ) # ) . ' )   ~ ~ . ! @ , . ; [ % ) + & ~ + + ; [ @ . , ) > } | 1 ~   2 3 4 5 6 7 ",
"[ @ .   [ [ , % = 8 9 @ % [ > @ )   [ > + 0 _ _ ! a b c d e f ! g   h @ [ [ > + > [ [ ) +   [ > ' + i < $ ; # < j % ; ! [ > ~ ; [ [ ~ . @ [ [ + @   [ ! . * i [ ~ + ! [ ! ) , $ k l m n <   o . p [ q r ",
"[ [ % [ [ [ ~ k s t u $ # [ [ ! :   [ [ v w [ _ d x y z _ y A d B _ C > [ _ [ @   [ [     [ [ D E   i [   ~ [ [ # ! @ [ [ ! ~ ! [ [ ! @ < [ [   ! [ [ ! ' $ < [ i :   [ [   % D F G H I J [ @ K _ d d L ",
"[ [ ! [ [ [ i M N O P Q [ [ [ [ i _ [ [ C d [ d q _ y R d S T U [ d d V _ _ [ [ [ [ [ [ [ [ > D W [ i [ i i [ > > [ ! [ [ i @ [ [ [ [ # [ < [ > [ [ [ [ ' s X $ [   [   [ ! [ < Y Z `  ...[ @   [ +._ 5 ",
"[ [   # [ [ $ @.#.Z t $.[ [     i i %.&.@ *.q d d =.-.;.>.,.'.d ).!.~.{._ %.&.@   i [ < $ ].^./.(.D i [ [ : [ D < [ > [ > [ < < [ [   > [ [ _.:.<.[.9 }.|.1.2.3.4.= Q < [   ! $ 5.Z 6.7.8.< @ ) _ _ _ 9.",
"# @ ~   [ [ k Y 6.#.0.a.< [ $ ' *   d +.b.c.d.e.f.g.h.i.j.k.l.m.n.o.p.q.r.s.; t.$ u.F ..v.w.x.y.z.J [ ! . - < A.B.C.} D.E.F.G.H.> [ < ) I.J.K.L.M.N.O.P.Q.R.R.S.T.U.V.- > } % ' W.X.6.Y.Z.$ + . # [ p `.",
") . ; , # @ 9 s Y.X.Y  +. @ .+.+++@+#+$+%+&+*+=+-+;+>+,+'+)+!+~+{+]+d ^+/+(+{ ++_+:+<+[+}+|+|+1+2+A.i ! = D 3+4+5+6+7+8+9+0+a+b+c+d+e+f+g+h+i+j+k+l+m+n+o+p+R.1.q+r+s+t+= ' @ - u+X.v+w+G $ + ' .   6 . ",
"  . . . ! @ x+y+Y.z+Y.A+% $ B+C+D+E+F+G+H+I+J+K+L+M+N+O+P+Q+R+S+T+U+V+W+X+Y+Z+`+ @.@+@@@#@$@%@&@*@=@D < -@;@>@,@'@)@!@~@{@]@^@/@(@_@:@<@[@{@}@|@1@2@3@4@4@5@o+6@7@8@9@Q.0@D , a@z+b@z+c@y+Q ) ' ) _ @ d@",
"[ ~ . ,   [ e@y+Y.z+f@g@~ [ h@i@j@k@l@m@n@o@p@q@r@s@t@u@v@w@x@y@z@A@B@C@D@E@F@G@H@I@J@K@L@M@N@O@P@'@Q@R@S@T@U@V@W@X@Y@Z@`@ #.#+#@###$#%#&#*#=#-#;#>#,#'#)#!#~#{#]#^#6@/#(#D , = /.b@z+c@#.- ! .   _ # _#",
"< i ~ D k ! :#X.<#b@[#-@+ [ }#|#1#2#3#4#5#6#7#8#9#0#a#b#c#d#e#f#g#h#i#j#k#l#m#n#o#p#q#r#s#t#u#v#w#x#y#z#A#B#C#D#E#F#G#H#I#J#K#L#M#N#N#O#P#Q#R#S#T#U#V#W#X#Y#Z#`# $.$.$9@(#+$~ < @$#.Z #.y+= [ $ [ [ _ #$",
"[ ! i < < ! J $$%$&$[#*$p [ =$-$;$>$,$'$)$!$~${$]$^$/$($_$:$<$[$}$|$1$2$3$4$5$6$7$8$9$0$a$b$c$d$e$f$g$h$i$j$k$l$m$n$o$p$q$r$s$t$u$v$w$x$y$z$A$B$C$D$E$F$G$H$I$J$K$L$.$.$(#M$! D N$O$P$Q$N W [ < ) < _ _ ",
"[ [ % D D [ F R$S$T$U$u.  p V$W$X$Y$Z$`$ %.%+%@%#%$%%%&%*%=%-%;%>%,%'%)%!%~%{%]%^%/%(%_%:%<%[%}%|%1%2%3%4%5%6%7%8%9%0%a%b%c%d%e%f%g%h%i%j%k%l%m%n%o%p%q%r%s%X#t%`#L$u%.$v%w%- > x%O$y%z%(#D $ - }.j < @ ",
"[ A%> 8 }.  Q B%C%D%E%- ! F%G%H%I%,$J%K%L%M%N%O%P%Q%R%S%T%U%V%W%X%Y%Z%`% &.&+&@&#&$&%&&&*&=&-&;&>&,&'&q )&!&~&{&]&^&/&(&_&:&<&[&}&|&1&2&3&4&5&q 6&7&8&9&0&T@a&Y#b&c&d&e&f&V.} # Q O g&h&i&[ , 9 j&$ ! @ ",
") % k 4.u+$ - H k&l&m&< y n&o&p&q&r&s&t&u&v&w&x&y&z&A&B&C&D&E&F&W%G&H&I&J&K&L&M&N&O&P&Q&R&S&T&U&V&W&V X&Y&Z&`& *.*+*@*#*$*%*&***=*-*;*>*,*'*)*!*~*{*]*^*/*[@(*2@_*:*<*e&e&[*(#' D }*g&|*A.[ . M$1** : + ",
"$ ) +$s u+- j @.2*3*4*o 5*6*7*8*9*0*a*b*c*d*e*f*g*h*i*j*j*B&k*l*m*n*o*p*q*r*s*t*u*v*w*x*y*z*A*B*C*D*E*F*G*H*I*J*K*L*M*N*O*P*Q*R*S*T*U*V*W*X*Y*!.Z*`* =.=+=/*@=#=$=%=&=n+e&<*s+[.[ *===-=}.! % $ - > ) ;=",
"< + +$/.l > ) x%>=,='=)=!=~={=]=^=/=(=_=:=<=[=}=|=1=i*2=3=4=5=6=7=8=9=0=a=b=c=d=e=f=g=h=i=j=k=l=m=n=o=p=q=r=s=N&t=u=v=w=x=y=z=A=B=C=D=E=F=G=H=I=J=K=L=M=N=O=P=Q=R=S=T=U=.$e&V=W=[ :#X=N 9 [ @ j $ [ ! . ",
"[ ' E (.J [   9 Y=Z=_ `= -.-+-@-#-$-%-&-*-=---;->-,-1='-)->-!-~-{-]-^-/-(-_-:-<-[-}-|-1-2-3-4-5-/+%.6-7-8-9-0-a-b-c-d-e-f-g-h-i-j-k-l-m-n-o-p-q-r-n=s-t-u-v-w-x-y-z-A-B-C-/#D-V.[ < E-F-< [ < 3+Q [ i @ ",
"[ @ > D $ [ ! j A+*$_ G-H-I-J-K-L-M-N-O-P-Q-R-S-1=3='-T-T-!-U-V-W-X-Y-Z-`- ;.;+;@;#;$;%;&;*;=;-;;;>;p=p=,;';);!;~;{;];^;/;(;_;:;<;[;};|;1;);2;3;3;4;!*5;6;7;8;9;0;a;b;c;c;d;s+e;[.[ J J < [ $ f;g;< [   ",
"[     [ # [ ! $ j B+[ h;i;j;k;l;m;n;o;p;q;r;s;t;i*1=u;!-U-!-v;!-w;W-x;y;z;A;B;C;D;E;F;G;H;I;J;K;L;M;_ N;O;P;Q;R;S;T;U;V;W;X;Y;Z;`; >.>+>@>#>$>%>&>&.g *>=>->;>>>,>'>)>!>~>{>Q.D-]>[ ' > $ [ J ^>s D [ > ",
"[ + ) ) [ ! . . - />(>_>:><>[>}>|>1>2>3>4>5>6>7>8>'-u;T-9>U-!-T->-0>a>b>c>d>e>A;f>g>h>i>j>k>l>m>n>o>p>N;q>r>s>t>u>v>w>x>y>z>A>B>C>D>E>F>G>H>I>J>K>L>M>N>O>P>Q>R>S>T>U>V>W>X>Y>Z>`>j k E < [ J Y. ,k [ ; ",
"> ) ) M$[ . . . . < .,+,@,#,$,%,&,*,=,-,;,>,,,',!-',!-!-U-9>),8>8>1=!,~,{,],^,/,(,_,:,<,[,},|,1,2,4;3,4,5,6,7,8,9,0,a,b,c,d,C>e,f,g,h,i,j,k,l,m,n,o,p,q,r,s,t,u,v,T>w,x,y,~>z,A,B,C,D = > ~ w%X.7.Q + . ",
"# . E }.j > ) ~ . j D,E,F,G,H,I,J,K,L,M,N,O,P,Q,!-!-!-!-!-v;',)-i*2=R,S,T,U,V,W,X,Y,Z,`, '.'+'@'#'$'%'&'*'='-';'>',''')'!'~'{']'^'/'('_':'<'['}'|'1'2'3'4'5'6'7'8'9'0'a'W>b'c'9@Z>`>W=]>j i Q }*d'- ~ ~ ",
"[ ) +$A.w%< + ' D e'f'g'h'i'j'k'l'm'n'o'p'm*q'r'u;!-!-9>U->-8>i*3=R,s't'u'v'w'x'y'z'A'B'C'D'E'F'G'H'H'H'I'J'K'L'M'M'N'O'P'f,Q'R';=;=%.S'T'U'V'W'X'Y'Z'`' ).)+)@)#)$)%)&)V>b'{>^#e&B,B,f&*)[ Q t =)D ! ! ",
"[ [ +$/.$.  - D -);)>),)')))!)~){)])^)/)()_):)<)[)T-!-v;})>-'-|)3=2=s't't't'1)2)3)4)5)6)7)8)`.R'9)9)0)a)b)c)d)e)f)g)h)i)j)k)l)m)n)n)!*o)p)q)r)s)t)u)).v)w)x)y)z)A)B)[ C)D)E)F)z,Z>/#A,s+W.[ < s /.[ !   ",
"[ [ G)Y x%  k J H)I)J)K)L)M)N)O)P)Q)R)S)T)U)V)W)5=',X)',>-u;Y)i*R,2=Z)Z)s'`)`)2=R,t' !.!X)+!@!#!$!$!%!&!*!=!-!;!>!>!h),!j)})`)'!;=;=!*o))!!!~!{!]!^!/!(!_!:!<![!}!|![ [ 1!C-2!z,v%/#/#/#W=[ [ J w%[ [ [ ",
"[ [ e@F-(.[ j 3!4!5!6!7!8!9!0!a!b!c!d!e!f!g!h!i!j!~-k!l!u;Y)i*m!2=2=j*2=j*2=i*i*3=u's'R,T-e,n!n!o!o!p!q!r!s!s!;!;!t!u!e,v!w!x!)-y!n)n)o)z!A!B!C!D!E!F!(!G!H!I!J!K!L!: [ }.M!c'v%v%N!6@/#t+[ ! k < [ [ > ",
"! @ F /.+$# - O!P!Q!R!S!T!U!V!W!X!Y!Z!`! ~.~+~@~#~{-$~%~l!u;i*)-|)i*i*i*'-4=4=,-2=u'R,i*&~p!n!*~o!=~u!t!t!-~;~;~;!i)=!]'>~,~,~'~/'!*)~l)!~~~{~]~^~/~(~_~:~<~[~}~|~1~~ [ D 2~3~c'v%Q.4~5~6~E ) ' ! [ > + ",
"@ ; - l j A%} O.%=7~8~9~0~a~b~c~d~e~f~g~h~i~j~k~l~m~n~o~p~u;1=u;8>|)i*'-u;'-1=3=s't'2=U-u!o!=~=~q~q~i)r~s~t~t~u~v~=~=!w~x~y~z~A~B~;=`.k)C~D~E~F~G~H~I~J~K~L~M~N~O~K % ~ [ 0@3~X>z,A,d;F)<*W.< ' .   ) ~ ",
"~ + - k > [ P~Z#n+Q~Q!R~Y@S~T~U~V~W~X~Y~Z~`~ {.{+{@{#{Y-${%{)->-!-8>i*u;>-'-,-3=&{R,)-*{=~q~q~q~P'i)t!s~={-~s!-{=!;{=!>{,{'{'~){!{~{y!{{]{^{/{({_{:{<{[{K~}{|{1{2{> ; & ) 3{4{F)c'Y>2!F)Q.5{w%$ . ! $ ; ",
"! @ @ D > [ 6{s+7{t%8{9{0{a{b{c{d{e{f{g{h{i{j{k{l{m{n{o{p{q{[)8>!-8>4=u;u;|)c>r{R,2=v;q!s{s{P'P'q~i)s!t{s!,!u{=!=!;{=!p!v{A~v{w{x{k)/'y{]{z{A{B{C{D{E{F{G{H{I{J{K{; @ i # = L{M{N{z,z,z,r+D-]>j ) @ > . ",
"[ [ ! !   [ W.f&Z>L$O{P{Q{R{S{T{U{V{W{X{Y{Z{`{ ].]+]@]#]$]%]&]*]',u;|)'-1=1=3=Z)>~i*=]P'=~P'q!P'P'-]=!=!;]u{q!=~i)>]=!p!>{){^'B~,]{{'])]!]~]{]]]^]/](]_]:]<][]}].+*.[ i ! D [.|]1]c'z,c'z,s+e;} $ P~[ @ ",
"[ [   [   < (#f&N!2]W>3]4]5]6]7]8]9]0]a]b]c]d]e]f]g]h]i]j]k]l]0>',4=1=1=i*R,r{t'R,3=9>q~P'P'=~q!i)=!,!u{m];]P'=~P'q~P'n]B~B~B~{{y{y{'!o]!]p]q]r]s]t]u]v]w]x]y]z]> # _ i i [ j A]M{F)z,z,c'Z>[**)[ E [ [ ",
"[   . @ < W.[*u%d;z,B]C]D]E]< F]G]H]I]J]K]L]M]N]O]P]Q]R]S]T]U]V]W]'-,-,-r{t'R,t'`)2=),i)i)=!=!,!u!*{;]m]X]Y]e,q!u!i)s{>{Z]('{{y{'])]o]o]`] ^.^+^@^#^$^%^&^*^=^-^# ! _ [ [ ~ [ ;^M{M{c'c'2!Q.D->^[ [ [ @ ",
"[ + .   J 5{f&Q.c'z,M{,^'^)^_ ++h !^~^{^]^^^/^(^_^:^<^[^}^|^1^2^3^1=r{3=R,u'R,>~R,j*A~=!r!-~-{;]v!!-),4^,{U-f,u!s!s!-]P']'w~y{)]'!o]5^5^6^7^8^9^0^a^b^c^d^e^f^g^#$h^++[ ! ' ~ } 1]1]X>d;2!A,D-W=[   ! @ ",
"# - + [ i^f&e&{>c'c'j^k^l^m^[ + ; n^o^p^q^r^s^t^u^v^w^x^y^z^A^B^P,C^2=r{2=t'R,u'`)'~u{i)t!={D^E^X]X]F^G^4^8>;]=!u!v~s!-],!*{H^5^5^I^U-9>J^K^L^M^N^O^P^Q^R^S^T^U^V^W^X^[ + . . > t+1]N{{>z,c'f&Y^>   @ ' ",
"  ; ; W A]f&B,{>c'c'Z^7@`^ /D & @ { L ./+/@/#/$/%/&/*/=/-/;/>/,/'/)/,-w!3=R,R,>~3=!/>]-]~/-~{/D^]/^/4^//1)(/D^,!=!-{={{/s~u{]'&~Y]v!&~9>_/:/</[/}/|/1/2/3/4/5/6/! 7/' # ~ ; . i l 1]1]c'z,F)D-t+$ > > . ",
"  @ : }.r+s+Z>z,c'c'M{z%8/9/W : & o d 0/a/b/c/d/e/f/g/h/i/j/k/l/m/a>n/w!3=R,r{R,o/t!i)p/;~u~q/s~r/]/4^1)j*s/1)t/,!u{{/q/{/u/m]U-v{A~F^F^v/w/x/y/z/A/B/C/D/E/F/G/6-7/_ [   . . ! D U.M{z,z,z,<*[.# > < ) ",
"[ ! ! i^Z>Z>Q.z,c'F)H/==8/P$$.i +   _ I/J/K/L/M/N/O/P/Q/R/S/T/U/V/W/X/R,3=>~R,j*9>q~;~Y/Z/`/Y/ (.(+(^///@('{#(u;){s!v~{/q/q/$(]/%(%(t~;~&(*(=(-(;(>(,('(v))(!(_ r.-;[ [ [   ! ! [ 0@r+Y>c'2!v%D.[ [ [ ! ",
"[ [ < t+/#e&v%c'c'X>~(O g&g&E-[   @ < {(](^(/(((_(:(<([(}(|(1(2(3(4(5(R,R,t'R,'~u{s!6(7(8(`/9(0( (+(F^G^x!'{'{G^v{v~t!a(6(u~b(c(d(e(d(f(g(h(i(j(k(l(m(n(o(`'p(S d {.[ [ [   [ [ [ J A.;^z,z,<*C,[ [ [ [ ",
"[ [ 9 T..$/#v%z,c'j^q(#.r(r(=)D + <   s(t(u(v(w(x(y(z(A(B(C(D(E(F(G(H(5)s'u'1)A~u!q/9(7(7(I(9(7(9(J(9(u/+(K(L(z~(/;]u{t!u~Y/7(7(f(M(f(N(O(P(Q(R(S(T(U(V(W(X(d q Y(~ Z([ [ ! % i [ j j G)(#d;B,V.[ [ [ @ ",
"! ~ }.r+e&/#Z>v%{>]#`( _._g&+_F * ) < @_#_$_%_&_*_=_-_;_>_,_'_)_!_~_{_]_>~u',{;]=!Y/6(Z/7(d(b(c(6(Y/c(Z/^_.(%(/_x!'~!/u{t!u~(_6(f(f(f(I(g(__:_<_[_}_|_1_2_3_4_5_6_~.p [ ! . ; ! > $ ' D 5.N!/#6~- [ ! . ",
"+   7_z,Z>/#^#N!8_N 9_y+Q$g&0_a_$ 9 k b_c_d_e_f_g_h_i_j_k_l_m_n_o_p_q_r_u'4^t~=!={+(Y/b(7(d(s_s_{/Z/9( (0( (u/.(K(/_4^D^u{s!={t_N(N(f(f(u_v_w_x_y_z_A_B_C_D_0 X(E_~ F_  . ' . $ j . ~   Z.c'2![*].[ ; ~ ",
"@   i^5~e&A,A,r+y+ _G_y+9_y%H_I_D W j k J_K_L_M_N_O_P_Q_R_S_T_U_V_W_X_Y_Z_X];]=!`_+(^_{/b(6(b(q/p/q/6(Z/b(Y/6( (%( :x!.:o/+:u{a(b({/c(f(@:#:w_$:%:&:*:=:-^-:;:e.>:' o ! @ . . - M$j ; D 4.Z^F)s+W.[ ~ ; ",
"!   t N!e&Z>Z>,:#.O$O$I_+_':):!:k Q D D ~:{:]:^:/:(:_:::<:[:}:|:1:2:3:4:5:r/u!P'={6:%(^_Y/q/Y/q/p/Y/c(6(d(Y/I(Y/ (7:.:/_/_8:={-~{/6(I(f(9:0:a:x_b:c:d:e:f:g:h:d {.& % [ i ) M$$ J > &   s i:j^/#V.[ ! % ",
"[ [ =)N![*e&Z>N 6.):O$Y $$j:O$O +$D $ D k:l:m:^+n:o:p:q:r:s:t:u:v:w:x:y:z:-~=~n!*{A: :t_ ((_J($(Y/6({/b(p/6(6(J(c( (^_.:x!/_o/;~v~s_s_f(B:C:a:D:E:F:G:H:I:J:K:5_# @ _ ! i D = j Z.> ~   L:z%1]d;6~j [   ",
"# [ i&N!M:s+r+N:O$O:6.y+N:P:6.9_:#< $ D Q:R:S:T:U:V:W:X:Y:Z:R/`: <.<+<@<#<v~$<P'=!m]/_ :^_^_^_%(t~Y/;!%<Y/Y/(_ (c(Y/$(m].:&<&<D^v~s~;~M(B:*<=<-<;<><,<'<)<!<U 5_B < ~<$ i D D +$*=J [ @ O {<M{X>e;P~[ [ ",
"[ [ i&N!M:V=]<L:O$y%^</.E-/<O:P$u+< > [ (<_<:<T:<<[<}<|<1<2<3<4<5<6<7<8<9<{/*~=~0<s!X]x! :%(F^t_ :u/{/(_{/u/q/J(Y/a<(_^_8:K(x!K(-{v~;~e(9:b<=<c<d<e<f<g<h<i<'.j<d k<l<m<[ = j F ^>u+D E }*n<k^M{Z>C,[ ! ",
"# @ U.^#[*V=X=#.o<p<r(s Y R.._H_Y D - > q<r<s<t<u<v<w<x<y<z<A<B<C<D<E<F<G<%<H<*~;{q~v~F^x!//L(F^F^ :6:%<%<^_I<+(+(7:7:J< :x!'{G^),f,;]={K<L<M<N<O<P<Q<R<S<T<'.s.A U<V<W<D F k J E-P < w%P$':q+1]N!<.[ . ",
"  , U.N!M:Q.9_6.j:/<R./.X<._q+0_E-W ].$ Y<Z<`<@+ [.[+[@[#[$[%[&[*[=[-[;[G<Y/{/=~o!>]r!;!o/&</_&<&< : :8:.:%(7:a<>[^_a<>[8:&<,[@(v;u!f,s~'[)[![~[{[][^[/[([_[4_t.:[<[[[}[|[W Q J Z.i^< ].j:p<8@1[5~2[< . ",
"  M$A]6@[*3[O #.._/<q+N$e@._R.r(L:F 4.W ..4[5[6[7[8[9[0[a[b[c[d[e[f[g[h[i[Z/Y/;!0<>]r!;!u~$(J<&<,[//,[L( :7:7:A:a<t_6:6:K(//'{s/u;^'f,-{j[k[l[m[n[o[p[q[r[s[t[u[v[w[x[y[z[$ Q Q l F-< u+0_/<A[]#c'2[[ % ",
"[ , A]4~f&1[#.#.R.R.2.X x+]<R.0_O :#4.D x%B[[ C[D[E[F[G[H[I[J[K[L[M[N[O[P[7(9(a(0<-]s!;!Q[u~7($(^_//'{,[&<4^K(L(&< :K(////x!'{s/4=,]*{;]R[k[S[T[U[V[W[X[Y[Z[`[d  }w[.}W<m   :#F x%$$= 4.r(A[2.r+X>2[[ . ",
"[ E |]4~M:8@N O p<R.R.X 9 {<A[+}X=].].  F J [ @}#}$}%}&}*}=}-};}>},}'})}!}7(7(q/r!>]-~>[u~r!~}7(6(`/K(x!,~{},[&<x!&<4^(/]}'{^}{}u'('q!,!/}(}_}:}<}[}W[}}|}1}2}3}4}5}< 6}7}[ M X.Y P$W t `^S.8}T.d;9}[ ) ",
"[ } r+<*<*0}9_}*a}b}._4.3+c}A[/<d}E-@.w%= W i e}f}g}h}i}j}k}l}m}n}o}p}q}r}b(7(b(;!i)u~u~'~s}u~s!c(Y/t_ :x!z~,~z~s/s/s/,[,[t}'{{}#(u}^',!v}w}m[x}y}z}A}B}C}D}E}F}G}H}5[I}J}< z+}*o<P$X<8}K}A[X=L}d;M}[ ! ",
"[ ].Q.s+u%]<}*o<H_7@d}@.e@N A[8@._O o<P = F v N}O}P}Q}R}S}T}U}V}W}X}Y}q}Z}8(8(f(d(t!u~r/u~t_ :8:o/K(K(^_`}.:z~,~,~,~'{'{t}t}{}@( |})w{]'.|+|@|x}#|$|%|&|*|=|-|;|>|,|'|y[)|W Y O$O:H_Y ._S.A[t L}4~!|[ ) ",
"[ i^/#.$u%8@0_':g&~|z%Y (.-===]#2.P$':y+W ..{|s(]|^|/|(|_|:|<|[|}|||1|2|3|b(8(I(d(c(v~t_>[+:u~)-x!z~L(0(`/7://,~y~y~,~y~t}4|t't'>~5|w{){6|7|8|9|0|a|b|c|d|e|f|g|h|i|j|k|J}= Y.G_y%H_Z h&l|S.E-8}V=0@[ % ",
"[ W=/#s+9@5~0_H_g&/<R.I_$$m|O ]<q+g&g&X.e@n|o|p|q|r|s|t|u|v|w|x|y|z|A|B|C|f(I(f(D|c(u~={^_%(v{u~m]4^%(Y/.(6:Y)'~]}'{z~z~ |r{r{&{&{r{('w~E|F|G|H|I|J|K|L|M|N|O|P|Q|R|S|T|U|V| ,):8/8/O:2.l|l|#.U.D-0@[ % ",
"[ t+V=u%/#A[0_r(r(b}d}^>q(m|W|9_A[a}a}O @.n|X|Y|Z|`| 1.1+1@1#1$1%1&1*1=1-1b(c(M(D|D|7(u~7(6(u/a<6:A:A: ((_L((/r/D^m]4^//4^,-3=2=>~>~('j);1>1,1'1)1!1~1{1]1^1/1(1_1:1<1[1}1G |1n<1121a}]#l|q+9_,:D-<.[ . ",
"[ t+V=u%.$k^0_0_H_7@j:3141H/$$^>N{a}a}G_G 516171819101a1b1c1d1e1f1g1h1i1j1c(c(d(k1l1d( (u~7(7(u/a<.:.:a<%( :&<x!'{'{x!,[(/1=3=`)t'4|)]k)m1n1o1p1q1r1s1t1u1v1w1x1y1z1A1B1C1D19/^<21218/N{5~h&q+8}D-E1[ . ",
"[ t+V=.$6@]<{<H_9_q+h&0}k^i:-=#.k^a}H_O 0.8.g@71F1G1H1I1J1K1L1M1N1O1P1Q1R1Q[Q[e(k1l1D|7( (u/6(J(^_a<7:J<.:m];]v{A~u;'~4^(/Z)x~x~4|4|H^k)S1T1U1V1W1X1Y1Z1`1 2.2+2@2#2$2%2&27.*2n<a}110_N{6@z%k^d}D-=2[   ",
"[ t+V=4~^#41-2X=#.41N{j^i:1[8_y+a}0_;2O:9/G *$>2,2'2)2!2~2{2]2^2/2(2_2:2<2r!~}e(k1l1l1D|7(Y/.(7:.(J(^_7:J<A: :o/A~A~(/4^@(#( | |u'4|[2k)}2|212223242526272829202a2b2c2d2e2f2*2O:y%`^a}N{/<A[|*h&D-g2  > ",
"[ 5./#N!^#H/H/h2X.c}8@1[]#i2`(#.O:._==O:j2k2l2m2n2o2p2q2r2s2t2u2v2w2x2y2z2A2~}k1D|l1l1l1D|7(7(8(7(9(`/.(J< :4^x!x!&<//G^,[x~ |@(t'u'5|k)B2C2D2E2F2G2H2I2J2K2L2M2N2O2P2Q2}1R2S2):':8/a}N{b}q+|*2.[*C,i : ",
"[ W.N!N!^#|]j^2.#.`(X>|]i:{<== _o<2.z%H_S2T2U2V2W2X2Y2Z2`2 3.3+3@3#3$3%3&3~/>!d(M(l1D|k17(8(M(8(8(9(0(*36:K(o/4^/_&<,[x~s/x~ |@( |u'=3,]-3;3>3,3'3)3!3~3{3]3^3/3(3_3:3<3[3}3*2y%m|0_H_k^b}b}+}/<[*|3i ~ ",
"[ A.N!N!^#Z^i:d}^>13j^M{P:0}X= _W|1.z%P:23f@3343536373839303a3b3c3d3e3f3g3r~A2s_M(k1D|D|7(8(7(7(7(0(`/ (.(J<L(x!x!,[@(,[{}x~x~x~u'u'u'y{h3i3j3k3l3m3n3o3p3q3r3s3t3u3v3w3x3y3S2{<1[7@H_k^b}0_+}7@5{$ : . ",
"[ 0@A,c'A,Z^H/m|^> _i2|]]<k^-=6.^>]#z%P:z3A3B3C3D3E3F3G3H3I3J3K3L3M3N3O3P3i)r~s_7(M(D|D|8(8(7(7(9(`/*3.(%(6:L(//G^G^t'#({}x~x~ |t'u'u'Q3R3S3T3U3V3W3X3Y3Z3`3 4.4+4@4#4$4%4*2S$|*i2q+b}q++}+}|*7@(#[ ~ + ",
"[ [.v%c'd;1]i2h2O  _q(i2H/h&W|6.&4H/P:z%*4=4-4;4>4,4'4)4!4~4{4]4^4/4(4_4P3h)r!s_%<b(I(8(9(9(8(8(*3*3.(.(6:A:/_G^s/@(>~:4:4#(4|t'u' |u'H^<4[4}4|414243444546474849404a4b4x3}3c4._]#7@/<S.7@7@|*7@(#> @ . ",
"[ *)<*d;c'd41[h2O  _-=H/H/]<9_#.c@h2q+k^z3=4e4f4g4h4i4j4k4l4m4n4o4p4y}q4P3h)r!s~u/Y/Z/9(*3`/9(0(`/.(+(+(.:/_,[,[Z_>~ |^}:4:4#(})y{)]y{S'n^r4s4t4u4v4w4x4y4z4A4B4C4D4E4F4G4y3c4P:q+R.q+A[7@/<+}S.6~$ [ ~ ",
"[ D.e;v%c'H41[m|O c@^>1[H/]<;2O$c@-2i:R.I4J4K4L4M4N4O4P4Q4R4S4T4U4V4W4X4Y4i)t!-~t~a<^_`/.(`/`/ (.(+(6:J</_,[G^ |t'&{4|{}:4:4:4r{y{S'!{S'Z4`4 5.5+5@5#5$5%5&5*5=5-5;5>5,5G4j2'5H/7@7@q+q+A[N{/<S.e;' [ [ ",
"[ < (#/#d;Z^|]{<31G_#.h2k^{<9_G_ _9_i:z%)5!5~5{51{]5^5/5(5_5:5<5[5}5|51525r~t{s~r/t_J<+(7:.(.(+(7:J<L(x!x!,[@(u'R,&{35{}:4{}:4#(t'5|})5^45556575859505a5b5c5d5e5f5g5h5,5i5}3j5i:q+i:N{N{l|7@N{N{f&[.[ ; ",
"# [ W=/#X>F)j^{<W|W|#.8_k^{<;2k5#.31H/k^l5R$m5n5o5p5q5r5s5t5u5v5w5x5y5z5A5r~s!s~r/t_K(A:K(+(6:A:A:G^x!{}35Z_u's'R,t'{}{}3535{}{}#(#(B5C5e#D5E5F5G5H5I5J5K5L5M5N5a;O5P5Q5R5}3P:k^K}q+N{A[6@q+A[N{D-g2[ ' ",
"% # C,/#X>j^i2S5==-=k531k^{<==G_9_G_0}1[q+)5T5U5V5W5X5Y5Z5`5 6.6+6@6x}#6$6r!;!={r/T-'~^/]/L(/_x!x!'{^}:4@(u's'R,r{@(#(35x~:4x~x~%6%6&6*6=6-6;6>6,6'6)6!6~6{6]6^6/6(6_6:6!5<67@k^7@N{N{q+S.8@7@N{f&[6$ . ",
"# ! *)/#d;r+i2S5{<9_W|O j^]<9_W|W|k5]<i:5~}6|61626364656667686<59606x2a6b6t{s_{/t~o/'~4^E^L(]/F^]}:44|u'u'u's'R,&{:4:4#({}x~c6d6e6f6g6h6i6j6k6l6m6n6o6p6q6r6s6t6u6v6w6x6<6y67@k^q+N{N{7@l|l|k^X>s+z6D.  ",
"[ # P~B,X>c'A6H/]<==3113i2A6;2;231G_m|X>d;}6B6C6D6E6F6G6H6I6J6K6L6M6N6O6P6s_{/%<t_m]'~1)o/r/s~I<E^R,t'u'>~s'R,R,t'#(#(Q6R6S6T6U6V6W6X6Y6Z6`6 7.7+7@7#7$7%7&7*7=7-7;7>7,7C]'77@i:q+N{k^|*A[l|i:5~.$)7!7[ ",
"[ [ D.v%5~i2A60}H/{<3113A6m|;29_-=O ==d;F)~7{7]7^7/7(7_7:7=.<7[7}7|7172737q/%<u/t_]/X]4^4^`_={s~),8>R,s'>~R,r{R,47576777879707a7b7c7d7e7f7g7h7i7j7k7l7m7n7o7p7q7r7s7t7u7v72.z%H/i:q+h&b}q+l|6@s+u%w7x7[ ",
"[ [ , y7N!1]i2i2]<41q(z70}h2m|-=;2318_4~i2}6A7B7C7D7E7F7G7H7I7J7K7L7M7N7O7P7$(]/%(F^4^^///s}-{!/8>T-3=Q7R7S7T7U7V7W7X7Y7Z7`7 8.8+8@8#8$8%8&8*8=8-8;8>8,8'8)8!8~8{8]8^8/8(8N q(S50}M{1[b}A[l|9@s+s+_8x7[ ",
"[ > [ ]>.$X>M{~(0}|]F)F)|]0}41-2;231-=5~1]:8<8[8}8|818283848586878889808a8b8c8d8e8e8f8g8h8i8j8k8`]l8m8n8o8p8q8r8s8t8u8v8w8x8y8z8A8B8C8D8E8F8G8H8I8J8K8L8M8N8O8P8Q8x3!5R8d'E-m|S5H/M{z%K}l|l|Z>s+/#S8T8< ",
"! ) > D.e;A,{>M{i:X>j^{>H4A6A6m|m|-=31X>d4U8V8W8X8Y8Z8`8 9.9+9@9#9$9%9&9*9=9-9;9>9,9'9)9!9~9{9]9^9/9(9_9:9<9[9v8}9|91929394959N>6979899909a9b9c9d9e9f9g9h9i9j9k9l9m9n9)59_v+{<i2N{c'j^b}S.^#s+s+o9p9q9# ",
"~ ' .   W.Z>c'c'F)F)F)d;i2~(0}A6m|8_-=X>F)U8r9s9t9u9v9w9x9y9z9A9B9C9D9E9F9G9H9I9J9K9L9M9M9N9O9P9Q9Q9R9S9T9U9V9W9X9Y9Z9`968 0.0*>+0@0#0$0%0&0*0=0-0;0>0,0'0)0!0~0{0]0^0/0y+b@0_j^F)c'c'7@5~6@s+Z>W>(0_0[ ",
": k . & [ T.z,2!d;X>F)M{M{|]H/0}h2m|m|r+d;:0<0[0}0|010203040506070809000a0b0c0c0d0e0f0g0h0i0j0k0l0m0n0o0p0q0r0s0t0u0v0w0x0y0z0A0B0C0D0E0F0G0H0I0J0K0L0M0N0<3O0P0Q0R0/08_y+31{<N{M{F)d;8@N!.$u%c'3~S0-)# ",
"[   . : [ ;^v%2!l|j^h2S50}A6A60}A6A6-21[j^S5T0U0V0W0X0Y0Z0`0 a.a+a@a#a$a%a49&a*a=a-a;a>a,a'a)a!a~a68{ao^]a^a/a(a_a:a<a[a}a|a1a2a3a4a5a6a7a8a9a0aaabacadaeafagahaR0iah2;29_X=0_i:j^F)d;5~Z>s+u%ja3~kala[ ",
"[ [ @ [ [ 6{N!1]X>z7S5S5m|8_X=,:|]0}h2A6h2,:iamanaP8oapaqarasatauavawaxayazaAaBaCaDaEaFaGaHaIaJaKaLaMaNaOaPaQaRaSaTaUaVaWaXaYaZa`a3a6a bF0.b+b@b#b$b%b&b+$*b=bia-b,:z7==H_._|*H/N{M{d;/#/#[*<*;b>b,bH._ ",
"[ [ # [ # *)/#Z^|]z7~(S5S5-2-=8_0}|]z7i2'bc}ia)b!b~b{b]b^b/b(b_b:b<b[b}b|b1b2b3b4b5b6b7b8b9b0babbbcbdbebfbgbhbibjbkblbmbnbobpbqbrbsbtbubvbwbxbybzbAbBbCbA+DbEbFbi2q(|]{<H_b}{<]<X>j^N!Z>.$<*<*GbHbIb@ _ ",
"[ ! ,   [ *)v%z,Z^A6i2,:41m|`(-2,:i:|]0}Jb31KbLbz[L4MbNbObPbQbF0RbSbTbA0UbVbWbXbYbZb`b`b c.c+c@c#c$ch^:[+0%c&c*c=c-c;c>c,c'c)c!c~c{c]c^c/c(czb_cububCbm^:cia-bA6|]d4N{{<j:b}==i2{>{>9@u%s+.$C-c;<c[c[ V ",
"[ . . % [ E (#/#F)1[Z^i2i2H/A6m|m|m|-=3113}c|c@.1c2c3czb4c5c6c7c8c9c0cacbcccdcecfcgchcicjckclcmcnc<bocpcqcrcsctcucvcwcxcyczcAcBcCcDcEcFcGcHcIc|[|[JcKcDbLcLcS5S5H/X>5~z%0_h&|*j^z,N!9@.$s+C-U=McNcOc[ Pc",
"@ , . % % > 0@Q.d;j^Z^M{M{M{H/A6h2q(13}cI_w+X a_QcRcScq$TcUcVcWcXcYcZc`c d.d+d@d#d$d%d&d*d=d-d;d>d,d'd)d!d~d{d]d^d/d(d_d:d<d[d}d|d1d2d3dzbBbL!L!4de@L{5d6dm|S541h2M{d;N{z%k^N{c'c'9@4~/#B,<*L.I$7d8d_ 9d",
"! @ ' . # ! - (#5~F)M{M{M{M{|]A6q(,:JbY 0dadbdadadA+cdddedfdgdhdidjdkdldmdndodpdqdrdsdtdudvdQbwdJ xdydzdAdBdCdDdEdFdN=GdHdIdJdKdLdMdNdOdPdA+Qdu Jca_Rdc}q(A6i2i2i2M{j^N{8@d;d;d;d;9@Q.B,SdTdUdVdWdo {.Xd",
"[ [ .   [ [ E y7/#d;j^H4~(~(i2Z^r+Z>A]*=@.bdad4d3{A+A+YdScZd`d e.e+e+e@e#e$e%e&e*e=e-e;e>eAd,e'e|[IcIc)e!e~e{e]e^e/e(e_e:e<e[e}e|e1e1e2e3eadx%3{e@4eh2A6|]d4M{M{M{X>F)d;5~d;2!2!c'A,B,z6[.[ > k < _ ! 5e",
"[ # ! [ [ [ M$(#V=6@2!d4~(i2F)/#6ei&H/S5t Z.8 u u Qd7e7eea8e|!9e0eaebecedeeefegeheiejekelemedewbneoepeqere6%seteuevewexeyen5zeAeCbBeCeCeadadJcDe7_N S5h2Z^|]|]Z^M{M{F)c'5~Q.A,/#Z>s+EeC,[ [   @ ! K=! c ",
"[ # # [ [ [ [ ;^M{l|4~Z>A]S5~(Z^4.Fe-=13&4*=^.Ge(.X<adHeRceaIeJeKeLeLe:<:<MeNeOePeQeReSe:<:<:<:<:<TeUeVeWeXeYeZe`e f.f+f@f#f{7$fe@u u 3{X<e@%f(#d4j^Z^k^H/d4d4Z^M{Z^F)N!4~/#/#2!/#Eeg2[ [ [   ! _ d d   ",
"[ # , # [ [ ! 8 $$8_z7q(^>&4&4k5E-I_Y P v+@.Fe&f(.adadRc7e7e7e7e7e*f=f-f*f;f>f-f,f=f-f-fKe-fIeKeYd'f)f!f~f{f]fs9^f/f(f_f|6:f<f[fX bdx%x%0ds N:U.S5S5S51]i2i2Z^2!A,N!.$9@d;{>z,v%}fA.D ! [ [   t._ [ q r ",
"[ + ' ! [ ! . k a_;^F-y+}c&4y+I_N$a_adX<e@e@bdu u u u bdbdbd7e7e7e7e7e7e7e7e7e7e7e7e7e7e7e7e7e7eRcRc|f1f2f3f4f5f6f7f8f9fia[f0fB]Rdadadx%(.P *=}c}ck5k513q(c'N!Z>s+.$e&N!Q.A,.$=2$   ' & _   . . af_ d bf",
"@ . @ . ! ) ; ' j +$P }c}c}cI_w+bd(.(.ade@ad(.u u bdu bdX<u u (.7eu He7eHeu He7eu QcHeQdRcQd7ebdQccfdfef:fff>bgf}60fhfifjfb'X>M{Q.U.a_X<X<(.w+@.P }c&4y+}ci&q(A6j^f&f&u%u%u%~#P~[ ' & ~ kf@ lfmf{ nfofpf",
"  . . %   @ % & % < 4d}cI_Z.a_X<&fad(.a_(.X X &fbdbdX u ad(.(.(.(.(.(.(.(.(.HeHe&fqfHe(.(.(.u bdX<@.L{rfsfrfR80f0fEbM{~(H/j^X>M{j^c'c}Ge(.(.bd&f&f0d@.@$}c&4}c13$$U.5{M:f&tfuf- # ' & +   {.>:5e5ep=vfwf",
"[   .   [ [ @ & ! ! k 7_y+P a_a_a_xfa_w+a_w+Ge0dbdX<M M (.(.(.&f&f(.(.&f&f&f(.&fX<&f(.(.&f&f(.M (.(.0dyfLb^>31-=Jb-=8_S5S5z7S5`(`(`(i&P (.(.(.(.(.&f&fxfw+Y y+@$t u 3{<.zfAfBf[ [ Cf{ @ d _ # DfEfFfGfHf",
"[ [   [ [ [ ! i [ ~ [ 4.*=@$X Ge0dX<(.a_xf(.X<xf(.u+M M 8 (.(.&f&f&f&f&f(.(.(.(.(.&f&f&f&f&fa_M (.0d&fw+I_@$}c&4&4}c&4&4}c}c*=&4}cy+w+X<(.(.(.(.(.&f&f(.a_&fa_s 7_j < +$x++$D [ B _   _ q _ _ d.p=(!EfIf",
"[ [   [ [ [ [ > [   [ M$8 9 D G)8 8 u 0da_(.&f(.M M F +$J (.&f(.(.(.(.&f&f(.(.(.(.(.(.&f(.(.&f&f(.0d0d&f&f0dGe@.&4*=}c&4}c*=E-Z.xfa_&fX<(.8 (.(.&f&f&f0dX<*=*=0@} < [ < < D [ _ _ [ Ffd _ q JfKfEfLfd.Mf",
"[ ! @   [ [ ! ) < < # @ [ [ [ D J w%J J u M X M $.J = [   $.a_a_M a_(.M a_a_(.(.M a_0d0d(.a_a_xfa_8 &f&f0da_&fa_Y @$@$P Z.w+a_a_a_(.8 0du Jc(.(.0d0dw+N$8 N$N$3+< ~ > < [ @ ~ _ _ ! NfD_[ EfOfPfQfm=5_q ",
"# % @ @ [   % @ > # . , ) !   . $ , < > ) } D.E ' E ) [ > w%3+$.}.w%J u }.M $.} J 3+}.:#w%}.M a_a_a_Ge0da_a_X u+Gea_3{3{u M (.8 8 M M }.E < +$w%P~} - 9 - - j > . . ~ [ @ . . v)d Rf~.@ I=q Sfn>Tf5_Uf`.",
"  . . ' ! . ' . !   . , . @ @ . ; , # , . ! . [ . @ . @ ! E ' E - - $ k 3+3{+$> % D E k j 9 }.X 8 M 8 u+(.8 M $.3{a@D k } 3{9 J G)J 9 ' ; @ ) . + D < @ ~ .     . % . @ ! lf. mfK:VfWfXfYfZfF_`f`. g{ .g",
"  . ' @ [   . ' ! # @ . % # [ . . @ # ! ' .   # @ , ; [ > % , @ [ % % j - > ) % % [ > , M$@ k J G)k E k - ' - < > j , % > - k ) > > $ , @ ! @ , ) ) [ > . % [ ! @ . % _ Cf+g. @gC @ J=5e#g$g%gWf&gOf*g=g",
"# @ . # [ [ % ; # # # .   [ [ @ . [ [ [ ; ; [ [ ! . ! [ [ ! % # [ # % % [ [ # % A%[ [ ; ' ! [ < ) > [ [ ! ;   [ [ ; A%# [ % , @ [ [ ! ; ! [ < ) + [ [   . % [ [ (+' # d q 5emfd.(!-gq>;g_ ;=>gd.,g'gn)d "};
