/* XPM */
static char *exit[] = {
/* columns rows colors chars-per-pixel */
"100 100 256 2 ",
"   c #042C53",
".  c #0A345A",
"X  c #15395C",
"o  c #0C3C65",
"O  c #0D3E6B",
"+  c #063664",
"@  c #143E66",
"#  c #123E71",
"$  c #0B3E72",
"%  c #0D416B",
"&  c #0E4066",
"*  c #12426D",
"=  c #1A436B",
"-  c #0D4274",
";  c #0C4579",
":  c #134474",
">  c #14457A",
",  c #144A7C",
"<  c #1C4B7C",
"1  c #194776",
"2  c #16537D",
"3  c #244868",
"4  c #234D79",
"5  c #2A547B",
"6  c #365A7A",
"7  c #31506B",
"8  c #3E607E",
"9  c #4B637C",
"0  c #0B4B83",
"q  c #144B83",
"w  c #1B4D83",
"e  c #174B85",
"r  c #09588B",
"t  c #1C5284",
"y  c #1C528B",
"u  c #16588A",
"i  c #0B5D93",
"p  c #1A5B94",
"a  c #214E83",
"s  c #214E88",
"d  c #22548B",
"f  c #255689",
"g  c #245B93",
"h  c #295D94",
"j  c #275C97",
"k  c #365D86",
"l  c #0A689B",
"z  c #186799",
"x  c #1A739C",
"c  c #1B628D",
"v  c #24639B",
"b  c #2B639B",
"n  c #2C6A9D",
"m  c #276697",
"M  c #326B9D",
"N  c #356899",
"B  c #27739A",
"V  c #37769A",
"C  c #32688A",
"Z  c #096CA4",
"A  c #176CA3",
"S  c #0B74AA",
"D  c #1877A8",
"F  c #177BB3",
"G  c #0D7BB4",
"H  c #2C6CA2",
"J  c #2668A4",
"K  c #346CA2",
"L  c #386EA4",
"P  c #2473A3",
"I  c #2C7CAB",
"U  c #2877A7",
"Y  c #3472A4",
"T  c #3A73A4",
"R  c #3B75AA",
"E  c #3D7AAC",
"W  c #3578A9",
"Q  c #3A7DB3",
"!  c #257BB2",
"~  c #2A5FA0",
"^  c #4E718F",
"/  c #437CAD",
"(  c #497BA6",
")  c #427DB2",
"_  c #557DA3",
"`  c #607D91",
"'  c #1C83AD",
"]  c #1A86B7",
"[  c #0E81B3",
"{  c #2683AB",
"}  c #3785AC",
"|  c #2788B6",
" . c #3888B6",
".. c #2B92B9",
"X. c #3894BA",
"o. c #3892AD",
"O. c #58819C",
"+. c #6D869B",
"@. c #4788AB",
"#. c #5688A9",
"$. c #4483B4",
"%. c #4A84B3",
"&. c #4D8BBB",
"*. c #4789B7",
"=. c #548CB4",
"-. c #4995BA",
";. c #5795BB",
":. c #5193AB",
">. c #6699B8",
",. c #7292AC",
"<. c #51A1BB",
"1. c #6AA3BC",
"2. c #77A6BB",
"3. c #2A97C6",
"4. c #3899C5",
"5. c #2D90C7",
"6. c #3AA3CF",
"7. c #1B8EC4",
"8. c #4997C5",
"9. c #5494C3",
"0. c #589AC7",
"q. c #5093CA",
"w. c #629DC7",
"e. c #48A4CA",
"r. c #58A6C9",
"t. c #47A9D4",
"y. c #58AAD4",
"u. c #5AB4D8",
"i. c #4FB2D6",
"p. c #67A7C9",
"a. c #76ABC7",
"s. c #69B4CC",
"d. c #78B4CC",
"f. c #67AAD4",
"g. c #73ADD6",
"h. c #67B6D9",
"j. c #74B3D4",
"k. c #7CBCDB",
"l. c #78B7D8",
"z. c #56B9E3",
"x. c #4EBBE4",
"c. c #69BCE2",
"v. c #78BBE2",
"b. c #5E9DE6",
"n. c #79C4DB",
"m. c #69C3DC",
"M. c #5DC1E6",
"N. c #69C6E6",
"B. c #78C6E6",
"V. c #78D1EE",
"C. c #859BAE",
"Z. c #86A5B9",
"A. c #93AABA",
"S. c #A2B4BF",
"D. c #87ACC5",
"F. c #87B7CA",
"G. c #97B8C9",
"H. c #83BCDC",
"J. c #86BBD5",
"K. c #94B6CC",
"L. c #A5BAC8",
"P. c #A2B9D1",
"I. c #81BDE4",
"U. c #87C5DB",
"Y. c #96C6D9",
"T. c #97CBD7",
"R. c #A6C8D9",
"E. c #B7CBD6",
"W. c #A8D2DD",
"Q. c #B7D3DE",
"!. c #ADC3CC",
"~. c #87C8E5",
"^. c #95CBE2",
"/. c #9BCBE2",
"(. c #94CBE7",
"). c #87D3E9",
"_. c #99D4E8",
"`. c #89D8F4",
"'. c #98DAF2",
"]. c #87CBF1",
"[. c #A3CEE2",
"{. c #A4D3E4",
"}. c #ABD4E4",
"|. c #ADDBEB",
" X c #A6D8E9",
".X c #B3DDED",
"XX c #BCDEEA",
"oX c #B7D8E5",
"OX c #ABDDF1",
"+X c #B6DEF2",
"@X c #99E3F6",
"#X c #8FE1F1",
"$X c #BBE2ED",
"%X c #B6E3ED",
"&X c #A9E6F6",
"*X c #B5E3F4",
"=X c #BBE4F4",
"-X c #B9E6F9",
";X c #BDE9FA",
":X c #B8E8F6",
">X c #ABE9F3",
",X c #C5D4DD",
"<X c #C4CED8",
"1X c #C5DCE7",
"2X c #D2DDE3",
"3X c #C5E3EC",
"4X c #CCE4EC",
"5X c #C8E5EA",
"6X c #D6E7EC",
"7X c #C2E5F5",
"8X c #CAE6F4",
"9X c #C4EAF5",
"0X c #CCEBF5",
"qX c #C2E6F9",
"wX c #C4EBFA",
"eX c #CBECFA",
"rX c #CBE7F8",
"tX c #D4ECF4",
"yX c #DBEDF3",
"uX c #D3EEFA",
"iX c #D8ECF8",
"pX c #CAF2FC",
"aX c #DCF1F6",
"sX c #D4F3FC",
"dX c #DCF4FB",
"fX c #DDFAFE",
"gX c #D5F4F8",
"hX c #EDEDED",
"jX c #E6EAE9",
"kX c #F1EEED",
"lX c #F1ECE6",
"zX c #EDF1EE",
"xX c #E5F1EE",
"cX c #F3F1EE",
"vX c #F9F3EC",
"bX c #E3EEF2",
"nX c #ECEEF1",
"mX c #E5EFF8",
"MX c #F2EEF2",
"NX c #F8EFF5",
"BX c #E4F2F5",
"VX c #ECF3F4",
"CX c #E4F4FA",
"ZX c #EBF5FA",
"AX c #E4FAFD",
"SX c #ECFBFC",
"DX c #ECF9F4",
"FX c #F3F4F3",
"GX c #F9F6F5",
"HX c #F5F9F6",
"JX c #FBF9F5",
"KX c #F4F6F9",
"LX c #F9F6F9",
"PX c #F4FBFC",
"IX c #FCFCFC",
"UX c #E1DFDE",
/* pixels */
"HXhXzXFXLXDXMXlXxXAXBXkXMXFXKXnXjXVXLXGXkXkXcXHXhXcXlXGXKXcXcXcXIXkXnXMXLXKXVXjXzXGXLXhXlXhXGXjXDXzXvXHXnXMXnXPXBXMXnXVXLXVXhXjXVXHXcXcXhXGXFXnXhXkXIXMXVXzXlXcXzXzXkXIXFXhXnXVXKX6X$XfXcXHXzXzXVXLXkXjX",
"IXFXhXHXIXIXnXMXAXXXyXFXMXIXKXFXVXHXIXKXzXzXIXIXGXxXDXHXIXVXjXGXIXHXnXFXIXIXKXzXKXIXIXVXzXHXIXKXjXzXJXPXDXkXLXPXZXMXkXGXIXKXcXkXIXIXcXhXFXIXIXzXFXHXIXGXhXxXJXIXcXzXGXIXGXVXnXDXCXoX2.W.PXHXVXhXHXIXIXFX",
"IXIXMXIXIXIXcXCXY.a.7XDXLXIXIXGXvXHXIXIXDXKXIXIXIXxXPXPXIXPXVXIXIXIXLXKXIXIXIXFXHXIXIXHXHXIXIXSXbXHXJXIXHXcXIXIXLXGXFXIXIXGXcXGXIXIXGXFXPXIXIXHXGXIXIXGXjXDXPXIXJXvXHXIXIXHXMXSXgXU.s.:.tXIXFXDXIXIXIXGX",
"IXIXGXIXIXIXJX$X;.h./.aXIXIXIXIXJXIXIXIXLXIXIXIXIXIXPXKXIXPXKXPXIXIXIXKXIXIXIXIXIXIXIXIXIXIXKXSXfXIXJXIXJXJXIXKXKXIXGXIXIXJXFXIXIXIXIXLXIXPXIXKXIXIXIXIXjXY..XDXIXHXIXHXIXGXIXPX_.m.N.<.W.IXFXHXIXIXIXLX",
"IXIXHXLXIXIXDX XB.m.a.3XIXIXHXHXJXJXJXJXFXGXIXIXIXAX5XDXIXDXPXIXIXGXcXGXIXJXJXFXHXJXIXPXDXQ.F.T.=XSXJXIXIXvXIXSXPXIXKXIXKXIXPXPXIXIXHXKXIXIXC.9 Z.E.yX1XO.c B :.W.AXaXPXIXHXGXDX2.m.V.B.{.PXFXVXIXIXIXMX",
"LXFXcXHXIXIXCX_.V.B.n.G.PXIXDXjXxXHXIXIXVXSXIXPXoX:.@.>.W.bX2XE.ZXGXlXzXJXvXkXcXDXaXgXW.<.B B x :.tXIXGXhXBXPXG.` A.6X2X` +.Q.6XKXIXPXVXA.` 3 . . 3 6 5 1 x x r C #.` BXKX6XMXjXA.).V.@X[.DXzXhXLXIXHXhX",
"VXhXkXnXLXFXyXY.@X)._. XhXFXbXbXBXAX5X0XrXF.W. XV x x x 1 9 6 X ^ bXIXZXIXHXhXBXZ.@.B x ' ' ' U B G.JXGXAXSX5X7   X 7 7 . @ 1 4 ` E.1X,.X . : O : 1 + % 2 x x c z f o ,.AXjXFXBX%X).'.OXU.DXzXjXhXHXkXhX",
"HXhXhXhXGXFXsX~.@X>X@XwXMXDXBXCXSXW.@.@.@.m B W x D S B : o * > o ^ L.oXL.1XAXZ.= x ' x ' ' | l z ^ SXPX3XG.^ & & @ @ # 4 f g g w a a = a 4 : O * * * * * c 2 ; A u - 1 P.SXnXuX>X#X>X`.~.aXVXjXVXIXFXMX",
"IXcXhXnXHXIXpX~.@X>X`.%XcXIXtXa.1.V D { D ' | W c A F c - ; - - - o @ 6 X 6 ^ 2 c D { U D U U z m & K.+.C 1 . 2 , : q q e t v J I U n M m u y w 0 - * * % * & : m , ; # ^ SXnXAXT.#X>X`.B.BXGXhXHXIXLXMX",
"PXJXcXSXCXGX0X).).#Xn.3XzXIXT.z ! D { ! { D  .b , u z 2 , % + % * 1 e 1 ; , + u c D P I c B P c g y u O b u > , 0 2 u u C Z.r.Z ..u.u.h.c.' B f p 0 o @ o o o * f O O - ^ dXcXPX^.B.m.B.~.AXIXDXIXIXIXFX",
"IXGXJXPXPXGXtXp.<.M.n.gXHXIX2.S ' { ' { ' {  .q $ u u * t % & % O > a 4 % , * , u ! x { u u P u h t y : V l z c i x D 8.9XSX~.Z 4.m.s.n.N.{ p.C.j y ; % o . . % 4 O O O ^ mXGXSX}.N.e.o.;.fXIXPXVXPXIXIX",
"IXIXMXSXSXIXgX} 4.i.~.aXHXHX#.D ' ' { { ' { | : o 2 2 % 1 o % & % 1 a 1 * 1 * : c ' Z U r r P u f # 3 G.p.l | l l [ G -.gXPXd.Z e.n.r._.V.! d.gX=.y t t : % o % * O % O 4 4XBXKX9XN.6.P ^ SXDXBX1XZXPXFX",
"IXNXKXXX1XHXaX=.3.6./.BXGX6XC ' ' ' { { { | P : o 1 * & : o o % O : : > - < < t x S Z A l i z ; 3 ^ Q.IX1.[ ..l S [ S 6.fXzX1.S r.U.s.>X`.{ J.IXR.k j y < 1 % o & & o * . ` 6XLXaXh.3.U >.IXnXyX!.DXGXFX",
"VXMXCXW.%XDXBXs.3.8.|.PXPXD.- x ' ' ' { ' { P - o : % & * % @ O O O # q q < a w x ] D A i l p ^ L.bXKXLXm.' ..S S [ S e.tXUXj.S o.n.s.'.N.l D.JXbX` g y w w : * o o o * * X ^ jXSXs.3.! G.IXhXmXE.xXvXzX",
"DXVXdXY.%XBXZX Xi.r.3XVXAX^ - x x I !  .{ | n % o * * % o O % , : : w u e 4 < C } ] D F Z A &.0XPXzXVXJXT.u.N.l [ S S t.dXIX~.S } J.l./.t.D K.GXmX6XZ.( m w e < : O O % * @ o E.IXJ.8.0.1XGXMXDXBXKXVXFX",
"PXzXdXT.oXKXVX9Xr.d.KXDXoX2 ; C , B P } { n H O % O O % - , q 0 t t d w 2 3 D.uXn.4.Z 3.S F l.dXhXcXJXIX>XV.V.x [ S G e.AXIX^.S -.[.U.{.6.D R.LXjXLXLXqXf.K e s w < 4 < O * + C.IX0X-.;.yXIXFXZXDXIXGXhX",
"IXjXbX=XtXIXHXyXs.%XIXPX,.$ ; 5 & x B P U u W : > : : 1 < c x { x 0 2 2 = L.IXSX_.8.F 6.F ] k.ZXGXJXIXIX}.X.e.D G Z A <.AXIX XD <.W.U.:X6.x W.JXPXGXJXaXB.9.j j f d s a 1 #   ` IXPXU.d.PXIXPX5XaXIXJXFX",
"IXFXKXSXDXIXGXZXwXgXIX,X3 - & * . m m c B t } t < < w w e { 4.t.t.B V :.L.IXIXHXJ.5.| t.4.] j.PXIXKXIXIX+X..{ G G Z Z ;.BXIX%Xo.a.Q.A.gXm.{ oXJXJXJXJXBXv.4.z A b H d a a e o 3 E.IXtXtXPXIXDXZ.Y.PXIXHX",
"IXHXHXIXLXIXGXDXZXBXIXC.. & & o . m c 2 n ; } g w < w w w 5.X.i.N.k.4.T.IXIXLXIX2.G | y.i.{ a.LXZXPXIXIX3X| F F S Z Z =.BXIX5X<.G.6X!.CX).{ 1XJXvXJXIXCXq.| J  .Y J j d y t 1   +.IXjXKXDXIXtXl.Y.SXIXKX",
"IXzXVXVXIXGXhXhXBXZXAX9 . + o o o m f 2 n - } t > < a w w ..' i.N.n.<.).IXIXkXLXd.G F | t.! 1.DXbXKXIXIX1X5.] G S S S #.BXJX:X1.W.aXoXbX).o.5XHXcXJXIXCX} D 7.z.q.J J t w y 5 : 8 ZXCXbXPXIXtX@X#XCXIXkX",
"KXVXVXmXIXhXhXhXhXPXE.@ o @ O O o M f u n - } < - t w a 4 x ' M.m.U.e. XSXFXhXGXY.D D A 4.{ Y.6X,XDXKXJX5Xe.| G S S S V BXcX9Xd.$XyX6XVXV.-.tXVXcXcXLXCX*.F A 6.r.J J g e y a < = L.SXAXKXcX4X).B.aXzXhX",
"LXhXbX1XZXKXVXcXhXZXO.. * O o O : V h m n , @.h < a w 1 6 { ' N.#X~.<.|.LXHXhXFXW.D D l } 8.wX5X<XDXFXJX5Xi.| G F S Z ;.DXvX5XU.5XDXjXbXn.e.mXVXkXcXGXSX;.F A ..8.H j s w y w - : 8 C.+.ZXJXaXs.-.BXcXcX",
"IXVXdXG.4XPXzXjXSXG.= O o o o 1 4 K g t h w } d w t : 5 $Xs.' V.#X_.<.|.IXIXFXkXXXU z D X.k.AXDXyXKXKXIX6Xr...G [ S D k.IXGXtXT.yXIXDXDXn.:.SXVXhXHXIXPXp.D A A *.f.K._ t y t , * = = . <XIXaXa.1.SXGXGX",
"IXIXdXT.3XHXBXSXL.3 = O O O : a < K b e t s K s w < 5 !.IX1.l M.).{.<.%XIXIXKXGX5Xn z X.r.{.PXPXVXKXIXIXBXm.4.[ 3.Z F n.IXIXaXJ.6XIXvXHXn.-.IXGXFXIXIXIXd.x J F -._.IX4Xk q d a : # < o A.IXPXY.T.IXGXHX",
"IXIXiX_.9XHXCXtX7 + : o # 1 < a 1 K g w e e w s a a 2.IXIXa.l t.m.%XX.5XJXPXHXIXZX=.m 8.h.8XIXIXIXIXIXIXDXm.6.F 3.G ] ~.PXIXSXd.tXIXGXJX_.<.IXIXIXIXIXIXY.z H X.s.;XIXIX2.1 s a 4 # # # C.IXIXtX4XIXIXIX",
"IXIXpXd.=XIXZXZ.o > * @ # a a w w / m q y e e s d N 3XIXJXF.D e.n.$Xo.1XIXPXKXcXSXJ.Y i.k.dXIXIXcXGXIXIXSXn.4.] 6.F | ).IXGXAX[.BXIXGXJX_.d.IXDXKXIXIXIXF.u W t.h.tXvXIX1Xf w 4 4 > ; # ,.IXGXCXPXIXIXKX",
"GXFXgXT.dXLXBX^ + O * # # 4 s ~ j Q K J ~ J z i l N 6XGXIXF.D 4.U.5Xs.oXoXIXDXlXGX_.8.y.J.SXIXHXhXhXKXIXDXs.5.] x.6.F J.IXFXBX{.aXJXMXKX%XW.JX1XQ.JXPXGX}.B W y.U.CXcXIXSX_ e w 4 1 $ q 6 bXVXjXGXIXKXzX",
"FXkXBXoXZXNX6X6 O * : - w a j J J J z j ~ ! D Z A ( bXHXIXK.D e.T.5Xm.%XT.DXzXhXkX^.e.i.T.PXHXFXhXhXLXKXDX:.[ 5.z.e.D d.GXzXZXW.bXIXnXVX5X,XJXoXY.JXVXcXsX0.I f.^.DXMXcXIXP.e y a < e d @ A.PXjXhXHXVXcX",
"cXzXBXCXKXIX,X@ % : O < w a ~ J J N p.;. .D | S D l.BXVXIXT.D V.9X6Xp.H.F.VXzXhXzXW.u.h.XXFXLXnXhXhXGXLXVX@.] F 6.e.F a.JXzXDXQ.BXGXMXnX6XaXLX.Xp.6XHXcXsXh.$.h.}.KXkXlXVX8XN d w 5 s d 1 7 4XDXhXGXDXkX",
"GXFXFXSXKXIX!.o - % : t w g J J g K.AX~.e.G 4.l D n.AXPXIXW.{ B.5X6Xr.o.n.xXGXjXHX%Xk.~.0XLXIXFXFXFXIXIXZX;.] A ..t.D Y.IXGXFXoXZXIXGXMXKXPXLX+X} G.IXcXBXl.e.s.7XkXFXJXLXAXa.j p a a a f   +.ZXVXFXKXhX",
"IXIXGXGXHXIXA.. : O < e a j J j L ZXKXB.5.] t.D ] ~.SXPXIX3Xo.n.4XSX8.F ).tXLXkXIX9XU._.ZXIXIXIXGXHXIXIXIX1.F D D 8.} XXIXGXGXyXIXIXLXLXIXIXKX=XX.@.PXJXVXH.u.s.bXGXIXJXGXSXE.b ~ w a w a o 3 6XDX,XIXFX",
"IXIXHXIXHXPX^ . > < w y g ( a.1 D.IXSX1.| | i.6.{ U.PXZXIXyX..).DXPXr.F `.=XIXHXPXyX1.{.IXIXIXIXLXIXIXIXIXp.F D z 5.r.aXIXIXIXIXIXIXIXLXIXIXaX>X4.D iXIXIXU.h.H.KXLXIXJXJXIXZX( j d a a w : X <XIXbXIXIX",
"IXHXhXFXPXA.X % e a d J b W.PX,.4XIXPX#.D 7.z.y.{ d.DXDXvXgXo.n.BXSXi.D `._.HXGXPXKXD.oXGXJXIXIXFXGXIXIXIXF.F A l  .l.ZXIXIXGXHXIXIXIXkXIXIX3X'.i.l W.PXVX[.v.}.LXGXIXIXIXcXIXD.j j w w s 1   S.IXIXIXFX",
"IXzXhXHXtX7 . 1 w a j J H 9XIXBXnXGXPX;.F S 8.0.I d.SXDXDXgX..1.PXgX..| ~.).BXkXVXIX3XtXkXvXIXHXhXFXIXLXGXJ.D A P 8.^.LXHXGXhXnXIXIXGXhXGXIX%Xn.s.Z U.PXnXQ.B.7XFXyXBXIXGXjXcX6X~ ~ y e s <   C.IXHXGXFX",
"LXBXzXIXK.. * t w w g J P }.IXzXkXkXPXw.F A I 8.U Y.SXDXDXxX..s.PX X[ ..~.U.6XMXhXGXtXBXlXhXKXzXhXhXGXFXGXY.z P o.y.XXGXKXMXnXnXMXLXhXhXhXGX{.).s.S p.CXGXQ.p.4XvX2X,XIXzXhXhXKX,.~ p t a w . 9 KXHXFXjX",
"HXkXkXfX( . = t w w h A [ k.SXlXFXhXIXg.D J A ..-.1XVXVXcXBXo.n.PXU.] X._.n.5XMXhXLXKXhXhXcXHXFXMXnXGXKXJXP.l U e.h.5XGXIXFXkXnXHXLXhXhXhXKX^.~.s.S e.tXGX4X>.yXGXjXjXLXcXkXhXJXoX~ ~ w a d   ,.DXKXKXhX",
"HXFXvX1Xf o : a w w j P ] u.fXvXlXVXIXF.z J A ..p.6XHXLXIXZX:.~.DXs.] 8.&X`.7XMXZXIXIXMXhXIXIXLXhXFXIXIXIXQ.P U r.l.6XIXIXKXhXzXIXIXHXhXHXDX'.'.B.[ 6.Q.JXtXW.PXkXjXIXIXHXhXhXGXSX#.j a a a @ E.LXKXPXVX",
"IXGXGXK.: : 1 a w d H 8.] e.3XJXzXHXIXY.A H ! 8.^.DXIXIXIXPXs._.gXX.7.e.&X@XoXFXIXIXIXLXFXIXIXIXVXGXIXIXIXtX .U y.B.SXIXIXIXHXIXIXIXIXGXIXCX_.@X).] ..U.IXBX3XIXJXFXIXIXIXHXGXGXIXP.f 5 w s 4 2XIXIXIXGX",
"IXIXPX,.# * 4 w w y L h.3.3.U.IXHXFXPXY.l I 8.u.=XPXIXPXIXIXT.%XW...3.e.'.`.R.IXIXIXIXLXIXIXIXIXIXLXIXIXIXBXr.} r.^.PXIXIXIXLXIXIXIXIXGXIXyX).@X~.3.3.r.PXPXAXPXIXGXIXIXIXHXIXIXIXtXG.D.a a @ L.IXIXIXIX",
"IXIXyXC O # 4 a w g %.B.....1.SXzXPXHXW.B W e.n.0XKXPXIXIXJXQ.7XU...7.s.~.].Y.HXLXIXIXFXFXIXIXIXFXGXIXIXJXBXl.-.p.{.LXIXIXLXMXLXIXIXHXFXIX6Xn.).U...3.4.0XKXIXIXvXcXLXIXIXGXMXJXIXZXZXiX^ e = ` IXIXIXFX",
"GXcX1Xf * # : 4 t m 9.].{ 3.<.gXxXVXPXiX-.U y.U.yXcXFXKXPXcX6X0X1.] ] m.n.V.H.zXGXIXLXnXhXHXIXHXhXcXHXIXFXzXk.e.h.$XvXKXIXHXhXhXIXIXFXhXJX1Xm.m.)...] | |.KXSXIXkXcXHXIXGXhXkXGXKXDXjXSX2.> # 6 BXIXGXhX",
"zXHXR.a : # , > &.;.r.~.o.3.| *XDXyXCXiXp.8.N.Y.DXlXhXmXzXhXVXtXo.6.] n.v.~.j.VXMXGXFXjXhXzXHXkXhXjXFXKXzXcXH.u.h.4XhXFXHXhXkXjXkXHXjXjXcXQ.h.N.U.4.3...U.HXzXKXNXcXFXHXhXjXhXDXZXhXcXHX[.w s X Q.IXkXcX",
"FXHXK.q * < < f ~.].c.~.r.6.4.(.SXfXZXCXg.y.u.}.HXlXFXSXDXhXGX4X4.6...U.m.B.s.xXMXHXMXjXhXFXIXFXhXhXHXIXzXcX~.u.k.yXUXHXIXMXhXhXGXIXhXhXGXW.u.N.B.r.3.3.n.xXcXPXMXjXVXGXFXhXhXBXmXZXkXSXW.h d o A.IXcXkX",
"GXHXa.> * : : / B.N.N.(.<.t.x.k.CXaXSXSXj.e.s.0XGXVXKXHXPXzXzX}.i.u.6.^.h.V.r.xXGXIXLXkXzXKXIXPXnXVXIXIXvXjX(.h.^.FXvXGXIXGXhXHXIXIXFXhXIXR.u.N.n.s.6.x.m.6XJXIXGXlXMXIXJXVXmXDXtXKXlXHXY.v g # ` IXGXMX",
"IXIX1.> X * : ;.V.x.N._.p.X.N.h.dXSXDXSXn.h.d.ZXIXgXPXcXPXGXcX(.u.h.-./.N.~.0.aXGXIXIXHXGXIXPX8XyXKXIXIXGXGX{.v.XXIXFXIXIXIXFXLXIXIXIXzXJXU.u.V.U.d.4.u.s.5XHXIXLXFXIXGXJXSXAXZX[.KXcXHXn.P ~ e 6 ZXIXHX",
"LXIX>.> & o f j.N.i.V.~.j.I V.r.0XPXDXSXU.c.{.PXPX2.P.IXHXIXJXn.h.t.}  XB.B.X.uXIXIXIXIXHXLXIX!.1XIXIXIXIXIX|.h.4XIXLXIXIXIX2X6XIXJXIXHXJXn.t.V.).F.' N.r.Q.PXIXIXPXBXDXJXSXSXdXJ.tXIXFXh. .j y 3 ,XIXIX",
"IXIX>.> & + W n.N.6.M.T.U.l i.e.%XPXKXIXY.I.7XPXgXV p.SXHXJX6Xj.`.8.*.'.V.~...8XIXIXIXFXjXFXIX!.2XIXIXIXIXHX|.:.yXvXFXIXIXIXR.Z.PXIXFXzXIXl.6.#XU.Y.D V.e.U.PXHXIXgX#.R.IXAXZXgXl.%XSXbXs.z.J j : L.IXGX",
"LXFX#., X + -.B.u.' ..Y._.x { 4._.SXBXKX[.l.8XPXT.{ ~.9XIXFX4Xf.`.F ;. XV.n.| =XGXIXIXFXhXMXIXSXbXVXIXIXhXFX1X1.BXcXxXJXIXPXG.:.6XIXhXzXHXu.4.`.~.W.z z.e.J.PXvXVX8X} s.SXgXCXtXU./.PX4Xe.t.z ~ > Z.IXhX",
"HXnX#.> & 1 r.V.X.l x T.;X{ z | U.fXQ.DXT.;.aXAX:.e.`..XVXFX1Xq.8.l 1.|.).n.' $XzXFXhXhXMXzXKXVXVXjXDXHXzXkXtX[.VXnXxXcXvXKX2.s.W.GXzXzXDXr...'._.oXc ..4.k.SXcXyXOXs.o.0XfXaXtX[.K.PXQ.X.' u n q ,.PXhX",
"HXmX( ; X 2 h.B.{ l z }.pX{ x ..n.gXW.fXW.F.SX6Xo.B.T.{.mXDX|. .I i a.7X).^...}.HXkXjXMXVXFXGXKXhXhXLXHXMXvX6X1XFXhXxXcXIX6X:.V.W.DXFXzXxXr.e.@X(.3Xx z } f.AXJXtXT.).{ U.DXaXaXoXd.PX%X| l i m w ,.IXMX",
"IXnX( $ . n B.B.x x B .XsXW x | h.0XW.SX9X|.IXtXX.*X0X XtXLX X .J l F.CX X&Xi.R.HXIXIXFXFXLXIXIXzXMXIXIXVXkXVXCXJXzXzXGXIX,XC V.>XAXFXzXzXr.).&X.XtX{ l I h.fXIX7XT.*Xs.2.HX0XgX9Xp.AXW...i B f y ,.IXhX",
"IXbXb $ & u ;.h.' x x .XyX .i F -.Q.Q.HXgXtXIX4X} oXIX%X8XPX'.8.z Z F.IX*X&X`.|.IXIXIXFXFXIXIXIXGXLXIXIXIXcXIXPXGXHXKXIXIX!.C M.).yXIXFXDX~.&X>XpXPX{ r } h.gXJX%X:XPX1.s.IX$X)._.e.fXa.[ r @.C e ,.IXVX",
"IX6Xf @ @ Y r.s.5.D { W.5X=.i l } U. X4XAXfXJXQ.{ d.DX X XDXf.q.z l Y.PX9XOX#X$XIXIXIXKXLXIXIXIXIXGXIXIXIXGXIXIXIXHXHXIXIX!.C `.N.W.IXvXcX#X@X%XAXAX} x r.q. XAX XgXSX-.a.PX>Xs.u.e.;X@.Z i -.V e D.IXGX",
"IXQ.1 o % W s.u.4.A }  XpX;.i u { h.u./.AXgXDX$Xx e.;X#XU.$X} 9.v r Y.PX0X&Xi.R.IXIXIXSXKXLXIXIXFXHXIXIXIXFXIXIXIXKXvXGXIXL.x #Xh.U.DXkXcXu.).$XBXCXo.r 8. .d.%XU.=X:X{ 1.fX_.N.i.4._.{ r i a.V $ K.IXVX",
"IXK.# O % u | t.3.S P _.=X0.8.m B e.t.~.fXW.5XW.' X._.>X~.R. .U U r R.BX$X_.X.oXHXPXSX6XbXGXIXFXhXFXLXIXFXhXFXLXIXcXcXKXIXG.B n...r.8XjXJXs.s.:X5XCX$.i  .A a._.~.:X~.{ a.AX@Xc.6.4.m.U 0 r U.@.+ P.IXMX",
"IXC.# o - q | 4.3.l x (.p.$.h.W z 3.3.).pXT.>Xr.' ..j.&Xh.D.8.c J 0 W.3X>X_.e.5XhXSX5X1XBXFXHXzXhXkXFXGXhXnXhXHXKXhXvXcXIXA.l <.' o.W.DXHXh.u.;XXXsX#.p v D g.a.'. Xy.] <.*X#Xx.] ] i.B 0 0 B.#.  P.IXMX",
"IX,.+ % # i | ....D } l.%.$.y.r.i 5.5.h. XT. Xe.] ' h.'.r.a.e.j y u }.=X>X_.4.5XHXgXT.$XDXDXGXzXzXhXKXLXFXkXhXIXFXhXlXhXIXL.; D ' x :.fXHXd.e.>X%XpX;., y I l.>.).).8.] -.U.h.z.G 7.5.m 0 z r./   Z.IXhX",
"IX,.+ % O J | | 4.A X.f.Q H p.l.p 5.5.c.U.2. XX.4.D h.l.m *.q.j > ;. X_.'.h.X.3XDXT.U.pXgXZXDXDXzXzXIXIXHXhXFXIXIXcXhXLXIXG.r { | D B _.IXd.4.#X^. Xn.c 0 | r.V p.B...D h.B.u.M.7.7.] p q U z @.  C.IXhX",
"IX,.+ O ; W  .4.r.z U Y J v 0.B.J 5.4.h.n.{.%XX.t.! e.9.c @.! j $ L F._.'.-...0XgXs.#X>X0XSXDXPXPXHXIXIXIXGXIXIXIXIXHXPXIXG.l } B D D 1.PXk.] V.'.U.p.; y I W W B f.| X.).B.x.z.5.G | p ; P J }   +.IXHX",
"IX,.+ $ , Q *.-.B.Q p g v n &.~.5.| q.i.u.U.gXe.I e.| Q 8.y.Q e # K ~.'.'.U 3.sX$Xm.N.).=XAXAXDXDXIXIXIXIXHXIXIXIXLX6XLXIX!.z U p x l  .SXU.S r.@X#Xw.$ e z 8.0.} X.0.r.n.N.x.i.6.[ 5.p l i ! U   C.HXKX",
"IX2.# > , H H E ).=.u n m K 9.B.i.{ 8.i.i.d.$Xr.z *...A U r.Q q : N ~.'.p. .5.R.K...u.m.:XfXDXDXDXzXIXIXHXFXHXIXIXzXS.AXIXR.m m >  .5.} oXp.4.-.U.'.>., ; J q.-.P W B.m.-.m.i.x.t.] 5.p D z ! B X L.JXvX",
"IXA.> > , b g B B.9.y b v  .8.].u.B P 4.i.m.;.| A P U p g  .J > O k U.=.*.9.r.@.>.y.N.m._.gXBXaXBXbXIXIXFXzXFXIXJXjXG.:XfXD.t b C } y.r.#.9.0.=.@.j.>.O q p 8.v @.} p.~.X.t.x.6.$.| 4.J D D F l X UXJXcX",
"IXG.> > , h v } l.g.g j I Y -.].y.c P I e.`.*.4.P I H ; n H E y + ( >.K ;.9.0.9.0.0.m.r._.gXBXaXBXVXKXFXzXzXhXGXFXjXD.{.|.#.- ( ( Y e.-.-.0.9.9./ C 1.> 0 Y W B m c ~.).t.6.i. .n A 4.J D | F A 7 DXvXhX",
"IXP.< w < h H $.l.].K b W J 0.V.l.m P I X.V.e.8.$.} W Y &.8.f.R > ( / &./ ) &.9.*.%.r.B >XfXaXBXBXbXVXHXVXjXjXGXGXFX#.1.>X=.# a.h *.f.} &.9.) R *./ #.f d r.0.8.m V >X`.y.x.4.! K z D z F F ! A ^ IXcXzX",
"IXE.4 w e ~ K E h.].%.K H U y.V.I.H I P X.c.*.m E &.$.W } *.0.9.) ~ / L d ~ L ) ) W 9.*.a.}.AXBXBXjXKXPXSXhXHXIXIXKXa.@.#X&.N =.h f.y.R ) R n y j ) N L 9.9.9.) Q -.(.f.t.t.! { m A l r A A ! A ^ KXFXhX",
"IX<X@ e w N n E h.].0.H H W r.B.`.E z J X.c.y.9.l.].v.&.V M T Y j g K d s ~ j K / E  .*.=.>.3XAXBXPXPXPXKXFXIXIXIXIXp.m ;.$.N 1 / 0.r./ L b n g j 9.9.K J L / / v -.B.u.4.6.! I z x z i A l F r 6 DXIXcX",
"IX2X3 4 w M n $.h.`.l.n H W q.N.`.*.v x  .y.v.I.v.l.g.k.f.9.&.$./ R j e K L h h K $.) R =.=.F.SXCXPXPXSXSXHXKXIXdX8Xg.*.-.9.E N L  .9.L h b h / 9.0.q.E d L 0.b.9.y.N.y.4.i.| H A A z z i p l r 3 jXIXIX",
"IXPX^ # e h b  .f.c.B.E J  .r.c.].r.v P W 8.y.h.k.I.f.f.l.g.p.g.v.v.g.9.R $.L K n E E f &.T ( oXCXBXSXSXSXCXZXAXK.>.p.r.r.0.&.) b n P M b h T 9.0.9.%.) / K ) &.$.u.c.y.F t.Q v z v p p 0 A p p . E.IXkX",
"LXIXC.# y d g  .y.y.B.&.J  .q.v.B.f.H J { } q.f.s.f.f.f.0.0.;.;.0.f.l.l./ / E L V E R h b h f w.XXZXVXBXSXSXAXQ.>.9.w.;.*.$.) 9.E 2 n w.g.&.;.f.9.) E K K L L j R z.z.t.5.t.I J Z z p i ; z i p   C.IXjX",
"MXLXL.# y g K ) 8.0.v.f.J  .8.c.r.c.Y n z W $.=.j.p.p.r.0.;.0.;.;.9.f.g.g.p.0.&.Y W @.=.V / n w.K.4XCXZX1XP.sX>.%.q.w.g.0.w.w.v.p.T ;.l.~.w.9.w.%.Y K j j K K K ) c.z.t.8.5.A J A p p z r u A p . 9 DXhX",
"LXGX<X# e f K )  .r.y.h.g W r.y.y.v.W v q K %.9.p.f.g.Y..Xl.f.g.l.H.~.g.j.l.l.g.;.*.=.g.p.9.p.g.F.P.sXPXP.` W.d.l.v.l.k.H.H.v.p.r.a.2.a.&.*.9.%.R j h ~ K H K N  .M.x.8.5.! A J z p p A 0 0 J y o = 2XHX",
"IXLX,X= y w R H W 8.f.g.K R q.q.f.c.$.y e K ) %.&.9.p./.$X/./.T.}.[.}./.[./.[.}.}.{.T.^.Y./.}.[.}.7XAXZX8X}.R.[.Y.J.H.H.J./.(.v.s.T.oX>.f ) 9./ h h f k b b N ~ q.z.t.7.J P A v z p J ! i 0 v q O . S.IX",
"IXIX2X4 q K R Y H  .f.g.R $.q.r.0.h.8.e d j K / $.&.;.a.pXfXgXfXdXCXdXuXAXAXAXmXAXAXAXuXdXdXfXfXfXCXAXmXZXCXZXCXdX7X*XeX0X9X X^.Y.sXAX>.< N %.m f f C _ M V ) 9.h.i.4.A z B P H v z U D z 0 ; o % + +.IX",
"IXIXnXk > ~ K K W Q %.T Y E $.0.q.f.&.$ K K b M Q $.&.%.a.iXAXBXZXVXKXDXAXZXZXmXBXCXZXZXSXSXCXAXAXdXCXBXZXnXSXCXSX1XR.fXdXR.F.j.[.fXdX}.T h R Y R #.XXsXl.g.H.l.c.i. .A V ;.%.) Y j n D i 0 - o o + +.IX",
"IXKXIX+.O y j L Y b d d b Y Q *.q.f.0.q ~ ~ b h H Q %.%.N D.AXCXAXbXmXmXCXBXZXbXZXZXZXmXbXCXBXBXCXCXCXCXmXmXCXAXCXtX5XaXCX8XR.J.J.5XtX/.R T  .R W p.*X9X(.(._.'.g.t.8.*.-.U.$.) H j P Z 0 0 : o # # ,.PX",
"GXVXKX2X3 < t j v y g t M R R $.$.0.f.y N h h N h K $.) R ^ |.oXiXCXaXiXAXCXiXdXCXdXdXdXmXdXBXBXbXmXdXCXdXmXdXdXdXsXaXCXCXdXdX=X}.R.G.g.%.9.g.f.f.g.j.F.l.(.-X&Xf.8.8.W r.'. .K p w g D r , o o # $ +.LX",
"cXjXhXHXA.: w w d d d e K L Y R $.&.0.y d h j ~ h h b / b N V _ oXsXsXdXuX0XuXuXuXuXuXuXuXsXsXaXiXiXiXdXiXuXsXsXsXsXiXaXdXyXuXsXsXgXXX[.(.J.H.k.j.l.d.F.J.l.H.w.&.*. .Y ~.#X| g d w w A q ; o : w # C.IX",
"vXCXhXlXIXC a s e y d j j b H Y E $.$.f e s h h g L N K j J K N a.sXoXXXsX8XuXuXuXuXuXiXiXsXsXuXuXuXuXuXuXiXiXdXgXiXiXiXyXiXuXuXsXdXgXsXeXuX=X|././.^././.~.p.=.9.$.Y &.~.f. .p j d e u > O % w e # L.LX",
"IXHXhXvXIXD.4 s 0 g E ) Y R R Y R R *.n g ) N h ( [.H.d ~ ) w.f.1.P.,.Z.uXdX8X[.}.eXuXuXtXtXtXuXeXuXuXeXiXyXrXXX7X8X=XuXsXsXiX8XeX6XgXuXdXdX|.wX=X.XpXpXwX_.9.&.$./ E q.r.-.| v g d e q : o % > e 3 E.IX",
"IXIXFXIXIX!.> ~ y T ) ) $.&.-./ b Y E R E / / g.) '.(./ / f.v.H./.|.}.oXsXwX,.w.F.R.sXuXeXtX0XgX0XuXtXrXtX0X&XI.J.H.g.J.|.sXiXtXuXuXuXeXuXqX/.+X=X3XuXuXdXF.T / E / T 8.4.{ ! H p j e # # X @ > e 6 6XIX",
"IXIXLXIXLX<X# h b T L ) ) *.0.&.Y b T K b.=./ g.>.a.~.g.J.l.J.[.-XpXpXiXuXqXT.Y.Y.}.uXeX0X0X0X0X0X0X0X0XtXeXI.H.J.f.f.w.a.H..XrXuXeXuXeXuXwX+XwXeXsXeXpXwX#.b H K %.b  .4.D  .W y g > : O @ @ w w 6 FXIX",
"IXGXnXHXIX<X4 a h R K / Q $.9.*./ v b Y w.f.w.I.U.I./.:X;X=XwXeXeXpXeX8XeXeXpXwXqXpXeXeXrX0X0X0X0X0X0X0XtX+Xp.g.g.g.g.y.b.0.>.R.sXeXeXeXeXeXeXeXuXuXpX}.>./ E R b N p  .X.D 8.K t t - % o O 1 w = ^ IXKX",
"IXhXhXMXIXbX^ # d n h K K H R $.$.$.0.f.g.H.~. XK./.+XeXpXuXuXrXeXrXrXtXuXrXwXeXpXeXeXeXeXrX0XeX0X0X0XrXsX/.9.g.g.g.p.r.b.b.d D.sXwXeXeXeXeXeX0X0XeX.X#.%.%.) ) H y q P | U ! g a > - O o 1 < < . ,.IXnX",
"FXnXhXMXMXKXP.1 e g h j j j H R E %.g.H.(.OX.X*X-X;XrX0XtXtXtX8X0XrXrXiXuX0XrX9XwXwXeXeXrX0XeXrX0XeXeXeXsXH.b.q.) b.g.b.q.8.e 2.sXeXeXeXeXeXtXtXrXpXa.@.0.$.) Q E j e p P J p w w - $ # = o . .   L.IXhX",
"GXFXjXhXLXGXBX^ q d j j j j b R %./ w._.+XwXqXwXwXwXrX8XrX0X0X8X8X0X0X0XrXrX8XrXwXrXrXrXrXeXwX8X0X0XrXrXrXp.w.$.a L f.q.Q 5.# ` sXeXeXeXrXwX7X7XeX*X( =.%.R K K K j g p u e e e e - 1 = 7 ` ` 9 +.VXGXMX",
"IXIXhXHXIXIXbXk # e g M L L K h f : ( J. XqXwXrX8XwXwX8XrXwXrXrXwX7X7X8XrX8XqXwXwX9XrX8XrXrX8X8X9XwXwX9X7Xw.b.K w j L / q.&.# _ pXwXwXwXwXwX9X8XpXJ.E R b N j j j y d e q e s s w < = = E.IXKXCXPXIXGXhX",
"IXLXGXIXIXIXmX^ + ; s N L K d # _ >.H ) a.[.XX7X7X7XqXqXwX;X;X7XwX7X7X7X7X7XqXqX7XwX7X7X9X8X7XwX9X9X9XwX.X;.b.b a d h L p.f.h D.pX7XqXqXwXwXeXF.R.;.) E h b b h j j d w q 1 < # : o X L.IXIXHXFXGXLXGXHX",
"IXLXLXIXIXIXIXD.j 0 $ : ( ) L h W.&X0.g.I.J.F.|.=X;XwX=X;XwX7X=XqX7X7X7X7XqXqXqXqX7X7X7X7X7X7X7X7X9XwXwXoXC b K g < N %.0.%.K J.pX7X7X8X;XpX{.^ N g h J H N N h j h d > $ # # s # X C.IXIXIXHXGXIXIXIXHX",
"IXLXnXLXIXIXGXXXp.&.T %.l.I.I.v.U.(._./.'. X&X-X=XwXwX;XqXqXqXqXqXqXqXqXqXqXqXqXqXqXqXqXqXqX7XqX8X;X}.a.K.k # ~ j h %.&.%./ L L .XqX9X9X+XY.j.#.) ) ) ~ K K h s < > O - e t a 4 ^ G.SXGXIXIXHXcXIXIXIXFX",
"IXzXjXGXIXGXhXCX*XD.d.~.H.I.~.(.}.*XwX;XpXpXqX7X7X7X7XqXqXqXqXqXqXqXqXqXqXqXqXqXqXqXqXqXqXqXqXqX;X;X=.b V 1 e d R $.&.*./ L R d ( wXwX9X=X/.J.H.H.v.v.g.%.w > : o O * > 1 < O +.DXHXjXlXIXHXhXhXLXIXIXFX",
"FXhXFXhXGXVXkXjXZXdX/.H.H.H.(.OXqX=X=XwXpXwX=X7X7XqX7XqX;X7X7X=XqX7X=XqX=X7X=XqX7X-X=X7X;X7XqXqX-XOX( d / K e ~ K R ) 9.K y y j 1 #.*X;X;X=XOX X/.H.I.~.H.>.%.R g . . % % % & ,XIXjXlXcXcXFXhXFXhXLXFXFX",
"HXhXhXMXHXFXMXlXMXPXrXH.(.[.*X;X-XwX=X*X=X.X.X-XqXqX.X7XwX=X=X=X=X=X=X=X=X=X=X=X-X+X=X=X=X=X7XqX;X Xa.f.g.f.*.R R b j L H g y j g w =.|.=X=XqX-X-X+X X^.H.I.H.g.p.#.7 & .   7 BXLXjXlXzXHXGXMXhXhXIXMXkX",
"IXHXhXHXIXIXFXlXGXGXCXR.~./.*X*X*X:X*XOX*XOX|.+XqX;X$X$X=X=X=X-X-X=X=X-X-X-X=X-X;X-X=X=X-X-X=X$X=X=X+X'.I.l.f.0.w.0.&.) ) T ) 9.9.9.>./.=X=X=X=X=X-X-X:XOX_.~.^.a.7X8XZ.O.O.L.IXIXHXhXFXIXIXLXzXIXIXIXFX",
"IXIXHXIXIXIXGXJXIXcXIXW.J.^..X|.+X;X=X*X:X=X;X:X=X%X$X$XXX=X=X-X-X-X-X-X=X=X=X=X=X-X-X-X-X-X*X$X=X+X-XOX(.^.H.I.I.H.I.I.H.H.J.I.H.~.OX;X=X=X=X=X=X-X-X=X*X-X*XY.R.ZXPXdXsXdXSXIXIXIXHXIXIXIXIXIXIXIXIXLX",
"IXIXHXIXIXIXIXKXIXHXIXmXXXyXSXiXXXXX7X+X*X=X-X=X$X$XgXdXtX=X-X=X=X=X=X-X-X=X=X=X=X=X=X-X=X=X-X-X=X+X+X-X-X+X|. XI.J.H.I.H.J.U.[.:X*X-X;X=XXX=X=X-X-X-X+X;XJ.J.P.6XPXIXPXPXSXIXIXIXIXIXIXIXIXHXLXIXIXIXIX",
"IXGXFXHXIXIXGXVXPXPXLXFXIXIXIXSXtX4XtXtX7X$X.X$X3XtXAXIXHX3X*X*X$X*X=X$X*X*X=X=X$X*X+X+X=X*X*X:X*XXX-X-X+X*X-X*X_.^.^./.[.OX*X*X*X=XXX+X7XeX=X=X+X+XOX}.XX}.}.5XPXcXKXPXIXFXcXIXIXGXhXHXIXIXGXVXLXIXIXFX",
"LXMXFXFXIXHXMXFXKXLXhXnXVXGXHXhXDXnXPXKXVX6X2XbXjXbXVXIXKX4X5X3X1X4XtX7X1X$X3X6XtX5X1X0X4X1X$X*X*X*X|.+X*X*X.X%X|.*X8X8X7X$X=XXXXX$X$X1XbXPXdX4X,X6XBXyXBXBXZXKXhXhXcXIXFXhXhXFXIXMXcXFXLXIXnXnXHXIXGXhX",
"HXhXhXjXGXhXjXhXGXHXhXnXhXFXFXhXkXnXLXnXhXGXhXIXhXFXhXFXGXbXjXbXBXBXDXCX5X8XdXKXMXSXbXCXZXyX1X.XXX$XXX%X=XXX$X3X8XuXSXCX6X8XyXtXiXtXyXjXkXFXVXhXzXSXPXFXcXhXHXHXhXMXhXFXGXhXhXFXHXhXhXhXHXGXhXkXhXHXFXhX",
"HXhXjXFXIXHXhXjXGXLXFXhXMXLXIXhXhXFXLXGXjXhXHXLXFXnXkXIXKXMXnXFXIXMXMXZXBXKXVXMXMXIXKXnXmXFXCXtXiXCXbXCXBXjXBXPXKXZXnXMXKXBXCXVXKXKXDXnXFXGXFXnXVXVXIXKXhXMXIXGXFXhXMXIXHXnXhXHXLXFXjXhXLXHXhXhXMXIXGXnX",
"LXFXhXLXIXIXMXkXLXLXLXhXHXIXIXFXhXIXIXIXkXkXIXIXGXhXGXIXIXGXMXLXIXLXMXMXIXIXLXMXNXIXIXkXjXGXIXPXVXKXIXIXGXkXHXIXIXkXNXLXIXMXnXFXIXIXGXkXGXIXPXVXzXIXIXHXhXMXIXIXHXjXLXIXIXhXFXIXIXLXhXFXIXIXHXhXLXIXLXnX"
};
