/* XPM */
static char *floor[] = {
/* columns rows colors chars-per-pixel */
"100 100 20 1 ",
"  c #D1DBDF",
". c #D3DEE2",
"X c #D6E2E5",
"o c #D9E3E6",
"O c #D6E5E8",
"+ c #DDE6EA",
"@ c #DEE9EC",
"# c #E1E7EB",
"$ c #E2EAEE",
"% c #E9ECEF",
"& c #E5EDF2",
"* c #E9EFF3",
"= c #E7F0F4",
"- c #EBF2F6",
"; c #EEF5F8",
": c #EFF8FB",
"> c #F1F3F7",
", c #F2F6FA",
"< c #F4F9FD",
"1 c #F9FBFE",
/* pixels */
"1,,<<<111<<<<<=&$==;;*>>1>1>%=>=::==&$$=-;:;--;;;-;;**&&+@=&-<1<--&@&-==--=:::;-=$$+$;;;---&+&-=;--;",
";*&;=;<,<,,,>;--=$=;;->>11>%%>;==&@+@===-;;**&;;;<<<::-&oO@@-:<%=--$@@=&-=&&;:,,:-=$==-=-;;-;-------",
"=$#&=&&=;>,<;&==#+$-,<11>1>>>,:%+oX+$=:,;-=&=$&-;<<<<*@@@O@@==$#&-;-$o=::<;&&-<<::;-=;=;:<<:<<-----=",
"-$#$=###&=,<=&@@$#%%<<111>>1<1<-$@+%-;,::-&&*$$-;><<:-&@@&&@@+O@$&-*&$=;<<:-$$:,;;--*=$$-::<:;-----$",
"<=##&&-===-:&&-:,%-<1<<11>>1111,;*&&,<;,<;--*&&-;;>,>---;=&&+XXO+%;*-*&*:<<-=&;;>;==--=%-;-;-;;;;:=*",
"<,;=-=,,::=$+#;<<>,1111<>%>111<>:;;-;,=;;;;<;--&$&&-*&=-;<<,:@@&-,,,,,,;-:,;;;;;;,-%;-,<;;;-=*;;-&@+",
":,;;==,,;===$$=:<<<>>11>>>11111>;>;<<-==&=;<;;;*&&*;-$*-<1<<-==-;,,;,,,;==;,;<,,>;&=;=;:-===*&&&&o#$",
"&=&=;&$$;:--;;=$$;>*>><<>11>1>>>,,;::=&@o&---,,;**->;*-;;,,,:---&*--;<;&@#=,,<<<,*=;;=#=&+@$&$&=&o&=",
"----*$#%;:;--;-&o+;;-;,>,,,>>,,*<<,<<-OOX@=,>;>>>;*--==-=,,,<,;*&.#---$##%-,<111<>,;:;=@@&&-;;=-=*=;",
":-&$+&->;:;==:;;&+--&->>,,,>***;<<,,:-OOX&-;*%**-*&&=---;,,<<,,*&#&&&&$$*-><<1111<>;-=@O&;<:;-*=---<",
";&..$-<<;;:=$,<<,*-$&;;**>>>**,>,,---=+@+-;,>--**&&&&-<:,,,<1<<>*;;-;,;=-;-<1,,,<;;*&@O.$-<,-$o$===;",
"--$o@,1<;-=+$<<<,,-*:<<<%***,,,,>,>-=&&@$-,,<1<,>,;=&&;;<,<<<11,,,;;;;---,>><<,-#%*<<:@o&-<<;=&&*=-;",
",<*$=<<,;=O+=<<,>-,>,11,*$$**>>**>>--*&#$;<,11<<<<;-&**-,,<<111,-=-;;;;-;,;-<>;*#%>11,&&---:-=-=&*:<",
"<<<-,<>>=$#@$,--><<1111,%$*,>>>***;,;-*&&-<,>-;:,,;-*%&--><<<1<>&=;;;-;--,-->>$$&&,11<;&----&@@oO*--",
",*>,,,$O+$&$&=%&*>1111,,$&>,,>>;&&;<,;;;***,,;;-->,,*#$*>,<<,1<*&&*;;*=---->;;*##*111<,;-=--;@O..#&&",
">><<<;+X@=#&==-=*<,111,,$#$>,<<<*&-;,,,<,--,,<-&$*-*$#%**,,,><,**#@&&&-----*&&*&&*1<<<<;-==--=@@#*==",
",,;--=+XO@@==---=--;;,;*X.+*<111<>-<<,,,<,<:;;&#$*-,->,,>,<>%*,*-%%***;=;;*&*;;,<-,>,>,,-----;---,,,",
">>$o+@@X@==@O+=+O@==*@o&+X@=<<<111,,,,,>;;<<<;&+-,-<,,,-,,,;&*,>>>;,,;>;;=;=;<<<<<>;;,==---&-:&&,<,>",
",;&$@@$&-;==$@@++$=$$&$=&#&=;-;<,1,,>,<>;<<<:;&&--->,<,,<,>*%*>>><<>;>>-*;;*&*,11<,**;=;:&$&$&&&,<,,",
",<-*;-;;--&@@@=====@@===<,;*&&&*><<,-,><1<<;,=---****,,,,,*%*,,>><1>>>;*=;-=$+#-<<>>**;<:&&&+&&=,,,,",
"<<<<:<<<;-O.O+&&&&@o@=:;111&.#&&>,>>,,<11<;;-=--,<,-*>,<,>>,,11>,<<<<>;**&&#==##%,>,-$;<-&&&$=&=;;,,",
"<<<:-::<<;@o&;,,----=;<<<<;##&&&-,>,,<11<>;--&-;<1,***-;>,,,,1,<;,><>*$#*=#+*,;**>%**#*<-&++@&@&*;-;",
";;-@&=-<<;=#&-<<;,,,,,,,:;&$&&&$&&$-><<<;<<-==;:,<;&##$&*,1111,,,;;*%#$&&;=&*->>,*&%*%&*;:+++#=-<;**",
";*&&&=----;&#&;,,<,<,,,;;=&&==*@$++,<<,><,=&&&;:>;,-#+#**,11,1,,,;=&=<;&#=,<;;,<,,,***&&;>-$@-<<<;**",
",;=-;=;&#&;&##&*-,-,>;;;**&&;;-&-&&<<<><<-%+&&-;;;;;=**-,,<<<<,>*&+#*;=&$#*,<<<<,,,**,,>>>,>>,<::;;-",
"*--;,;$&&;;-&&&$*,,>*&$**;;,,;-&&&=:<<<1<*$&@&;:;;;=-;*=;<<,,,,,*#+$;;==---,<<,<,,,*>,,<1,,1,,:<;-&&",
"#=;;;$+&&-:*$*-&*><,>&#%*;,<;;-&$&-<111<-*=+.@&--;*$-;;;;,,;&&-;;&#;;;=&*=;,<,,,,,,>,,,,1111,;;;;*&&",
"--;<;$$#&=;&@--=*<1<<=&&&;>>&&&&@#*-,<<>;;-@O@=&@##$-;;<-*-&#$$&&&&;,<;=*&%;*>;->>>,<,,,1111,--;:::<",
"<:<<:====-=&--;=$,<11>*,;*$%*$$%$$*-;;>,<-==@=-=&+.@==-:;-&&*--*$&&;,;;--*&&$&=&&*-;,11,,1,1**&-;<11",
"<:::---;-=@&;;;@.*><<<,,,*%&******-;--;;<;==-=---=$&&-;;-=&&-,,>$&-;;--,;,;&@==**&$-,1,1<<,>-$$-;<11",
"=&##=;::-@$=;--;$&*,>>,>>;;,<>>-*,;-==*-;;----:;-;=@&=-:<-&&-;,-;--&-->;;;-#@&-=#&--**>,,<><,**,>><,",
"-=#&--::;---@==-$%-<,,,,>>,<1<<<,,;==&&&===----==--==---:-=-,,,<<;&$&;;,*$#@$#$.O&-*->*>*;<<<;;,<;,<",
";;&==;;;,,>>*-;&%&>,,>>>;>><<<1<,,**&$##+&&*--&+$=--&=;::-::;:<<<:=+$*;,=$$%=&XX&=--;:,;-;<<<;,<,,1,",
"===;,;;<<<<<,;;=&*>,>>>>,,>>;,,,>>*%&##&*=&#---$$---@&===:::<<<<<<:=#&;,>*&&==&&-;-&;:,;-;:;&*,,,,,,",
"$*=,<<<<<11>;$%$&*>>>>,,,,>;*>,;>,,>;**-=&=&&=-=&&&*&&&@@=&=;<<<<:,;-=;,<>$;:<;-=-=-;<;;*&&&$&--,><,",
"*;;:;:<<<<<,;%==;<,>>>**;;*&*><,-,<1,,,-@O@@&*-;-**,;&@+O@@+=;<<,,;*=$*;;=#*:<:-=&&--;-&&#.#&$&*,>>,",
",:;;-;<<1<<<,;;=;<<>*>&#&-&$-:<=&-:<<,>*@X@=-><>;->,,&+@@$=$&#&-,<;;=&+&+&--;------&--&&&*$=--;;,*$&",
":,-=**:<,**>;,=;,<<%*$#%--**:<-&#&-><,-&+@@--><>,>>><*&&=-;-&o+&;<<,;#XXo&*-==---&---:-+*-=---;;;##.",
"=$==&&;>>*->,,;;<,<>*&$*:;-*::-&$*;<<>>$&&&&&-,<,--&;;;,--;;=##=;<<<=&++&;&=;,;--=---&&---;-==-;-&&&",
";;;,;*;>,<111,*=;,>,>;&&;,:----=#&->>--&&=@o$*<1;---*<<<<:;*&*=;,<<<-&==;;&-,<,;:::-&&-<;-,;--*&*&*;",
";;,,:,-%$<11<*$O$;>;,;&*:;;;*--=&&--;;----@@$*<<:==;;<<<<,>**><<,,<,;&--==&*,<,,::;;&&;,,-*,*$&&=-*,",
"==-;;--=$,11<*#@+@=;;==*-:;*;::;*---*--<<<&@&*>>=+$=;<<<<<>;&*;>;>;;=&=&$&&*><,,;;;&&;>>,;*-&+&*&-,,",
"$=;=-==-;,<<<,$$$$===*;;;<--;--;-*==*--,<<-&&=**%+OX$-<<1<<*&*>**,;-=&**$&&*,,>**;-=;<>;,,,&&**&&,<<",
"$;;;-==,:<<<<,>;;;=->;;;-::=----&&&:>,,<<;&&==;;;=OO@=-<11<;*,<>&=;;;;;>,,**,,>**;*,<<;:;----;--,,<,",
"$--:<;=-:<:::<>>>>***;;;;;-$=--&&&=:--*<,;;<<<<<,=$$&--:::;=&>,-&:;=;;-,,,*>,-*->>-,<<:<<----:,<,;=-",
"$=,---=$-;-;--;>><,;****;:;&--$@&&&---$-,<1<<;,<;;=--;:<:;;@#&&&*:<---;>;;->>-*$&&*><<:<<;;;--;<-==;",
"%$=-=%-=&@@&&&;<11<<;&&--:;-=&++=-@-,,*,<11111<<,,;:::::-@@O@OX@&-<:<:>,1,,,,-&&&*>>,-,<:;-:-&;--&*,",
"$=-;-$$$+X@+X&;,1111,&&----&&&&=:-&->,-,,<<1<111<,,<:::;==@@@@@-:;;;--><11,,>>>*>,>>>*;<<:<-&&&&$&-,",
"-;:,;&+&&+&&-==-,<<1<*$*->--**-;,,**>,>>,<<<<<11<<>1,,;-&&=-=&=-<<;&+o-,<<<,<<,<<<<>;%$;:;;=&$$=&&&-",
";,<,<,&&;---;@@$-:,<<*$*><,;---;,<,*>-**,>><,<<1<<>1,;-=+@=-===;<<<;#.+&*--,<<<<111>;$++=$+$=;:;-&#+",
";,<1,>>*-;---&&&=--:-&*,,<<<,>><<<,,**$>-*#**-:;;;&&--&$++&&====;,<;&X+&#$*;:;;<<11>*$+O@@+$=,<,-&.O",
"--,,<,><::;;;--&=---&;<>,,,,,1,<<<<<<,>****&**;;*;&o+$..&--&O$=$&*;-&&&-&&&**=&->1><<,*$==&$$,,;=&#+",
"%**>><11,<,,->,*&---&*><1,,,,<1<,<,111<>*>>*;:;-;*--$o+&=;-@X@;-&&&->-,;;*&*--$$%,<111<,<,:=$;,;-=-&",
"**$$**11,,<,-<;&+&==&#*>1,,,,,,,>,111,,,,<<;-&&*=*&-=**;;--@@-=;*$$=;>,<<;&--&.@=:<<<<<<,<>,---=$&*>",
"-**&$%&*>>,,-,;&o&**#+&;<,;--;;-*->>>,-,,<<<-$+&=*;;;;,-;==@-;;=-*&&&*,,<<=&*.#==;;;,>,,<<<>,;$+#*,1",
"<>>>*#%%&><,*;*&+++&&=;&%%&*&*-;**&$*-,,>,,<;-$#;*><<<,,-;=;;:;;<,,&&**-;;;-=&&&;$$#$$=;,,,<:-$$&-,1",
"1,,,*&*>**<>%>,-=&--==-=&&&-&&-;;-&**,,,;>,<<;-@*;;>;::::=;:<><,11>%&&>--:<<;-$$&+$$$##$=;,,::==;,<1",
">,,<>>,,,<,>&*,;--:=&&=-=;;=---=**><,,>>;--<<<-&&&&&&---:=+&;,<<,,,>,,1,,;<<<;-%=%-;****=;;;:-;:<<<>",
">>,1>>>,,1,,*--;-=-==-;;;=;;::-=&=;<,1>>>;;;-;;:;&X+@&--=&@&;,<<,,,,,,<1,>>;<<1<,<<<<><,,;==@=:<<<-$",
"*>,,,*>,,111,,-*&=-=;:<:;,;;::;;&&;<1111<;;-=----=&*-:-*&@+&*,,<<>>,,,,1,--*&&*<<1111<<<,=#O$-;<<:$#",
"*,,<,***>,<1<>-&#$@#=<<,;,<--;-;-&=<1111<;-&@&=-=-;<,<;;;;;-;---*,>*>>,1<>>*++$*><<<<<>>=$#&$=;=-=&&",
"%-,,,>*>>><11,**=@X@-;:;;;;&+@@-:&&;,11>==&@+@==&&;:<<;;<<<<;*&+%<<,**>,1<,-$&-<<1>>>*->;*&;;###====",
">,,,,>,*%-,1<*$&-&&-==**;;-#XO@;-$&=;>**@=@@@@-=&&-,<,<<;<<<<=&+#*,,>*>,,<<<;;<1<1,<<**<,==:;&@+&:<;",
",,,,>,,;%*<<,&@$;::-$+&==;:-@@=;&OX&-&&&&&&==------->><<>;;--:;-*>,,,,<,1<>>;><<,,,><<1<,*$=&&#+#-<;",
"11<1<<>>*>,-***&;;<;&*;>,,>>*$&**#+&&+@@&---;->,,,,>,11<,,>>%-,<<,:;;<:<,1>-,<;;::-<<111<<>-$#*=**,1",
",>,<,1,<,>**&*-&--;;;;>,,<,>;-*&&&*&@+@+@=-->>>,,,>,<,1,,1<*#%--;%**-:<,<,>,;;-&-=-;<<11111<*#$*-*<,",
"*;**-;<>>***>,>*-&&-;,>,,1<<,<;*&;>*&&@@@&&&-,,>***<1,11,1<>%%***&&&$;;;>--,,;--&&@@*;<1111<;===-*-,",
"%*&$+&-*>>>,>,-*&##*;,,>,<<1<,<,>><>--&o@&&&-,,>-*><1<<<,,<,<*&%&;*##--<<1,,;--&=&o+$;<<111<,;=-,>*>",
"=&$$#$-;,>,,;;*=$+&-:<,>**>>,,<11<<,*&&=&&&*<<<,,,><<-**%,,1<**--<-&&;;,1<,>*&&#&-$*=;<;-;;;;,;->;->",
"--$&==;,>>,,,--*&&&-;--;,<,-;,>>,>>,&#;<<;->>11<1,,,>->**,1,<<<>::-&->;><<>-*%&>;:<<;>;#$-;,;=--;;<<",
";-**-*;,,,<<<,;*-;<<<;*<,11<,,>*,<<<*&*,<<<;<1<,<,,,*,>>>*,,<,1>---;<;,>,<-&#%*111111<>&%,;==$=-,,1<",
",;>-***-**,<<,;*&<<<<<>-*<<,,,>><>*;=-&=-;;;,<,<,,,**>>,>*><111<&=;;;,<;<;-&+#*1<111<>>>,,,==--;--;,",
"<,<,*****>,,>*$*-<<<<;&&#*&-;,,,<<>;&&&&%-==:<<,<,,>><<,1<*><,1<=-=:,,<,--&o$--,11<>>>,,<<,>;;;=**%%",
"<,<<>>>*>,*%**&&;;,,,-&&#*&=;,,,<,>>-&+&--*=::<,>--,,<<,,11>*,1>--=--,,;;&++*--->>,>%>,,<1<,,,;**%&&",
">>><11<<,***,,**-&----&&*;-&*,,,,;*=-&@=,,;;;:,,;*%>-,,,,<<>,,,>&&&--,,;+.+&*->>>1>>>>,111<,,>;**>>>",
"-*><1,,1,>,<,,,*;;;&$&&&**=**,,,,>,*==-=,<,:--==--*;><<<,,,>,-%$@@=-,>-;*&---*>,>111,>,,1<,,,<,,,<<,",
"**><,*<<<,,,,<,,>;;&$$;--&-;>,>>,;;%&-<,<<,,;-==-*<<<1<<<,,-,-**&&=;;***,,*<,,,1111>,,,,,,*,<11<1111",
"**-,>>;*,,;;>*,,<;&&&-,,-;-*****,,;;-;:<1<,,---;;,,<<<,,,,,,>-*&;-=;,>>*,<,,>,,1>1111,,>*>**><<<1,,,",
"*-,;-;-*,,*&%&-,-++&,,<,,,,;-;*,,,;;:;,<11<;-;:--,,,,,>,>,,,,&&$;;;;<<<<<<,>,,,11<1>,,,>,,->>>,,,11,",
",,,;----;;;*&&&--$+$*<,11,,,*-**,;;-,,,111<=;<;==;,,>>;,,;;,,;-**,,>>>;<<<,,<<11>>11,,,,,->,**><,11,",
"-;;;:---;,;;-=--;***--->,,>**---:;;-;-,<,<<,;;;--;,>>,,,:,;:,;;=>>->>>,>>->,>;<<1<11<,,>;*>>>,,,,,<,",
"&--;-;;-;,;,--**;;;-,*--,,,,>-,,<;;*&**->>--::<;;,,>>,<,,;;;,,;;***,->-,>>-*&%%*><,<,>>>>,,,,,,->>>>",
";----:;;--&&==**-=--;,,,,>***-**&&&&&%%$%%%*------>><<<,<::;--==*>*;,-*>,,<<<>>;;;>,--,,<<,<,<--****",
"---;::;;--&&&&&&*-;;;-,;>*>*--=**;;,<,<>;-,;-&&&***-->>>---==-;:>,,>,,;-*<<,<>;=*;**-;;,,*>*********",
";;;;;-*--*&&**&*=-;;:<,;;,,,,;;;;;;,-,,;;>;;-----;--&**&%-*==&&=**>*--***%*-;;&=;;=$$;;,,,,,,>->>>-*",
"&&&=***-;;;,,,***=-;;--;**&*;;;-,,;;>;,,>>,,:<<;;;;-;;>;;*&%#&##$**-;<,-*$*-;-;;;,,;-*;,,;,,>%**,,,-",
"<::&&*->,*;;;-*--;-;;==-,*&&*%**->->,,;;---*-,:;-&$&&=-:<:,,;=&=***--;<;--*-;;=-=&=,>==-*;;*,,,,,,,,",
"::;-**--,,,**-**=-;----;;-&&;-,,,->*&&&*#$&&-:;;;-*-=;::---;;=&&***-;;;;;-*$#&+&=*$*;,,;--;******>*-",
"--=&&=;,,,,*>*--;::--;;<,;*-,,--*>***&@&@&----&=&----*&&&&&&*&&--;;;::::;-&&&&=--&&&---=**&-**--,,>*",
"--&&#=;<<<<<,<;--=-;-;--*;*--*******---=-&-;-*-&*&**&&=-;:;:------;;=;---*&*-:<;-&&&&&&$$&&$&****>,,",
"&=--;;,,>**&***----=&&&$&*$&>,,,,<<,;-*-&@@&&--=&$$$&----;;;;---*&=----=&$&-;<--=&----=--:::-*>,,*,,",
"--;:;;;,,->,,*,*&&*--&&&&&$$,1,,,<,<<,-*=-&&-::;;;,--&$&&---;:<::<<:;;;--*&&&=-=&&@&-------;,,>,,***",
"=&=$#$$=-;;<,,,>&#&&&*---;;;,>,,<<,<,,<,;>;---=;;,---&&;,,,<,;,;:<><:;;;;,,<::--&&&*---=&*&&**>>,,,,",
"%=---===&&@oo#&*,<<,<,;:<::;,,,<,,,>,>,<<<<;&@$&-;;;---;--;-;;,;&***;;;=;;;*-;--:-----;=**%;,->,,,--",
",<<1<<<<-=&$&-,,,,>>>-*&--;;;;>;&&&**>-<<,,;;-----;;-*&&#***;,;:<<<,<<<*====-:----------;-%*,**%%%$&",
"%=,<<,,;-*&**=--->>--;;;:--;-=&#$##%*>><<<,;;;:---&--&&*><,<<<<<<<<<11<<------==----==-;;,>,,<<,>>-*",
";;>,,,>>,<<<>,,;**>;><;;,;;<:=&+ooo#*>>>>>---*---===---***;;;;;:<,<,;;;;-&&&&&&*=;*-&#&&#*=,>,<<111<",
"<<111,,>;<111111<>><,;;;;;;:;-&==*;**<<<,>,;-*&*=-=----=*&-;::::;::;&&#&&&&**;;:;:<:;-====><>>>,>,,>",
"111111<>*><><<<<<>%%%+#++&*-<>;,><,;***-**%$&;-;;;::;:;;-=&+@&@&==&&=@+@###&&-;;*&&@&==-,<1<<>*$%&><",
",111111,,,>*>>>>;*;*&$$$&&+&=***-;;>,*&****-;;;<<;<<<-;-====&OOOOOO@=::<<**--;-*&$+@&==&*;>;;****><,"
};
