/* XPM */
static char * player_xpm[] = {
"100 100 260 2",
"  	c #FBFBFB",
". 	c #F3F3F3",
"+ 	c #E6E6E6",
"@ 	c #F6F7F8",
"# 	c #ECECEC",
"$ 	c #F9FBFE",
"% 	c #F4F9FD",
"& 	c #E7F0F4",
"* 	c #E5EDF2",
"= 	c #E2EAEE",
"- 	c #EEF5F8",
"; 	c #E9EFF3",
"> 	c #F1F3F7",
", 	c #E9ECEF",
"' 	c #EFF8FB",
") 	c #EBF2F6",
"! 	c #DDE6EA",
"~ 	c #DEE9EC",
"{ 	c #E7E8E9",
"] 	c #F1EEEC",
"^ 	c #F0EFF0",
"/ 	c #EBE9E6",
"( 	c #F7F8F9",
"_ 	c #F2F6FA",
": 	c #D9E3E6",
"< 	c #D6E5E8",
"[ 	c #EEEFF0",
"} 	c #E1E7EB",
"| 	c #D6E2E5",
"1 	c #F9F7F4",
"2 	c #D3DEE2",
"3 	c #E6E7E8",
"4 	c #F2F1EE",
"5 	c #EBE4DC",
"6 	c #DED9D4",
"7 	c #D6C8B8",
"8 	c #CBC3B9",
"9 	c #C5BDB4",
"0 	c #D4CDC5",
"a 	c #C5B8A9",
"b 	c #B7A797",
"c 	c #ADA59C",
"d 	c #9A8876",
"e 	c #97816C",
"f 	c #787069",
"g 	c #83715D",
"h 	c #88817B",
"i 	c #DAD2CB",
"j 	c #BAB2A8",
"k 	c #B59D85",
"l 	c #A7927B",
"m 	c #7B6956",
"n 	c #6D513A",
"o 	c #5A4B3D",
"p 	c #65584B",
"q 	c #645649",
"r 	c #6B5C4D",
"s 	c #746454",
"t 	c #A49C96",
"u 	c #88644A",
"v 	c #A9734A",
"w 	c #9D623B",
"x 	c #965B35",
"y 	c #CAB297",
"z 	c #FAF4E8",
"A 	c #EFF0F1",
"B 	c #FAF9F5",
"C 	c #B9A38B",
"D 	c #B89779",
"E 	c #847362",
"F 	c #8D7B6A",
"G 	c #AA9987",
"H 	c #E2DEDB",
"I 	c #E4E1DD",
"J 	c #E7D9C7",
"K 	c #947B65",
"L 	c #915F41",
"M 	c #A56C45",
"N 	c #B57C54",
"O 	c #997457",
"P 	c #F5E4C9",
"Q 	c #A38C76",
"R 	c #544335",
"S 	c #5E5144",
"T 	c #5D5349",
"U 	c #7C6C5B",
"V 	c #EAE6E3",
"W 	c #F3EDE4",
"X 	c #755A46",
"Y 	c #C78A57",
"Z 	c #E7CCA5",
"` 	c #52463B",
" .	c #54493E",
"..	c #6E6052",
"+.	c #766759",
"@.	c #78624D",
"#.	c #8A7663",
"$.	c #663C25",
"%.	c #ECE3D7",
"&.	c #968D85",
"*.	c #917E69",
"=.	c #5A4E41",
"-.	c #635445",
";.	c #E4DCD4",
">.	c #F5EAD8",
",.	c #885737",
"'.	c #855D42",
").	c #683619",
"!.	c #A25F32",
"~.	c #B97847",
"{.	c #C69B75",
"].	c #8B7965",
"^.	c #956E50",
"/.	c #563928",
"(.	c #976949",
"_.	c #A76638",
":.	c #C59467",
"<.	c #B08F74",
"[.	c #CCB59B",
"}.	c #724C35",
"|.	c #ECD1A7",
"1.	c #F3DBB4",
"2.	c #F0DFC0",
"3.	c #4C433B",
"4.	c #DAB489",
"5.	c #BC926D",
"6.	c #E2CDB5",
"7.	c #ECD4AB",
"8.	c #ECD7B6",
"9.	c #8B725C",
"0.	c #4B4036",
"a.	c #4A3E34",
"b.	c #D4AC84",
"c.	c #E4BC86",
"d.	c #C6AD94",
"e.	c #C9A27A",
"f.	c #D8BA98",
"g.	c #3B332B",
"h.	c #373028",
"i.	c #423B34",
"j.	c #43382F",
"k.	c #6B5644",
"l.	c #F3E9D6",
"m.	c #E7BD8C",
"n.	c #EBC589",
"o.	c #F1D6AA",
"p.	c #E8C798",
"q.	c #A87A57",
"r.	c #F8E1B9",
"s.	c #F3D49C",
"t.	c #F2D295",
"u.	c #EED09D",
"v.	c #46362A",
"w.	c #453B33",
"x.	c #84786D",
"y.	c #F2D5A3",
"z.	c #F2CD94",
"A.	c #DCD9D7",
"B.	c #C7A787",
"C.	c #6C5A4C",
"D.	c #D8A777",
"E.	c #E9B877",
"F.	c #A78468",
"G.	c #DAC3A6",
"H.	c #DDC29C",
"I.	c #544B42",
"J.	c #37170A",
"K.	c #B6AFA9",
"L.	c #F8E0AD",
"M.	c #3F3731",
"N.	c #160C07",
"O.	c #664937",
"P.	c #C9C6C4",
"Q.	c #AD815D",
"R.	c #2E2720",
"S.	c #0C0502",
"T.	c #240D06",
"U.	c #856C57",
"V.	c #BBB7B5",
"W.	c #B68C67",
"X.	c #F3DAAB",
"Y.	c #D3BCA3",
"Z.	c #5A4436",
"`.	c #27130C",
" +	c #AAA7A5",
".+	c #948F8C",
"++	c #564F48",
"@+	c #DBB27F",
"#+	c #DFD1BE",
"$+	c #332B23",
"%+	c #2B231C",
"&+	c #C6BFB6",
"*+	c #69635C",
"=+	c #372C24",
"-+	c #524D48",
";+	c #756C64",
">+	c #34251C",
",+	c #68422B",
"'+	c #3A2317",
")+	c #867C73",
"!+	c #655C55",
"~+	c #BA8659",
"{+	c #79543A",
"]+	c #5D402F",
"^+	c #472717",
"/+	c #583F34",
"(+	c #2E2821",
"_+	c #DBA468",
":+	c #291C15",
"<+	c #BB723A",
"[+	c #A55B29",
"}+	c #9A572A",
"|+	c #8A471D",
"1+	c #7C411C",
"2+	c #764629",
"3+	c #CF8E55",
"4+	c #19120C",
"5+	c #C57D43",
"6+	c #C5793C",
"7+	c #B56C35",
"8+	c #AC632D",
"9+	c #C18D65",
"0+	c #C9854B",
"a+	c #D69657",
"b+	c #DEA25D",
"c+	c #D48A47",
"d+	c #CC8242",
"e+	c #6C5E51",
"f+	c #5B321B",
"g+	c #4B2A17",
"h+	c #DB944E",
"i+	c #CC803E",
"j+	c #E8A45B",
"k+	c #8D5029",
"l+	c #451D0B",
"m+	c #D49B68",
"n+	c #ECB36C",
"o+	c #58260D",
"p+	c #C19F82",
"q+	c #E6AA67",
"r+	c #773C19",
"s+	c #562A14",
"t+	c #E29D56",
"u+	c #F4D9A5",
"v+	c #421E12",
"w+	c #864A25",
"x+	c #652B0F",
"y+	c #EFC27D",
"z+	c #351D13",
"A+	c #EDB578",
"B+	c #241D15",
"C+	c #442D23",
"D+	c #1D1812",
"E+	c #F2C789",
"F+	c #813F15",
"G+	c #F0AA5F",
"H+	c #98928B",
"I+	c #A4531E",
"J+	c #272118",
"K+	c #252017",
"  . + @   # $ $ $ % % % % % & * = & & - - ; > > $ > $ > , & > & ' ' & & * = = & ) - ' - ) ) - - - ) - - ; ; * * ! ~ & * ) % $ % ) ) * ~ * ) & & ) ) & ' ' ' - ) & = = ! = - - - ) ) ) * ! * ) { ]   ^ + ",
"  @ / @ ( - % _ % _ _ _ > - ) ) & = & - - ) > > $ $ > , , > - & & * ~ ! ~ & & & ) - - ; ; * - - - % % % ' ' ) * : < ~ ~ ) ' % , & ) ) = ~ ~ & * ) & * * - ' _ _ ' ) & = & & ) & ) - - ) - ) ) ) ^   [ / ",
"{ . ( . & * * & - > _ % - * & & } ! = ) _ % $ $ > $ > > > _ ' , ! : | ! = & ' _ - ) & * & = * ) - % % % % ; ~ ~ ~ < ~ ~ & & = } * ) - ) = : & ' ' % - * * ) % % ' ' - ) & - & - ' % % ' % % ) ) ) # . ( ",
"+ .   = & } } } * & _ % & * ~ ~ = } , , % % $ $ $ > > $ % $ % ) = ~ ! , ) - _ ' ' ) * * ; = = ) - > % % ' ) * ~ ~ * * ~ ~ ! < ~ = * ) ; * = & - % % ' ) = = ' _ - - ) ) ; & = = ) ' ' % ' - ) ) ) ) 1   ",
"@ . } } * * ) & & & ) ' * * ) ' _ , ) % $ % % $ $ > > $ $ $ $ _ - ; * * _ % - _ % - ) ) ; * * ) - - > _ > ) ) ) - & * * ! | | < ! , - ; ) ; * ; ' % % ) & * - - > - & & ) ) & , ) - ) - ) - - - - ' & . ",
"  _ - & ) & _ _ ' ' & = ! } - % % > _ $ $ $ $ % > , > $ $ $ % > ' - - ) - _ & - - - - % - ) ) * = * * ) ; * & ) - % % _ ' ~ ~ * ) _ _ _ _ _ _ - ) ' _ - - - - - - _ ) , - ) _ % - - - ) & ; - - ) * ~ + ",
". _ - - & & _ _ - & & & = = & ' % % % > > $ $ > > > $ $ $ $ $ > - > - % % ) & & * & - % - - - ; * * ; - ) = ; ) % $ % % ) & & ) - _ _ - _ _ _ - & & - _ - % _ _ > - * & - & - ' ) & & & ; * * * * : } = ",
"* & * & - * = = - ' ) ) - - & = = - > ; > > % % > $ $ > $ > > > _ _ - ' ' & * ~ : * ) ) ) _ _ - ; ; ) > - ; ) - - _ _ _ ' ) ) ) * ; ) ) - % - * ~ } & _ _ % % % _ ; & - - & } & * ! ~ = * = * & * : * & ",
") ) ) ) ; = } , - ' - ) ) - ) * : ! - - ) - _ > _ _ _ > > _ _ ; % % _ % % ) < < | ~ & _ > - > > > - ; ) ) & & ) & _ _ _ % _ - ; * 2 } ) ) ) = } } , ) _ % $ $ $ % > _ - ' - & ~ ~ * * ) - - & ) & ; & - ",
"' ) * = ! * ) > - ' - & & ' - - * ! ) # ( @ 3 . _ _ _ > ; ; ; - % % _ _ ' ) < < | * ) - ; , ; ; ) ; * * & ) ) ) - _ _ % % _ _ ; * } * * * * = = ; ) > % % $ $ $ $ % > - ) & ~ < * - % ' - ) ; & ) ) ) % ",
"- * 2 2 = ) % % - - ' & = _ % % # ( 4 # ( @ / 5 6 7 8 7 9 ; _ > _ _ ) ) ) & ! ~ ! ) - _ > ) ) ; ; * * * * ) % ' _ _ _ % $ % % > ; - - ) - _ - & ) - ) % $ _ _ _ % - - ; * ~ < 2 = ) % _ ) = : = & & & - ",
") ) = : ~ _ $ % - ) & ! = % #   ( { . ( # 4 5 0 a b c d e e f g h _ > ) & * * ~ = ) _ _ % $ % _ > _ - & * * - - % _ % % % $ $ _ _ _ - - - - ) ) ) _ > > % % _ ) } , ; % % ' ~ : . ) % % - & * * ; & ) - ",
"_ % ; = & % % _ - & < ! & # { ( ( { . ( { 5 i j k l d m n o p q r s d t a ; * } = - % _ $ $ % % % % - ) * ; ; ) _ / . 1 a u v w x y z 3 .   / ) - _ - ) % > - ; } , > $ $ _ * * . ( ) ' ) & ) & * ; ' % ",
"% % % ) _ % > > & = } ~ ] @ @ ] A B 4 # 5 7 C D e E m o o o o o q q m F G 7 H I * ) % _ > ) - ' _ _ - ) ; , * ) ^ 1 ] J K L M N x O P 1 [ # . . # _ ) ) > > = = * * _ $ $ % - * ) # ) ) * ~ ~ : < ; ) ) ",
"_ ; > _ _ _ = < ! = * = + @ ( { #   # H 8 l l Q e s o R R o S T r r r U d b 8 0 # @ ; _ _ - - ) ) > _ _ ; } = V #   W y X L w N Y M Z B [ 3   . + @   > - - ; } } ; $ $ $ % _ - ) / ) ) - ~ < 2 2 } * * ",
"> > % % % - ! | ~ & } # @ ] ] @ . # I 8 d d d e U S o `  .T ..r r +.@.m #.Q c a 0 ] . _ _ % ) * = ; ) ; = } , . ^ ] W k $.x L L N N y %.. . [ ^ . ^ # . * * ; * * ; $ % % % % - ) & & ) ) & ~ ~ } ; & & ",
"_ _ - ) ) & ! | < ~ ~ #   ^ 3   ( I 7 &.#.*.*.#.s =.S p -.s U U s g U m U F G C a ;.( A - - * } = ; ) _ ) > /   @ + >.Q ,.'.).).!.~.{.;.( ( / [   { 3   . - - _ % ) _ > _ > _ _ ) ) ) ) ) - ) ) ) _ _ _ ",
"> > = : ! ~ ~ | ~ & & ^ . . . @ . V j *.E E E +.S  .p m m U ].g m g +.....U e G G a H 4 . . * ! ) _ ) % . . . A A . W D ^././.(._.:.<.;.. . . . . . . . . % % % % % > - - _ & & ) ) ) * ) ' * * _ % _ > ",
"_ - * = ~ ~ = * ) - & . + @ B 3 ] 5 G U +.m +.s o S ..U ].U g U +.m ..q S s m e Q c 8 /   { #   # 3   . / .   3 [ ( W [.O }.l Z |.1.2.>.W # B z 5 1 B / #   _ $ $ % _ ; ; - & - ' * = * = * * * _ % _ _ ",
"_ % ) ; - ) - - ) ) * . ] . @ [ / 0 h m r U g r r p ..m e ].U m s ..p =.3.p p s g e G i . # 4 . ^ ^ @ . ] 4 @ ^ 4 z >.4.5.y 1.1.1.6.7.Z P >.P 2.8.J 5 ^ ] @ } ) % % > > ; ; - % ' * * * ! * * & _ _ _ _ ",
"% % % % ' % % % - ) < 2   [ # ( / j #.g g E U +.U +.U U ].e 9.r r S o 0.a.` ` S r U ].b I ( . + @ 1 W W 1 W 5 z W 2.Z b.c.1.1.[.d.d.D e.f.1.f.5.{.k 8 B . / @ } , _ > _ ) = - % ) * * * = & * & - - _ _ ",
"% % % ' ) ' ' % % - ~ :   ^ # B 5 c ].*.#.s -.q U U U U U g +.-.o ` 0.g.h.i.j.0.` -.k.h 8 z 4 # z z ;.P l.l.P P Z m.c.n.o.p.k b 7 0 8 k {.4.p.Y q.O J ( . / . ; ; > , ; ; } ; % ) * ! ! ~ * ~ * ; - ) - ",
"- - ) ~ * & ) % % - & } / @ ( ] i l #.*.g r o ` ..U U e ].s r o  .0.j.g.h.g.g.j.0.0.0...t I # z >.P P P r.1.1.Z s.s.t.u.Z d.%.z . . B 5 [.{.f.{.'.G @ { #   ^ > _ ; * , ; , * ; - ' ! ! ! } & ) % - ; ; ",
"- ; * * * & ) ) ) ) - * 3 @ ( # 0 d *.F 9.s o o ..m U g f s p q  .` j.g.g.g.v.a.0.w.j.o x.8 # z P P P r.1.y.m.n.p.z.s.p.a A.I 4 @ @ 1 ] ;.k {.B.r 0 @ { # ( . { _ _ _ ; ; ; * * - > ) = ~ ) % % % - ; ; ",
"_ - & ) - & - * } * - * } ^ ^ ( ;.G #.E ].U q T ..+.s +.s ..C.o 0.` w.w.j.a.a.` 0.g.g.` s b J l.r.r.1.7.Z f.D.D.E.E.s.y a f a.t . . 1 ] ;.d.<.k F.%.W ( . { . @ _ _ _ ; ; _ _ > > > _ > > _ % ' ' - - ) ",
"; ) ) - _ - = * * - - ) * # #   ;.d g g E U q o ..U s +...C.o k.` ` R ` R ` o o  .h.j.0.m [.r.r.1.1.6.G.m.b.b.D.D.4.H.[.d I.J.-.H @ @ ] i K.Q D F.f.%.( ( / .   _ _ _ ; > _ _ % $ _ _ $ _ _ ' % - ) * * ",
"} & - - - = ! * * ) ' ; = . . [ ;.G *.d e s r  .q s ..+.+...o -.q o o o p T T =.` h.0.o G 6.r.L.1.7.H.4.4.{.:.:.D.p.f.b M.N.N.O.0 1 A I P.c 9.K Q.5.7 z 4 ( . A _ _ _ > _ _ _ _ $ $ $ $ _ - - - - ; * * ",
") ) - % - = = } * & - * ~ @   / i G E ].s -.R a.0.o o s s ..S ..r q o p ..p S  .j.g.` ].H.1.7.7.|.|.p.n.5.(.(.N e.7.f.j R.S.T.U.;.. # A.V.t X 9.^.{.[.I 4   A { > > > _ % _ _ _ $ $ $ $ _ ) ) - ' ' ' % ",
"% ' % % ' & & & & ) & * ) ) . . 6 G ].U ..q j.g.0.R -...U U -.s U r o ..s p =. .i.0.-.C 7.|.|.|.Z p.4.5.W.{.b.<.f.X.f.Y.Z.`.O.k W / H P. +.+C.k.^.b.y ;.4 4 A . * ; ) - _ $ $ _ _ $ _ $ ; ; * ) - % $ $ ",
"% ' ' ' ) ) ) - ) & ~ * - - # ( 5 G 9...p S 0.w.0.0.p +.U #...r U r T ....q ++3.0.` g G.8.8.Z Z |.p.b.@+b.y B.f.f.X.f.6.K U.K #++ A.0 V. +&.I.v.U.b.y J W + .   + * = ) _ $ _ $ % % _ > ) = = ) - % $ $ ",
"& * } } & - ' ' ) ~ = & - ) . . 5 b m -.p o w.$+h.` s E m U U p +...q p S S  .w.M.o *.Z 7.Z G.Z Z u.f.f.D B.G.7.p.o.f.6.Y.k 7 ;.i P.K. +.+f g.v.9.B.b.G.%.4 A @ ^ * ) ) ; ; > _ _ % > % _ ; ; _ > > % _ ",
") & } * ) ) ' ' - ) ) ) ~ &   # I a s -.S 0.$+%+` U g E U s U ..+.T S S o 0.3.g.0. .e |.Z Z 7.G.p.f.y B.u D Z 7.Z |.Z &+;.;.;.P.V.V.t .+.+*+h.a.E D [.G.J   [ { ( * ) ; ) > ; > ; - % % % - - _ % - _ % ",
"- - * & & - - - _ _ > > ; ) @ ] # V...=.0.w.=+%+T ].e g E s +.....p =.=.3.g.0.g.a.` 9.p.p.f.f.y H.C D u n l [.G.H.p.8.Y.9 8 P.V.K. +.+.+h -+v.-.U D G.8.6.. . # ( & ) ) - ' _ - ) - % % % - _ % _ _ $ _ ",
"& & & - _ - - % % % % % _ - 3 ( . 8 ;+ .a.w.>+%+;+].].].U s ..r T S 3. .0.h.0.M.0.R U.f.m.{.<.D d U 9./.Z.].d.H.b.b.u.Z b j V. +t .+h h ;+++/.n X C d.G.#+5 @ ( # - ) * - ' _ - ) - ' - * ; _ _ _ _ _ _ ",
"= ; & _ % % % % % $ $ > - ^ # ( . H .+ .j.j.h.>+..e e e m p r S S S ` 3.` g.0.h.a.O.B.p.4.W.^.@.n n ,+'+/.r D f.H.e.b.u.y C &.h h )+].e x.n O.O.p e Q d a / . @ # ) & ) - % - - ; * * * = * ) ) _ > % _ ",
"; - - ' - ' % % % % % _ - @ ( # 4 ( 8 !+v.$+g.j.T e l ]...p q S S T =.I. .0.0.M. .F.o.u.c.{.~+^.{+]+/.^+v./+^.y f.<.W.~+5.B.b G l d G e ]+{+u o 3.v.C W 6 ( . # @ * * ) ) - ) * * } 2 } * = * ; _ > > _ ",
"_ ' - - ) - % % $ % % % _ . ( / 4   + t  .(+(+$+o Q l e r -.o -.S p  .I. .0.3.0.X 4.p._+:.N Y 5.O {+/.v.R :+v.Q y B.~+Y ~+w u ].K U.,+,+^.Y ^.R 3.:+U / .   [ { ( ) ) * ) ) * * * ; = & ) ) - - _ ; = * ",
"' _ ) & ; ; ' % _ ; ; > - ^ ^ . A # 4 # &.g.%+%+ .k d e ..-.-.p T p S 0. .M.0.R e |.:._.<+[+_.}+|+1+]+^+=+`.%+..k b.e.~+Y Y M {+2+2+(.:.Y 3+N ]+N.4+U A.{ # . @ ) * ) ) ) ' ) ! ; ) & ) ) ) - - - } } 2 ",
"& = & & * * - > > ; ) > _ # #   @ + .   i *+M.$++.C l e g p q r ..T T 0.0.g.0.O.B.b.~.5+6+[+7+8+}+1+,+'+J.`.`.'+K e.4.9+~.N 0+3+a+b+a+c+d+d+a+,.`./.G I I + .   ) & ) ) ) * * ) ) ) - ) & & ) - ) * * * ",
"- - - _ - ; - > _ % $ $ $ . . [ . . 4 . 4 8 ;+T &.b Q e E s e+..q  .` j.j.h.v.U.H.Y 7+5+5+d+7+5+7+!.7+w 1+f+g+T./+D B.4.N _.5+5+c+h+c+i+5+c+j+Y (.e G.;.A.. . - ' ' ' ) * * ) % - ) _ - ) ) ; * ; * ; - ",
"- - _ _ ' _ ) , = % $ $ % . ( / {   { {   4 &+a a [.k K g U ....S 0.0.h.M.h.Z.D f._.~.<+5+a+0+3+~._.3+<+k+|+2+l+J.O.F.B.4.N x ~.c+c+c+d+d+c+j+j+:.[.i 7 i   4 _ ' ' - - * * - _ _ ) ; _ ; = * * & ) ; _ ",
"& & ) - - ) ) & = _ $ $ % . . [ 4 ( 4 # 1 . # W 0 f.C e g s s p T 3.j.h.h./.(.f.W.1+_.0+5+a+m+m+~+<+7+}+8+}+w |+f+l+/.^.B.b.W.,.i+i+c+c+h+h+j+n+n.#+0 V.H . 4 _ - - - * * - > > _ - ; ) * ! * ; * ) _ _ ",
"= & - & ) & & ) - _ % % % # #   @ / @   { #   5 7 f.B.Q ].s r I.` 0.j.j.>+n D f.q.1+k+~+0+~.0+Y _+Y ~.<+0+_.~.}+2+$.J.o+X p+B.9+0+~+3+c+c+h+j+q+E.Y.K.8 A { 1 ; ; - ) & - % > - _ _ _ * * ; ; * * _ % % ",
"= - - - ) & & _ ' % % % % ^ # . . { . @ # 4 4 # i f.b d 9.m =.` 0.0.0.0.R O H.Z W.).2+k+_.Y _.Y _+_.3+~.a+_.d+_.}+r+o+l+l+}.W.{.~+~.d+c+h+h+b+n+E.b.b H A A . ; ; - ; _ % % - ' - ) ) ) ) - ) ) _ _ % _ ",
"= ) ) ' % - & ) ' % ' ' ' . @ / ] ( / V ( ( V ] J Y.B.e U ..-.0. .3.R O.X {.7.r.C s+$.,.}+x !.M _.~.~+0+_+~.~.!.3+}+k+o+J.l+X :.e.m+m+c+t+b+b+n+n+E.8.# # ( 4 { > > ) _ % % ' % % ) ) ) ) ' _ % _ - & ) ",
"= & _ ) ) ) & = ) - ) - ) ) 1 # [ 1 # V ( ( / 4 i [.C d g q =.0.` -.O.u ^.e.u+Z f.u l+$.k+k+k+2+(._.D.v _._.x }+3+_.M u o+v+v+^.e.5.:.h+t+q+q+q+q+E.o.>.4 ( A { * * ; > % % ' % % - - - ) ) - % ) & & - ",
", = & ) & , ) & * ~ ~ * * * { ( @ / . ( # ^ ( ] ;.G.C e s p S 3.0.k.{+^.w ~+L.7.y.b.n J.$.2+,+,.$.w ~+x ~+w Y !._.w+x k+}.f+J.f+<.e.:.b+h+n+q+q+q+n+n.l.. # . ( # ; > > _ ) _ % ' - ) ' ) * - ) ) * ; _ ",
"= & ) - ) = = = ! | ~ ! | * - ( . { @ ( # #   # >.7 C ].s T T T 0.o ^.q.!.v t.L.X.|.e.,+J.^+g+,+,+$.).v v k+Q.1+1+r+r+x+$.J.`.'+9.d.D W.b+q+y+y+n+E.E.|.W # . ( # _ > > > ; - % % ' % ) * * * * = * ) _ ",
") - ' _ - * ! * * ! * * ) & & ) ^ ( # # @ . / . 1 J d.*.@.p T T S /+O N !._.~+7.1.o.m.D.X v+l+v+v+$.$.}.o+2+r+w+L k+w+L }.v+z+=+g H.d.5._+b+y+E.n+y+E.n.>.( 4 #   . % > - , = - ' - - & * = = & * * * ) ",
"- _ % _ % _ * * - ) ) ) - ~ ~ = #   # /   . + @ ( ;.j e m k.p r -.k.N !.}+<+_.D.y.o.m.D.N M x+v+z+^+z+g+$.r+r+s+w+,.).).f+^+`.:+..7 d.<.:.E.E.y+E.y+y+n.P ( 4 {   . + > - = ! ! & = ! = & - ' - ) * } ! ",
"- _ % $ _ > > ; ) - ) ) ) * * * & [ ^ . ^ . . ^ 4 W 7 e g @.r !+X u N }+~.5+7+9+y.u.b.D.q+N 5+M k+^+`.z+v+/.f+g+v+$.f+^+^+J.`.:+T i C D (.E.E.y+y+n.y+E.2.. . . [ . . > ; = ! < ~ ~ ! = & _ % _ ) * 2 < ",
") ) _ _ % _ > % ' ' - - - ) ) * & ) @   { #   # { 1 ;.k ].9.U +.@.q.N M 5+5+5+Y m.o.{.L N m.A+5+~.[+f+J.N.B+z+v+J.v+/./+C+`.D+B+h.8 G.y H.n.y+y+n.n.y+y+8.I . ( { #   # % _ ; = & & * = = _ _ - & * } ! ",
", ; ; > > % $ $ _ % _ _ ) > _ ; * ) ) . ^ ^ . ^ 4 4 %.b d #.E m k.q.M 5+5+0+5+0+D.p.N N O.'.N b.3+_.,.$.J.T.N.T.:+:+:+z+z+4+`.B+%+c 7 y l n.n.E+n.p.y+n.7.W 4 4 [ [ ^ ^ . $ % _ % _ ' & = - _ - ) & ) * ",
"; ; = = ; ; $ $ _ _ % _ ) % - * ! * & /   . + .   / W 0 G *.E m '.N ~.5+<+6+6+c+a+4.N O N ,.$.}.X f+f+k+F+o+T.N.N.N.`.`.4+4+B+=+$+f #+b Q e.E+E+t.t.t.n.u.z # {   @ + @   % % % _ % > _ ) ) ) & = * ; > ",
") ; ; * = , * ; > > _ _ ) _ - * : * ; ; ( . # . . # 4 5 a l e m O Y 6+6+5+0+6+d+a+3+e.,.L p+N -.J.T.g+8+[+r+^+N.S.S.N.S.4+(+g.g.M.!+#+k 6.|.t.t.t.p.t.t.u.P # [ 1 . # . 1 # _ _ % % % > _ - = ! } ; _ $ ",
"% > > > ; } , , * > % _ ; - ; * ! ! ! * * ]   ^ {   1 V 0 k *.9.q.5+6+6+d+c+d+c+t+3+N W.k+2+K N u /.2+_.|+).C.O.C+`.T.T.$+3.3.i.i.3.8 j b H.t.t.t.p.u.t.t.8.4 ( / #   # { ( & - _ _ _ % ' ) = = * ) _ $ ",
"$ _ _ _ ; * ; > ; ; % > , > _ ) & * ) ) & ^ @ ^ { @ . ] W &+Q K 5.3+c+h+h+0+3+h+t+t+5+N 5+~.w w+).s+s+}+x g+/+O ^.u /.^+/.=. .` M.M.8 a G 9.p.t.u.u.y.p.t.Z ] ( / ^   ^ # ( } = & - _ _ ' ' & & - _ % $ ",
"> _ _ % > > _ _ _ % _ > * ; _ - ) ) ' & * * / .   V .   ] H &+Q m+0+t+t+a+3+3+a+j+G+a+}+N 5+5+w w+o+o+w+2+$.v+J.`.`.J.z+/+S  .a.g.(+ +A.t C 7.X.u+X.7.y.y.u.P W ( . / . ( # ^ ; & - - - ' ) - ' % % % > ",
"> > _ $ > > > _ _ $ _ _ ; ) ) - ) & ) & & ) 3 .   3 ^   ] V # Y.m+c+q+q+q+q+q+b+j+G+t+5+}+w ~.!.k+w+r+x+o+u D K U...O././+w.R.R.(+(+&.A.d 7 Z o.X.o.|.y.u+u.1.5   . + @ ( / ^ _ _ - & & ~ & ' % % % ) = ",
"; > _ _ _ ; > _ _ $ $ $ _ _ ) ; * & ) & - ' % ] ] . . # .   # 8._+q+q+n+n+m.A+b+j+G+G+t+5+_.|+r+|+!.k+r+x+s+$.X U.U./+/.=+%+$+$+h.(+*+A.H+C y X.L.1.7.y.u+u.1.z [ [ ( ] # @ . % _ & } < = ) - % % ' = } ",
"; _ _ % _ ; ; ; > _ % $ % > ) * } = ~ } & % % # #   . 3 .   / 8.n+G+E+y+A+E+A+j+t+G+G+G+t+5+5+6+5+7+[+|+x+$./.J.J.v+^+'+z+R.$+=+g.h.!+A.t e d.X.X.1.7.|.y.u+8.z # [   # /   . > & = } * = & - & ) & * * ",
", ) _ _ _ > ; > > > % $ $ _ ; ; & ~ | ~ ) - ' - . ] . @ ^ # . 2.A+m.E+E+E+c.E.a+h+G+t+j+5+6+h+6+6+7+8+I+).f+X /.l+v+z+R.:+R.$+=+$+h.-+i V.q C X.L.1.o.7.u+L.8.5 ( . # . . [ ^ > - ; * - - } } } & & & & ",
"> _ _ _ _ > _ ; , ) _ $ % ; = * ) * * ) & & ; ;   3 ^   ] /   J c.E+y.s.t.n.E+m+h+j+t+t+5+6+5+5+5+8+[+}+|+x+g+J.J.z+=+z+B+R.R.R.h.h.h.V./ h e L.L.o.7.7.X.G.a 8 @ 1 + . ( 3 ^ % _ & & ' - * ~ ! * ' % - ",
"_ _ _ _ > _ _ - , ; % % _ * ~ = - ' ' ) = ! * & & . . . . . . 1.n.y.u+s.s.p.n.m+5+h+t+t+6+6+5+5+7+[+I+|+2+).g+^+'+'+g.%+B+R.R.$+g.h.h.H+4 %.7 7.L.o.7.o.B.Z.>+g.*+V.# . . . . % _ ; = & * * } ! } ) % - ",
"$ $ % $ % % > > ; > _ ) ; ; ; * - - % - * ; - > _   1 + .   / 8.p.t.y.u+s.s.m.m+v 0+d+6+7+7+6+6+I+I+|+|+).s+l+'+:+=+M.J+J+%+(+g.h.$+h.&./ 5 6.7.7.1.y.|.e a.g.0.g.h.h + #   . $ % % > ) = } ; & ; ; _ $ ",
"_ > _ % _ $ _ % _ > ; ; * ; ) * ) ) - - - - > _ _ % . # . . [ P u.s.o.u+s.s.m.5.w _.<+7+I+[+7+8+[+|+1+1+o+l+z+z+>+M.$+D+J+J+%+f V. +V.5 ] V 7 G.Z u+o.H.E 0.3.T T 3.D+h # 4 4 $ $ $ $ % ; } = ; ) ; % _ ",
"; - ; ; ) - % > > ; ; ; > _ > ; ) * * ) - _ > _ _ $ [   ] + @ W s.u.o.y.u+p.4.{.(.w+k+[+|+[+[+}+|+1+).x+l+z+'+$+g.i.(+B+J+J+J+3.V.5 W 5 A.P.K.[.H.u.y.H.U g.g.$+h.(+4+M.+ # 4 $ $ $ $ % - & & & ) ; ) _ ",
", ; * = ! * ) ; > > > _ > _ ) ; * } } ; - _ _ > _ % ^ ( ^ # B >.|.s.y.u+y.n.@+5.O ,.x+1+r+|+|+1+r+x+g+J.J.z+=+h.0.i.K+B+J+B+J+%+g.!+f h  +9 8 Y.d.H.p.H.K %+N.N.N.K+S.g.A.4 # % $ $ $ % _ - & ) _ > ; > ",
"& * = = } = ) - _ > _ _ - - ; & = ! * ) ' % _ > ; ; > / . 1 + ;.s.z.u.s.p.n.b.5.O ,.f+s+f+1+).s+s+'+J.B+K+>+h.j.0.g.B+B+K+K+B+B+%+%+%+-+P.A.V.+.s D H.Z l g.D+D+(+D+4+*++ @ % - ) - - - - _ - ) > - ) > ",
") ) = * & & - _ > > _ _ _ ) ) ; * * * ) - ) ) - _ % _ / . @ # l.y.z.z.E+n.m.D.W.O m O.]+{+g+l+J.J.`.D+J+=+h.j.0.3.=+%+K+R.J+R.R.(+(+h. .8 &+&.f H+d.Y.f.C =.%+J+(+4+3.P.{ A - } = ) - _ - & ) ) - - % % ",
"- ) ; ; ) ; - _ _ _ % % % _ - ; ) - % % % - ; % _ $ $ ( ^ ] . >.p.E+E+c.4.@+m+~+(.X O./.@.g+{+,+C+J+(+h.h.h.j.0.i.J+J+%+B+R.B+R.%+(+>+!+H # A # 5 B 5 d.Q f $+4+4+++P.A ( % > * , _ - & & = & ) _ _ $ % ",
"_ - > ) ; ; ; ) ; ; _ % % _ - ; * % % % % % > ) ; % % _ ] /   z n.A+c.E.q+m+~+v ,.u O.v.X O 5.Q.@.0.g.h.M.j.0.0.g.%+%+J+B+R.:+J+%+h.h.H+# { ( . { (   5 a ;+(+N.(+P.[ @ % > > > _ _ _ & & ) ) - ) ) - _ ",
"% _ % _ ; ; ; ; ; > _ _ > ; = ; ) % % % % - * * } ; * ) . . ] W H.q+n+_+a+Y v w ,.{+n /./.q.W.5.9.r 0.j.M.0.3.0.R.J+%+J+%+J+J+:+%+h.;+0 4 ( . . . A [ . . 0 t t P.] . . > > _ _ % % _ > - - - & ; ; , , ",
"% _ % % > > > ; > _ ; , ; ; * * - - _ _ _ ) * * } ; * & .   V V Z b+b+a+0+~+M {+2+,+/.]+^+'.<.F.r m  .w.0. .f I.R.(+(+J+B+B+B+R.3..+H { .   + A   [ 3   @ + @ ( / #   > , > _ _ % $ % _ _ _ - ; ; , * * ",
"> > > % $ $ % % _ ; ; ; _ _ ; ; ) * ) ) ) ) * * ; - ) * ^ ^ ^ @ J 9+3+d+~.M ,.)././.C+C+=+-.6.9 h )+;+T *+t t h.h.g.$+$+M.*+&.V.0 # 4 . A A A 4 A . A A . ] . . . [ > > > > _ $ $ $ % _ _ > - ; ; > > > ",
") ; > % $ _ _ $ _ > _ % _ _ _ ; - - - * = * * * ; ; & ; # +   1 %.G.:.N (.,.}.f+/.^+C+>+$+g.9 B %.i I A.i i ++h.i.M.T t A.# { @ ( V ]   4 +   . + @   3 #   # { ( @ $ $ _ > _ _ $ % _ _ _ % _ _ _ % % _ ",
"; ; > % _ ; % % % _ _ _ _ % _ _ > - - * = = - ) ) * ) - > . . ] ] >.6.d.*.u O./+C+=+R.$+$+R.;+[ W W . 1 / f %+(+h.++i A @ A [ A . # . . . 4 A . # . . ^ _ _ _ $ $ $ $ > _ _ _ _ _ _ ; _ % $ $ % $ $ $ $ ",
"; ; ) _ > > - ; _ _ - - > ; _ _ % - * * * ) _ _ ) - ) ; ; ( + #   # / B V J 6 6 V.t !+$+R.R.g.K.( ( { ] H 3.%+D+J+g.V.I { [   [ #   . { .   + #   # _ _ > _ _ $ > $ $ $ $ _ _ > ; > ; ; > % % % $ _ _ _ ",
"; ) _ - ) - ) ; _ _ ; * , * ) _ ) ! ! * _ _ % _ _ _ _ - ) 1 { # @ . # ( . # @ @ ^ @ / x.v+$+R.f A ( ] 4 { -+K+K+J+D+R.I.t / ( 4 # ( . A . ( # 4 ( . _ > _ _ _ $ $ % $ > _ _ _ > _ _ ) > > > _ _ _ $ $ _ ",
"_ _ _ - ) ) ) ) - - - ; * * * ) ) = ! = ; % _ $ $ _ _ _ ; { ( @ 3 @ @ # ^   [ 3 @ z 7 q.L -.i.*+I { ( ( H 3.D+K+%+%+K+K+>+..C ;.5 V 4   A { @ ( # % _ _ % % $ $ > > $ $ _ _ _ _ _ ) > _ ; ; > % _ $ $ _ ",
") - - - ' ) ) ) - _ - - ) & ) ) - ; ; ; ) ) ) > _ _ > ; ; # ( ( # ^ 1 { ^   . [ z a L x w X /.i. +[   . 3 .+g.B+4+:+:+z+g+/+$.'.U.a ]   . { ( . # ) > _ > - % % $ % $ $ % _ _ > - ; > > > _ _ _ _ _ % _ ",
"* ) ) - ) - - ) - _ - _ ) ) ; ; - - - ) _ ; ) ) _ _ _ _ > ( # . ( ] / 1 . [ . %.d.q.M M v }.z+i.P.( [ .   3 P.&.-+R.:+'+$.L w+M (.<.W ] . B { [ > > ) ; * , , ; > % _ % _ > > > > _ _ _ _ _ _ ) > > > > ",
"- ) ) ) ) ' - - ) ) * * & & ; ; ) & ) ) - _ _ _ _ > ; ; ; ) / #   ^ +   . / 5 B.N (.w 5+L f+++V.. @ / [   [ /   # 9 x./+2+v w M m+9+Y.H .   / ^ _ _ % % % > > - - - > _ ) ) _ _ % % _ % _ % ) ) ; ; ; ; ",
") ) ) - ' ' - - ) ) * * * * * * ; ) - - - ) _ - > ; > ; ) ) . ^ # . . [ ^ 1 J q.q.L $.q.$./+P.@ # / @ . / . @ { ^   ] t /+(.W.x m+p+B.6.W # ( ) ; % % _ % > - & ; - ; ; ) - - _ _ ; > ; ; ; ; ; ; ; ; ; ",
"- - - - - ) ; ) ) ; * * ; ; * ; & ) - - ' % _ - - _ _ _ _ -   @ + . ( / ] B 6.{+q.@.}.q.v.H+# @ [ {   @ 3 .   + /   ^ V &+K D L q.b.N G.l./ B ; ; , ; ) - - * & - - & = = - - _ _ _ _ _ _ > ) > > > ) ; ",
"* * * & ; ; ; ) - - - _ _ _ ; ; ; & ) - - ) ) - ; ; * ; - - ^ [ . ^ # . ^ W k C+k /+X K e+V [ [ . . . ^ @ ^ ^ . . ^ . . . 5 &.b Y.K O p+&+@ ^ ) ; = ; ) - ) - - - _ _ - ) ; - _ _ - _ _ > , ; ; _ _ _ ) ",
"% ' ' * * ; ) > _ ; - - - ) ; ) ) - ) - - & & ) _ ; * * ; , 3 #   [ /   . ;.F 9.U.!+&.E 0 @ . 3 @   / #   ] V B . + @   3 ^ P.P.5 c G a h ] { [ ) ) ; ) - - & ) & * & _ > & & ) ; - - ; _ _ _ _ _ _ _ _ ",
"' ' - ) ; ; ) ) _ _ _ ; ; ) ; ; & ) - ) ) ) ) - - ) * * - ) _ ^ @ [ [ . . t x.a !+i a .+. @ ^ ^ . @ # . @ ^ ^ @ . # . @ [ . ( . ^ ^ 3 # + ] . . - ) ; = } * ! * & ; = ; - _ _ - ) ) - ; ; ; ; ; ; > ; ) ",
") ) & * * & - _ _ _ _ ; > ; ) ) - ' ' ) ) - - % _ - ; ) _ _ ) @ 3 .   / [ P.0 ;.A.. H ] ( / #   # /   . / .   3 [   ] /   . / @ @ # [   ] # @ . / ) * * * * & ) ) * * * ) ) ) & ; ; * ) ; ; ) ) _ _ > ; ",
") ) * * } & - % % % % % _ % - ) ) & ) - ) - ) ) ; - ; ) ) ; ; ; # . @ # [ @ [ [ @ . ] . . ] ^ . [ # @ . # ^ @ # . 1 ^ ] . . W . . ^ ^ . ^ ^ . ^ { @ * ; ) ' % - ) * * * * * * = = * * = * ; ; ; ; > _ _ ",
"+ & ) ) - - _ _ > ; ; * ; ; ; ) ) 3 ) & * * * = * ; = * > _ _ _   # /   . + .   + #   # /   . + @ ( / #   # /   . + @   / ]   # 3 @ . 3 .   3 . * = * ) - % ) ) & * ) ) ) ) & ) ) ' ' ' ) ; > _ _ ; _ _ ",
"/ ) - ' - - - _ _ ) > _ _ ; _ ; * # ; ) ) * * * * * = = _ $ _ _ _ [ [ @ . / . . # ] @ [ # @ . # . . # ^ @ [ # @ * ) ) ) - ' % ' ' % % ' - - - ) ) ; * * * & ) & * * ~ * ) ) ) ) ) ) ) - _ _ > _ _ ; ; ; ",
"  . & = } = = & ) - - % _ _ _ > *   * * * ; ) ) ) - - - _ > _ _ % % _ 3 ^   [ / ( . / .   # #   # # ( . ) * * - _ _ _ % _ - _ - ' % > % ' - - - - _ _ % ' ' ) ) * * * ; ) ) ) & * ; * * ; ; > > _ _ _ _ ",
"  . ) ) ) & & & * * ~ : : } * ; _ % % _ % _ - ' % ' ' - _ _ _ % _ _ _ > _ > _ / ( . 3 @ ( { ] * ) - - - ) ) ) - ) ) - ) - - _ - * ; ; ; - - - & - - - ; ) - ) ) ' ) ) ) ) ) - & ; ; , - _ ) > _ _ _ ) ) ",
"# . % $ % % % % ) & * = * ) _ _ _ _ > > > ) ; * ) ) - - - - > - * * * ; ; > ) % % _ _ - - ) ) ) ) ) - - ) ; * * } ; ; ; - _ - ' % % % _ % % % ; & & & & ) ' ) ) ) ) ) ) ) ) ) ) - ) , ; _ ; ; , , , = * ",
"3 ^   % % _ _ - ) ; * ; ; & ) ) ) > > ) ) - - - ' ) ) - ) & * } = } } , ; > > % % % _ - - - ' ) ) ) * ) ) * * ; > % _ % % % % % % % % % $ $ % % ) ) ) ) ) ) & & ) ) ) ) & & ) - - _ > _ _ % % _ > > ) ; ",
". . ^ _ _ _ > > _ % % % > _ _ - ; ; > - > % - - _ - - % ' & * ! : : : } ; > > > > > ) ) ) ; ) ) ) & & & ) ) ) ; ; ; - - - - - ' % _ % _ - - - - ) * * * * * * ; & - ; ) * } * * } ; & _ > _ % % $ $ $ % ",
"  . + $ $ _ _ > - % $ $ $ $ $ $ % > > % _ - - - - - - ' - ) * & & ; - ; ; % % % _ > _ - ) ; * ; & ) & ) ) ) ) & ; * ) - ' ' ' ' - ' ' - * * } * * * * ; ; - - ' - ' % ' - ) & & & & > % > > > _ > _ _ > ",
"] . ^ $ $ $ % > ; > % > % % % % % ^ . , , ! } ! ! * ; ) % > - _ > % _ - ; ; ; ) ; ; , = * - ) - - - ' ' - ' - - ) & * ! ~ * ~ * & & * * & ~ ! ~ } } } * * ) - - ; * * ~ * & & ) _ % $ % % > ; = , * > . ",
"+ .   # $ $ $ _ _ _ > ; > > > > - + .   * = = = * * ! * & ; ; ; ) - - > _ ; * ; ; ; ; ) - - - % % - % % % ) - ) & & & & * < < < < < < ~ & ' ' % % ; ; ) ) - ) ; * = ! ~ * & & * ; - > - - ; ; ; ; > @   "};
