/* XPM */
static char * wall_xpm[] = {
"100 100 1501 2",
"  	c #FCFDFE",
". 	c #F7FAFC",
"+ 	c #F7F9FC",
"@ 	c #F7FBFE",
"# 	c #FAFCFE",
"$ 	c #F6FAFD",
"% 	c #EAF2F5",
"& 	c #E8EFF3",
"* 	c #E4ECEF",
"= 	c #E9F1F5",
"- 	c #E8F1F4",
"; 	c #EEF5F8",
"> 	c #E9EFF3",
", 	c #F1F3F7",
"' 	c #F9FBFE",
") 	c #E9ECEF",
"! 	c #E7F0F4",
"~ 	c #EFF8FB",
"{ 	c #E5EDF2",
"] 	c #E2EAEE",
"^ 	c #EBF2F6",
"/ 	c #EAEFF3",
"( 	c #DDE6EA",
"_ 	c #DEE9EC",
": 	c #F4F9FD",
"< 	c #ECF2F6",
"[ 	c #ECF3F6",
"} 	c #EDF3F7",
"| 	c #E9EFF4",
"1 	c #E4EBEE",
"2 	c #EDF2F6",
"3 	c #F3F7F9",
"4 	c #F8FBFC",
"5 	c #F9FBFC",
"6 	c #FBFDFD",
"7 	c #FDFEFE",
"8 	c #F3F8FA",
"9 	c #EFF3F6",
"0 	c #EBF1F5",
"a 	c #F1F7F9",
"b 	c #F0F6F9",
"c 	c #F5FAFD",
"d 	c #F3F7FB",
"e 	c #F3F7FA",
"f 	c #F2F4F7",
"g 	c #EFF6F8",
"h 	c #E8F0F4",
"i 	c #F0F8FB",
"j 	c #D9E3E6",
"k 	c #D6E5E8",
"l 	c #F2F6FA",
"m 	c #EFF5F8",
"n 	c #ECF3F7",
"o 	c #EFF4F8",
"p 	c #F0F5F8",
"q 	c #F2F7F9",
"r 	c #F5F8FA",
"s 	c #F7FAFB",
"t 	c #E6EDF0",
"u 	c #E4EAED",
"v 	c #E7EFF3",
"w 	c #E7EEF3",
"x 	c #E6EEF3",
"y 	c #E1E7EB",
"z 	c #D6E2E5",
"A 	c #F3F8FD",
"B 	c #F5F9FD",
"C 	c #EAF0F4",
"D 	c #DFEAED",
"E 	c #EEF4F7",
"F 	c #E4EBEF",
"G 	c #E3E8EC",
"H 	c #E3EBEF",
"I 	c #E2E8EB",
"J 	c #E2E7EB",
"K 	c #EFF1F5",
"L 	c #F0F6FB",
"M 	c #F0F8FA",
"N 	c #E6EEF2",
"O 	c #DFE9EC",
"P 	c #F4F7F8",
"Q 	c #EDF4F8",
"R 	c #EAF1F5",
"S 	c #E8ECF1",
"T 	c #ECF3F8",
"U 	c #F3F4F7",
"V 	c #EDF3F6",
"W 	c #EFF6F9",
"X 	c #F3FAFC",
"Y 	c #F4F7F9",
"Z 	c #DFE8ED",
"` 	c #DDE9F0",
" .	c #D4E0E9",
"..	c #DAE5EB",
"+.	c #ECF2F5",
"@.	c #EAF2F6",
"#.	c #E9F0F4",
"$.	c #E7EFF1",
"%.	c #EBF0F2",
"&.	c #E7EEF2",
"*.	c #DEE9EF",
"=.	c #DBEBF1",
"-.	c #D1E1E9",
";.	c #C6D3DC",
">.	c #DEE7EC",
",.	c #E9F0F3",
"'.	c #EEF3F6",
").	c #E6EDF2",
"!.	c #DDE6E9",
"~.	c #E7EBEF",
"{.	c #EBF0F3",
"].	c #E8F2F6",
"^.	c #DBE7ED",
"/.	c #D8ECF1",
"(.	c #C5E1EB",
"_.	c #B2C5DA",
":.	c #C5D8E7",
"<.	c #F0F5F6",
"[.	c #DBE5E7",
"}.	c #EDF1F5",
"|.	c #E4EDF3",
"1.	c #D9ECF3",
"2.	c #D9F0F7",
"3.	c #B9D3E4",
"4.	c #94BCE0",
"5.	c #94AAC3",
"6.	c #D5DFE5",
"7.	c #F0F5F4",
"8.	c #F1F6F9",
"9.	c #EAF2F4",
"0.	c #F3F6FA",
"a.	c #D3DEE2",
"b.	c #E8ECEF",
"c.	c #DEE7ED",
"d.	c #D3E8ED",
"e.	c #C6EEF2",
"f.	c #CEECF4",
"g.	c #A1D2E1",
"h.	c #75B0DF",
"i.	c #74A0D1",
"j.	c #A0B3C2",
"k.	c #E7ECF0",
"l.	c #F1F4F7",
"m.	c #E2EAEF",
"n.	c #D5E1E8",
"o.	c #C6ECF1",
"p.	c #B7DFE7",
"q.	c #C5EAF4",
"r.	c #9CDCEB",
"s.	c #5CADD9",
"t.	c #5AA0CD",
"u.	c #778494",
"v.	c #CAD5DD",
"w.	c #F5FAF8",
"x.	c #F3F8FB",
"y.	c #F4F8FB",
"z.	c #DEE4EB",
"A.	c #D1F1F7",
"B.	c #B6EDF0",
"C.	c #A2E9ED",
"D.	c #C2EBF6",
"E.	c #A1DBE9",
"F.	c #48ADE3",
"G.	c #42ACD6",
"H.	c #6795B2",
"I.	c #889BB1",
"J.	c #E1EFF5",
"K.	c #F4FAFD",
"L.	c #F6F8FB",
"M.	c #E3EBEE",
"N.	c #F0F4F9",
"O.	c #E0E7EF",
"P.	c #CDDDEA",
"Q.	c #C2EEF4",
"R.	c #A3EBEF",
"S.	c #ABD8E2",
"T.	c #CCEBF5",
"U.	c #8FE5ED",
"V.	c #5BCADC",
"W.	c #4DA6CD",
"X.	c #4D95B9",
"Y.	c #678AA7",
"Z.	c #BED1DA",
"`.	c #F3F6F9",
" +	c #EDF4F7",
".+	c #E6EEF4",
"++	c #C5D1DE",
"@+	c #BADBF4",
"#+	c #A6E0EE",
"$+	c #8EE9EC",
"%+	c #A5E6EE",
"&+	c #C9E4EE",
"*+	c #95D0DB",
"=+	c #69C7E7",
"-+	c #6AC7E7",
";+	c #459ACA",
">+	c #5598BA",
",+	c #889FB7",
"'+	c #ECF3F5",
")+	c #F8F9FB",
"!+	c #ECF1F3",
"~+	c #C7D3DF",
"{+	c #B3DCEF",
"]+	c #9FDEF3",
"^+	c #97EAEF",
"/+	c #A4E5EE",
"(+	c #7EB9CD",
"_+	c #96D0DB",
":+	c #7CA3BA",
"<+	c #86C8DA",
"[+	c #A8D7E7",
"}+	c #4CA6CC",
"|+	c #4099CB",
"1+	c #6C98B3",
"2+	c #BBC7D2",
"3+	c #EEF4F6",
"4+	c #F7FBFD",
"5+	c #F4F7FB",
"6+	c #F2F4F8",
"7+	c #F2F3F7",
"8+	c #F5F9FC",
"9+	c #DBE4EA",
"0+	c #AFC0D5",
"a+	c #A6D6EC",
"b+	c #97DFF5",
"c+	c #97E5EE",
"d+	c #7BC7DA",
"e+	c #A5E3EB",
"f+	c #68A6C9",
"g+	c #457CB6",
"h+	c #97ACC7",
"i+	c #A6CBE6",
"j+	c #6EC7DC",
"k+	c #6493CB",
"l+	c #7BA7C2",
"m+	c #DDE4EB",
"n+	c #F4F9FB",
"o+	c #F5F8F8",
"p+	c #F3F5F7",
"q+	c #F4F8FC",
"r+	c #EFF5F9",
"s+	c #B4C3CF",
"t+	c #A3CBE2",
"u+	c #ABE7EF",
"v+	c #97E6EE",
"w+	c #73C8DD",
"x+	c #4D98BD",
"y+	c #6BC6DC",
"z+	c #99E4ED",
"A+	c #6AB4CB",
"B+	c #2C95CA",
"C+	c #B5DAEE",
"D+	c #98BCD7",
"E+	c #7BB1DB",
"F+	c #ADBDD2",
"G+	c #EAEEF1",
"H+	c #F6F7F6",
"I+	c #EFF1F1",
"J+	c #F5F7F9",
"K+	c #F5F6F6",
"L+	c #EDF5F9",
"M+	c #CCD7DF",
"N+	c #A4C1D6",
"O+	c #9FDEEC",
"P+	c #B0DAE9",
"Q+	c #66AABE",
"R+	c #4AC6EA",
"S+	c #59CADC",
"T+	c #86B9D8",
"U+	c #2A98D6",
"V+	c #3898D5",
"W+	c #4488C7",
"X+	c #538BC8",
"Y+	c #A8BDD2",
"Z+	c #9EB9CA",
"`+	c #8299B3",
" @	c #C7D4DE",
".@	c #F3F8F6",
"+@	c #ECF3F3",
"@@	c #EEF2F4",
"#@	c #F5F8F9",
"$@	c #F7FAFA",
"%@	c #F2F4F6",
"&@	c #C6D7DF",
"*@	c #AABECC",
"=@	c #A8DDEB",
"-@	c #8AD5DF",
";@	c #62A8CC",
">@	c #599BD6",
",@	c #49C6EA",
"'@	c #56C9E9",
")@	c #98E9F4",
"!@	c #78C6DA",
"~@	c #3997C9",
"{@	c #3887D3",
"]@	c #3887C8",
"^@	c #5779A7",
"/@	c #97BBD7",
"(@	c #91CCDC",
"_@	c #8A9EB7",
":@	c #C6D1DA",
"<@	c #EEF1F2",
"[@	c #F0F4F4",
"}@	c #F4F6F9",
"|@	c #F3F4F8",
"1@	c #F5F8FB",
"2@	c #ECF0F4",
"3@	c #EEF4F8",
"4@	c #CDD7DF",
"5@	c #ABBDCC",
"6@	c #B2E6EE",
"7@	c #A0DBEA",
"8@	c #61B6CB",
"9@	c #78B8E6",
"0@	c #339DDA",
"a@	c #3990B5",
"b@	c #71BADB",
"c@	c #95DAEA",
"d@	c #A2B7C6",
"e@	c #B1B9C1",
"f@	c #EFF5F7",
"g@	c #F2F6F9",
"h@	c #C5CFD8",
"i@	c #CCD6DE",
"j@	c #B4C8D5",
"k@	c #9CB8CD",
"l@	c #ABE4EC",
"m@	c #8DE4ED",
"n@	c #5FD4DF",
"o@	c #50E4EC",
"p@	c #55D3EE",
"q@	c #6AC6DC",
"r@	c #97D8E8",
"s@	c #78B7D8",
"t@	c #38A5D6",
"u@	c #51B4DA",
"v@	c #82D9EA",
"w@	c #85A7C2",
"x@	c #919BB0",
"y@	c #C3CDD6",
"z@	c #CED3D8",
"A@	c #EDF0F3",
"B@	c #F6F7FA",
"C@	c #C4D0DE",
"D@	c #CDE3EF",
"E@	c #A8BFD2",
"F@	c #9BB7CD",
"G@	c #6293B0",
"H@	c #70C7DD",
"I@	c #A9F2FB",
"J@	c #78E8ED",
"K@	c #58EAF3",
"L@	c #8AE4ED",
"M@	c #59B4CA",
"N@	c #69E5E8",
"O@	c #629BBB",
"P@	c #4F668B",
"Q@	c #6A7A98",
"R@	c #A3AEBA",
"S@	c #C9D0D9",
"T@	c #CCD2D9",
"U@	c #F0F7F9",
"V@	c #E3EAEE",
"W@	c #E8EFF4",
"X@	c #E8EEF1",
"Y@	c #EFF4F7",
"Z@	c #EEF2F1",
"`@	c #E7EFF4",
" #	c #A9BFCE",
".#	c #BCE8F5",
"+#	c #85B0C4",
"@#	c #537EA0",
"##	c #4F8ABB",
"$#	c #5BA6BB",
"%#	c #90F2F7",
"&#	c #65E8F4",
"*#	c #68E5E8",
"=#	c #5599D6",
"-#	c #89D9F2",
";#	c #78C8E7",
">#	c #378FB5",
",#	c #264B8B",
"'#	c #3E5083",
")#	c #58648F",
"!#	c #8EADC6",
"~#	c #C0D4E0",
"{#	c #ACB8C7",
"]#	c #D8E0E7",
"^#	c #F2F7F7",
"/#	c #F1F6F7",
"(#	c #ECF1F5",
"_#	c #EAEDF0",
":#	c #E2E8EC",
"<#	c #E8F0F2",
"[#	c #EEF3F5",
"}#	c #EAF1F4",
"|#	c #F3F6F7",
"1#	c #B6C4D6",
"2#	c #A4C3D4",
"3#	c #BEEBF6",
"4#	c #76B8CE",
"5#	c #3679AC",
"6#	c #56B5DA",
"7#	c #2A85B9",
"8#	c #77D7E9",
"9#	c #48A6D8",
"0#	c #87C8F2",
"a#	c #5997B9",
"b#	c #376BA6",
"c#	c #163879",
"d#	c #204E94",
"e#	c #375AA6",
"f#	c #486593",
"g#	c #75A4CD",
"h#	c #88DAE4",
"i#	c #96ABBC",
"j#	c #BBCAD6",
"k#	c #F6FAFB",
"l#	c #EEF4F4",
"m#	c #EAF0F3",
"n#	c #F2F8FA",
"o#	c #EFF3F3",
"p#	c #E6F4F7",
"q#	c #A1B7C7",
"r#	c #A0D4DE",
"s#	c #B9F2FB",
"t#	c #7CC9E7",
"u#	c #49A5CC",
"v#	c #56B7E6",
"w#	c #A7E9F7",
"x#	c #88C7E7",
"y#	c #5885A9",
"z#	c #18487B",
"A#	c #163987",
"B#	c #195599",
"C#	c #3C6DA7",
"D#	c #4371B8",
"E#	c #529ECC",
"F#	c #6ACBEC",
"G#	c #73A4C1",
"H#	c #9EB4C8",
"I#	c #DDECF3",
"J#	c #EDF1F0",
"K#	c #ECEFEF",
"L#	c #EFF4F6",
"M#	c #F6F9FB",
"N#	c #F5F9FB",
"O#	c #B2C1CD",
"P#	c #8AACC0",
"Q#	c #AFE5F3",
"R#	c #ABF2FB",
"S#	c #88D8E9",
"T#	c #2183B0",
"U#	c #54819D",
"V#	c #79A9C7",
"W#	c #4D89AA",
"X#	c #174589",
"Y#	c #3C74AC",
"Z#	c #246CAC",
"`#	c #1E569A",
" $	c #69AAD8",
".$	c #5FCAE9",
"+$	c #5BC9EB",
"@$	c #72CEDF",
"#$	c #6D8EAA",
"$$	c #ABB9C5",
"%$	c #F2F4F1",
"&$	c #F3F6F8",
"*$	c #EBF1F4",
"=$	c #F8FAFC",
"-$	c #F9FAFC",
";$	c #E6F5F8",
">$	c #9CB1BB",
",$	c #9BC8DB",
"'$	c #B6F2FB",
")$	c #8AE8F4",
"!$	c #68B7DA",
"~$	c #4BB3D9",
"{$	c #87D8E9",
"]$	c #779AB7",
"^$	c #2C4C7B",
"/$	c #134C8D",
"($	c #184AA5",
"_$	c #1B4C93",
":$	c #2777B8",
"<$	c #1C72A9",
"[$	c #57B7E6",
"}$	c #58C9E9",
"|$	c #5FCBDD",
"1$	c #5AB6DA",
"2$	c #5291BF",
"3$	c #81A5C1",
"4$	c #D9E6EC",
"5$	c #FAFCFD",
"6$	c #EDF2F5",
"7$	c #F2F7FA",
"8$	c #F4F7FA",
"9$	c #F7F9FB",
"0$	c #FAFBFC",
"a$	c #F8F9F5",
"b$	c #F9FAF4",
"c$	c #B8C9D5",
"d$	c #8DB6CB",
"e$	c #B6E9F5",
"f$	c #B5F2FB",
"g$	c #3786B9",
"h$	c #6BA3BB",
"i$	c #0F53A5",
"j$	c #1857A6",
"k$	c #356BB6",
"l$	c #56D3EE",
"m$	c #57D3EE",
"n$	c #39B3E4",
"o$	c #47A8D7",
"p$	c #517D9F",
"q$	c #A0B4BE",
"r$	c #F4FAFB",
"s$	c #FBFDFE",
"t$	c #EBEEF1",
"u$	c #F0F3F4",
"v$	c #F1F5F6",
"w$	c #EBF2EE",
"x$	c #D3DBE0",
"y$	c #F7F8F4",
"z$	c #F8F9F4",
"A$	c #FAFAF5",
"B$	c #D4DDE5",
"C$	c #7996AC",
"D$	c #B8E5ED",
"E$	c #68B7E6",
"F$	c #69D3F1",
"G$	c #4796BC",
"H$	c #29659B",
"I$	c #1B5BAC",
"J$	c #1B68A8",
"K$	c #3678B9",
"L$	c #2775AA",
"M$	c #48B7E4",
"N$	c #33B2E4",
"O$	c #3DABE2",
"P$	c #4E99CA",
"Q$	c #8FAABD",
"R$	c #DBEDF4",
"S$	c #FAFAF6",
"T$	c #F8F9F6",
"U$	c #D1D9E3",
"V$	c #E9F0F5",
"W$	c #F7F8F9",
"X$	c #C3D1DC",
"Y$	c #A7B6C3",
"Z$	c #E4E9EC",
"`$	c #F6FAF4",
" %	c #C7E3ED",
".%	c #94D0DB",
"+%	c #4787B9",
"@%	c #49A9E2",
"#%	c #76D9F3",
"$%	c #1B5A9C",
"%%	c #2B6BB4",
"&%	c #2866A7",
"*%	c #5BABE5",
"=%	c #40759A",
"-%	c #F5FAF4",
";%	c #F4F9F4",
">%	c #F1F4F5",
",%	c #B2C3D3",
"'%	c #CFDFE8",
")%	c #E1EBEE",
"!%	c #F3F5F8",
"~%	c #F2F9FB",
"{%	c #D2E1EB",
"]%	c #A6B8C2",
"^%	c #AEC2D5",
"/%	c #99ABBA",
"(%	c #F3F5F5",
"_%	c #95ABB6",
":%	c #97C6DA",
"<%	c #55B5DA",
"[%	c #9BE4F3",
"}%	c #2364B4",
"|%	c #1C77B9",
"1%	c #5CAEF2",
"2%	c #3879B9",
"3%	c #799BB8",
"4%	c #ECF3F4",
"5%	c #D9E7ED",
"6%	c #9EB4C5",
"7%	c #B1CBDF",
"8%	c #A3B6C4",
"9%	c #D6E4EB",
"0%	c #F1F6F6",
"a%	c #E9EEF0",
"b%	c #E4EDEF",
"c%	c #F6F9FC",
"d%	c #FAFAFC",
"e%	c #B8CCD6",
"f%	c #A1BBCC",
"g%	c #99C9E7",
"h%	c #5986A9",
"i%	c #D9ECF4",
"j%	c #89A6BA",
"k%	c #1C64B4",
"l%	c #19679D",
"m%	c #4898D5",
"n%	c #2A86C7",
"o%	c #4797C9",
"p%	c #376489",
"q%	c #7896AC",
"r%	c #C9DBE7",
"s%	c #6E92B1",
"t%	c #A9DDEB",
"u%	c #8EA7BF",
"v%	c #B6C5D6",
"w%	c #ECF2F4",
"x%	c #EBF2F3",
"y%	c #E9EFF2",
"z%	c #D4DFE3",
"A%	c #F5F6F9",
"B%	c #F7F8FA",
"C%	c #CFEBF4",
"D%	c #B2C8D3",
"E%	c #9BE4ED",
"F%	c #95BAD6",
"G%	c #A8B8C6",
"H%	c #2EA9D5",
"I%	c #246BBB",
"J%	c #3778A9",
"K%	c #58A7D7",
"L%	c #375B96",
"M%	c #668EB8",
"N%	c #7FACC9",
"O%	c #9FDAF4",
"P%	c #72A7C5",
"Q%	c #9CB7C8",
"R%	c #DCEBF2",
"S%	c #F2F4F2",
"T%	c #DBE5E8",
"U%	c #D8E3E6",
"V%	c #F6F8FA",
"W%	c #F9F9FB",
"X%	c #FBFBFC",
"Y%	c #F4FAFC",
"Z%	c #AEB9C4",
"`%	c #8EB7CB",
" &	c #8BE4ED",
".&	c #5788B6",
"+&	c #6899C5",
"@&	c #28538A",
"#&	c #2779C4",
"$&	c #2989D2",
"%&	c #57A4CA",
"&&	c #1B68B8",
"*&	c #265798",
"=&	c #4E77AD",
"-&	c #7AC8E7",
";&	c #9EE5F3",
">&	c #6CABCE",
",&	c #699AC2",
"'&	c #AEC4D3",
")&	c #F6F9FA",
"!&	c #F1F5F4",
"~&	c #ECF4F7",
"{&	c #F4F5F9",
"]&	c #F5F7FA",
"^&	c #F8F9F7",
"/&	c #F5FAFC",
"(&	c #87C8DA",
"_&	c #648DB7",
":&	c #5AABE5",
"<&	c #4689D6",
"[&	c #8AD9F2",
"}&	c #53A8CD",
"|&	c #5F9FCC",
"1&	c #9ABDCF",
"2&	c #E8F6F9",
"3&	c #F6FAF7",
"4&	c #E8F1F5",
"5&	c #F4F5F6",
"6&	c #F7F8F6",
"7&	c #F6F8F4",
"8&	c #FCFDFD",
"9&	c #CCD4DA",
"0&	c #88C9DB",
"a&	c #5797C7",
"b&	c #ABE4F3",
"c&	c #2559A6",
"d&	c #58A4CA",
"e&	c #52A7CD",
"f&	c #688EAE",
"g&	c #BECDD9",
"h&	c #F8FAF7",
"i&	c #F8FAF9",
"j&	c #F4F6F6",
"k&	c #9AABBA",
"l&	c #87B9D8",
"m&	c #6BABE3",
"n&	c #A8DBF3",
"o&	c #96D8F3",
"p&	c #79C8E7",
"q&	c #6D99BA",
"r&	c #BAC7D1",
"s&	c #F9FAF6",
"t&	c #F4F8FA",
"u&	c #E9F1F7",
"v&	c #DCE4EB",
"w&	c #F0F6F8",
"x&	c #F8FAFB",
"y&	c #F3F7F3",
"z&	c #A8B3C0",
"A&	c #8AB5CA",
"B&	c #E6F6F9",
"C&	c #96C8E6",
"D&	c #376798",
"E&	c #377198",
"F&	c #39658A",
"G&	c #B3BECF",
"H&	c #E2EBF0",
"I&	c #F4F9FC",
"J&	c #EDF4F9",
"K&	c #D5E3EC",
"L&	c #C3D5E1",
"M&	c #F2F5F8",
"N&	c #FAFBF5",
"O&	c #A9B9C6",
"P&	c #A8C5D6",
"Q&	c #708EAB",
"R&	c #264A86",
"S&	c #4879A7",
"T&	c #37AAE2",
"U&	c #3578C8",
"V&	c #B2BDCE",
"W&	c #F4FBFC",
"X&	c #F2F9FA",
"Y&	c #EBF3F7",
"Z&	c #DDE7ED",
"`&	c #DFE9EE",
" *	c #EEF5F7",
".*	c #D8E1E8",
"+*	c #C5DAE9",
"@*	c #A7BCDC",
"#*	c #B1C0D3",
"$*	c #F5F9F4",
"%*	c #FBFBF5",
"&*	c #88ABC5",
"**	c #73ACD7",
"=*	c #245AAB",
"-*	c #B2BDCD",
";*	c #FEFFFF",
">*	c #FAFBF6",
",*	c #CCDBE3",
"'*	c #D8E6ED",
")*	c #E5F0F5",
"!*	c #EBF4F8",
"~*	c #DBE9EB",
"{*	c #E3EDF1",
"]*	c #C6D5E1",
"^*	c #B5DBEE",
"/*	c #96B9E0",
"(*	c #98B4C6",
"_*	c #FFFFFF",
":*	c #99B6C8",
"<*	c #6796B8",
"[*	c #B1BCCD",
"}*	c #FEFEFF",
"|*	c #E9F6F9",
"1*	c #BECFDA",
"2*	c #CCDCEA",
"3*	c #DFEDF5",
"4*	c #E5EDEE",
"5*	c #D1DCE3",
"6*	c #ACCBDC",
"7*	c #9CD7ED",
"8*	c #82C2E0",
"9*	c #688BB1",
"0*	c #B4BECF",
"a*	c #F5FBFC",
"b*	c #ACC4D0",
"c*	c #C4D2DD",
"d*	c #B3C1CD",
"e*	c #C6E2EB",
"f*	c #D8EAF3",
"g*	c #E1EAF0",
"h*	c #E6EDEF",
"i*	c #E7EDF1",
"j*	c #C2D0D9",
"k*	c #A3C6E1",
"l*	c #96DBF2",
"m*	c #76BEDE",
"n*	c #5885BA",
"o*	c #859CB6",
"p*	c #6686A7",
"q*	c #A8B9C2",
"r*	c #A0BFCE",
"s*	c #BEE4F2",
"t*	c #CEE6F2",
"u*	c #D5E2EB",
"v*	c #DEE8ED",
"w*	c #C3D7E2",
"x*	c #A4CCDB",
"y*	c #8AD8F2",
"z*	c #62BCE5",
"A*	c #4881C4",
"B*	c #699AC5",
"C*	c #D7E6EC",
"D*	c #7BD2DC",
"E*	c #0D4597",
"F*	c #C9D2D8",
"G*	c #D5DEE6",
"H*	c #84AFC3",
"I*	c #9CC6DF",
"J*	c #B6E2F2",
"K*	c #C0E6F5",
"L*	c #C8D8E7",
"M*	c #F1F7FB",
"N*	c #F0F9FB",
"O*	c #D5DCE3",
"P*	c #C9E3EE",
"Q*	c #B2EBF5",
"R*	c #8ADCF3",
"S*	c #59B6DA",
"T*	c #2F8AD2",
"U*	c #7795AB",
"V*	c #67A9D8",
"W*	c #577799",
"X*	c #ECF5F9",
"Y*	c #8B96A1",
"Z*	c #6D86A3",
"`*	c #96D8E1",
" =	c #AFE0ED",
".=	c #B9E4EF",
"+=	c #BED5E5",
"@=	c #D1DAE6",
"#=	c #BFCAD4",
"$=	c #D6EDF5",
"%=	c #B6E7EE",
"&=	c #5FB6CB",
"*=	c #79E9F4",
"==	c #2868B8",
"-=	c #309FE1",
";=	c #72B2EC",
">=	c #4A6998",
",=	c #8897AA",
"'=	c #668DAE",
")=	c #BCE9F4",
"!=	c #C1EAF4",
"~=	c #ACD5E2",
"{=	c #ADCADE",
"]=	c #C6D8EB",
"^=	c #D3DDE7",
"/=	c #EBF1F6",
"(=	c #F2F9FC",
"_=	c #DFEAEC",
":=	c #E5EFF3",
"<=	c #AFBCD0",
"[=	c #A6C2D7",
"}=	c #BFDEF0",
"|=	c #BBE6EE",
"1=	c #A9D7E7",
"2=	c #718599",
"3=	c #495E76",
"4=	c #3C7CC3",
"5=	c #215DB5",
"6=	c #2F72CA",
"7=	c #427BC7",
"8=	c #3D5680",
"9=	c #83A2BC",
"0=	c #CDF2F9",
"a=	c #B9E0F3",
"b=	c #A6C5E3",
"c=	c #AEC0D7",
"d=	c #BCC8DB",
"e=	c #F7FAFD",
"f=	c #F1F9FB",
"g=	c #D7E2E5",
"h=	c #E0E9EC",
"i=	c #DFE8EA",
"j=	c #DCF0F6",
"k=	c #A2B0C8",
"l=	c #8AB0D3",
"m=	c #8AB2CC",
"n=	c #C9E4ED",
"o=	c #4A749A",
"p=	c #355386",
"q=	c #456489",
"r=	c #58789A",
"s=	c #34598D",
"t=	c #4A799D",
"u=	c #88B1CC",
"v=	c #A8D0E9",
"w=	c #86A7D3",
"x=	c #93A6CC",
"y=	c #A5B2CC",
"z=	c #D9E1E7",
"A=	c #F8FBFE",
"B=	c #DEE7EB",
"C=	c #F1F6F8",
"D=	c #DCE5EC",
"E=	c #91A5C5",
"F=	c #86B3EB",
"G=	c #6594CB",
"H=	c #86ABE0",
"I=	c #C9F3FA",
"J=	c #4A9DE4",
"K=	c #21498A",
"L=	c #4170B8",
"M=	c #5A9DC0",
"N=	c #5E95CD",
"O=	c #6E9DD9",
"P=	c #7993C7",
"Q=	c #8AA0C0",
"R=	c #D4DCE2",
"S=	c #F7FCFD",
"T=	c #E5ECF0",
"U=	c #EFF4F5",
"V=	c #D9E7EC",
"W=	c #788AAD",
"X=	c #6798D9",
"Y=	c #639DE5",
"Z=	c #C8EAF4",
"`=	c #1D478A",
" -	c #1F4F8E",
".-	c #447DBB",
"+-	c #4F9ED7",
"@-	c #5596D6",
"#-	c #5F81BE",
"$-	c #7285AB",
"%-	c #CED9DF",
"&-	c #F7F9FA",
"*-	c #F6F8F9",
"=-	c #EDF2F4",
"--	c #F2F6F6",
";-	c #E4E9ED",
">-	c #7689AA",
",-	c #537ABB",
"'-	c #4C80C8",
")-	c #68A9D8",
"!-	c #276BC5",
"~-	c #94CBF2",
"{-	c #2C558B",
"]-	c #2F68A8",
"^-	c #448BC9",
"/-	c #4A80CA",
"(-	c #4C75AD",
"_-	c #6786A5",
":-	c #D6DFE6",
"<-	c #FBFCFC",
"[-	c #F9FBFB",
"}-	c #F5F7F3",
"|-	c #F3F6F2",
"1-	c #F1F5F8",
"2-	c #F3F9FB",
"3-	c #5B7FB1",
"4-	c #467DC7",
"5-	c #D9F3F8",
"6-	c #387CD3",
"7-	c #396899",
"8-	c #3D88C9",
"9-	c #487FD3",
"0-	c #4672A9",
"a-	c #BED4DF",
"b-	c #F7F9F5",
"c-	c #F4F6F4",
"d-	c #EFF3F2",
"e-	c #ECF1F4",
"f-	c #E2E8ED",
"g-	c #ECF4F8",
"h-	c #FBFCFD",
"i-	c #E4E8EC",
"j-	c #5B6F91",
"k-	c #376CB6",
"l-	c #839AB5",
"m-	c #244B97",
"n-	c #1E66C2",
"o-	c #2752A4",
"p-	c #396CA6",
"q-	c #4E769B",
"r-	c #A0B0BF",
"s-	c #E6EAED",
"t-	c #FAFDFE",
"u-	c #F2F6F5",
"v-	c #ECF0F1",
"w-	c #DDE3E9",
"x-	c #C9D4DA",
"y-	c #B0BBC6",
"z-	c #E4E8EB",
"A-	c #48668A",
"B-	c #6A9ACD",
"C-	c #556A8E",
"D-	c #0D357A",
"E-	c #18479B",
"F-	c #143B95",
"G-	c #76B6CB",
"H-	c #425C8A",
"I-	c #98AAB9",
"J-	c #8BA0B9",
"K-	c #9DB4C4",
"L-	c #F0F4F8",
"M-	c #C6CED6",
"N-	c #CFD8E0",
"O-	c #AFBFC8",
"P-	c #A4B6C0",
"Q-	c #E5E9EC",
"R-	c #4A5F77",
"S-	c #C8DAE6",
"T-	c #64ACE3",
"U-	c #0D3685",
"V-	c #133B8C",
"W-	c #144494",
"X-	c #96A8B8",
"Y-	c #849BB5",
"Z-	c #9CB0C9",
"`-	c #8391A7",
" ;	c #DFE7EB",
".;	c #EBEDF0",
"+;	c #ECEEF0",
"@;	c #BBC4CE",
"#;	c #CAD6E0",
"$;	c #8091A3",
"%;	c #B6C4CF",
"&;	c #B6C7D4",
"*;	c #697B97",
"=;	c #B8D9E8",
"-;	c #8BBBE9",
";;	c #5082D0",
">;	c #37CEDF",
",;	c #30B2E4",
"';	c #0B2A79",
");	c #A7B2BF",
"!;	c #A7BDD2",
"~;	c #99BCD7",
"{;	c #818FA5",
"];	c #F6FBFD",
"^;	c #EFF3F4",
"/;	c #B9C9D5",
"(;	c #C4D1DC",
"_;	c #D8E6EC",
":;	c #96ACB7",
"<;	c #65A5E8",
"[;	c #0E308A",
"};	c #9CB8C9",
"|;	c #8596A6",
"1;	c #F7F9F7",
"2;	c #E5F2F8",
"3;	c #ADC3D5",
"4;	c #CDE5EE",
"5;	c #071C65",
"6;	c #7EACC9",
"7;	c #7F98B2",
"8;	c #F4F9F9",
"9;	c #CAD6E3",
"0;	c #9CBCD3",
"a;	c #CDF3FA",
"b;	c #EDF5EE",
"c;	c #1A346C",
"d;	c #38D2E8",
"e;	c #198FD3",
"f;	c #8BBBD9",
"g;	c #7E9EC0",
"h;	c #C3D0D8",
"i;	c #F3F6F5",
"j;	c #EAF0F0",
"k;	c #C4D2E0",
"l;	c #82AAC5",
"m;	c #ADD9E8",
"n;	c #BBD2DE",
"o;	c #97C8E6",
"p;	c #80BBE7",
"q;	c #779ABF",
"r;	c #C3D0DB",
"s;	c #E8F1F3",
"t;	c #E9F1F3",
"u;	c #F4F7F5",
"v;	c #BED2DF",
"w;	c #79B2C4",
"x;	c #ABD8E8",
"y;	c #A9DBF3",
"z;	c #81BBE7",
"A;	c #739CB6",
"B;	c #BBD0DC",
"C;	c #EBF0F1",
"D;	c #BBD0DE",
"E;	c #71A3CC",
"F;	c #B8E9F5",
"G;	c #85BAE6",
"H;	c #C8D4DB",
"I;	c #96CCF2",
"J;	c #83BCE7",
"K;	c #7895B6",
"L;	c #BECEDD",
"M;	c #E7ECEF",
"N;	c #AEC4D2",
"O;	c #7AA0BE",
"P;	c #B7F2FB",
"Q;	c #97CCF2",
"R;	c #86BDDB",
"S;	c #7C99B9",
"T;	c #C3D5DD",
"U;	c #F1F7FA",
"V;	c #B8CFDC",
"W;	c #7AA1BF",
"X;	c #B7E9F5",
"Y;	c #ABDCF3",
"Z;	c #8BBFE8",
"`;	c #839DBB",
" >	c #C5CFDA",
".>	c #EBF1F3",
"+>	c #E3E9EC",
"@>	c #BCD1DE",
"#>	c #7DA2C0",
"$>	c #1B5AB4",
"%>	c #8695A8",
"&>	c #7AB8D8",
"*>	c #8FC9E8",
"=>	c #85B6E6",
"->	c #8EA5C1",
";>	c #CCD9E1",
">>	c #E5EAEE",
",>	c #C0D3E0",
"'>	c #769ABF",
")>	c #98CCF2",
"!>	c #98D8E8",
"~>	c #1C54AB",
"{>	c #5EACE5",
"]>	c #72B1E4",
"^>	c #88B7DE",
"/>	c #97A8BD",
"(>	c #D1D9E1",
"_>	c #E5EAED",
":>	c #B9CBD8",
"<>	c #7892AD",
"[>	c #82C9DB",
"}>	c #89C9DA",
"|>	c #418AD4",
"1>	c #6EB1E7",
"2>	c #84ACD1",
"3>	c #9CACC0",
"4>	c #D4DBE3",
"5>	c #D3E0E8",
"6>	c #98A4B2",
"7>	c #7BA1BF",
"8>	c #7DB9D9",
"9>	c #79B8E6",
"0>	c #2A7AC4",
"a>	c #397EC6",
"b>	c #5B94CD",
"c>	c #7B93BA",
"d>	c #B0C1D2",
"e>	c #F6FAFA",
"f>	c #D4E8F1",
"g>	c #719CBB",
"h>	c #6EACE3",
"i>	c #286CBB",
"j>	c #437DC9",
"k>	c #5D7FAF",
"l>	c #86A2BB",
"m>	c #DFEBF0",
"n>	c #F1F8FA",
"o>	c #F5F7F6",
"p>	c #DCE9EE",
"q>	c #7D97B1",
"r>	c #5C8BB7",
"s>	c #0D2869",
"t>	c #3E7DC3",
"u>	c #758BAB",
"v>	c #CEDDE8",
"w>	c #CBE5EE",
"x>	c #6089AC",
"y>	c #5183D0",
"z>	c #071D5A",
"A>	c #407CD2",
"B>	c #4A7AA7",
"C>	c #617FAA",
"D>	c #D8E7ED",
"E>	c #F2F7F6",
"F>	c #F6F8F8",
"G>	c #F9FAF7",
"H>	c #CBD3D9",
"I>	c #4C6A99",
"J>	c #5898E4",
"K>	c #587AA7",
"L>	c #EBF0F4",
"M>	c #F9FAF5",
"N>	c #B8C6D0",
"O>	c #4D6B99",
"P>	c #395C97",
"Q>	c #9BAFC9",
"R>	c #F9FBF7",
"S>	c #EFF1F4",
"T>	c #C4D2DC",
"U>	c #7193B2",
"V>	c #6CABD9",
"W>	c #83A9DF",
"X>	c #5699D6",
"Y>	c #6F9ABB",
"Z>	c #C2D6E1",
"`>	c #FCFDFF",
" ,	c #EDF2F3",
".,	c #E0E7ED",
"+,	c #A7AFBB",
"@,	c #789FB8",
"#,	c #63ABD8",
"$,	c #589AD6",
"%,	c #65ACE3",
"&,	c #7BAFD8",
"*,	c #8C9AAA",
"=,	c #D8DEE3",
"-,	c #D1DCE4",
";,	c #859BB3",
">,	c #6293BF",
",,	c #4EA7D8",
"',	c #4A99D5",
"),	c #5E80B1",
"!,	c #B8CCD7",
"~,	c #F7FAF7",
"{,	c #F7FAF9",
"],	c #C9D6E0",
"^,	c #758EB2",
"/,	c #4B8DCA",
"(,	c #3273CA",
"_,	c #406B9A",
":,	c #94ADBF",
"<,	c #BDC6D5",
"[,	c #465F9E",
"},	c #24429A",
"|,	c #23589A",
"1,	c #7E9EBA",
"2,	c #F2F3F5",
"3,	c #AEBDCA",
"4,	c #2B437D",
"5,	c #1B3B88",
"6,	c #2B4E98",
"7,	c #8CAEC7",
"8,	c #E7F6F9",
"9,	c #CCD5DB",
"0,	c #4E648E",
"a,	c #5889B6",
"b,	c #1A3D99",
"c,	c #467DC8",
"d,	c #516690",
"e,	c #BBC8D2",
"f,	c #F9FBFD",
"g,	c #F6F8F5",
"h,	c #6381AB",
"i,	c #59A5CA",
"j,	c #3B88C8",
"k,	c #5FAFF2",
"l,	c #548ED7",
"m,	c #697EA4",
"n,	c #B6BFCA",
"o,	c #F5F7F4",
"p,	c #9FB2CB",
"q,	c #4478AE",
"r,	c #3A7DD3",
"s,	c #4D99D5",
"t,	c #4B9DD7",
"u,	c #5C89BF",
"v,	c #ABBBD1",
"w,	c #F3F6F4",
"x,	c #8DAEC7",
"y,	c #4A88BA",
"z,	c #2B6CC5",
"A,	c #417FD4",
"B,	c #4B81CA",
"C,	c #6B89B5",
"D,	c #ACC2D1",
"E,	c #EEF5F9",
"F,	c #ECF4F1",
"G,	c #F2F6F8",
"H,	c #F4F7F4",
"I,	c #9AAFC9",
"J,	c #859DC0",
"K,	c #607CA2",
"L,	c #1A3D96",
"M,	c #3659A6",
"N,	c #466AB0",
"O,	c #607297",
"P,	c #B7C5D0",
"Q,	c #F2F8F9",
"R,	c #F0F3F7",
"S,	c #F3F6F6",
"T,	c #F0F4F5",
"U,	c #9AAEC8",
"V,	c #2F4E7C",
"W,	c #5898C7",
"X,	c #97D8F3",
"Y,	c #6E8BAA",
"Z,	c #455686",
"`,	c #65779A",
" '	c #B8CADA",
".'	c #EDF4F5",
"+'	c #F0F6F4",
"@'	c #E8EEF0",
"#'	c #F0F4F7",
"$'	c #F3F5F9",
"%'	c #8998AA",
"&'	c #89ABC5",
"*'	c #5A9BD7",
"='	c #7BB0D8",
"-'	c #92C0E7",
";'	c #778BAB",
">'	c #A5BFE5",
",'	c #F7F9F6",
"''	c #CED7DC",
")'	c #829DB1",
"!'	c #8CB6CB",
"~'	c #548CC8",
"{'	c #1D4CA5",
"]'	c #275EB5",
"^'	c #3665B7",
"/'	c #5D93D8",
"('	c #6B9ADA",
"_'	c #7C9BC4",
":'	c #8BA6C9",
"<'	c #A7B5C7",
"['	c #D8E1E6",
"}'	c #EEF3F3",
"|'	c #EDF3F4",
"1'	c #F9FCFD",
"2'	c #C3CFD8",
"3'	c #6F7D8E",
"4'	c #5D6E82",
"5'	c #325189",
"6'	c #477DB6",
"7'	c #224B9C",
"8'	c #2E4898",
"9'	c #405DAA",
"0'	c #506EB3",
"a'	c #637DB7",
"b'	c #7687B7",
"c'	c #8996B2",
"d'	c #99A5B8",
"e'	c #B9C2CC",
"f'	c #E7EDEF",
"g'	c #F5FBFD",
"h'	c #A5B7C1",
"i'	c #9DAEBD",
"j'	c #8DA9BC",
"k'	c #324F7D",
"l'	c #112166",
"m'	c #488AD6",
"n'	c #3D7ED3",
"o'	c #34539A",
"p'	c #394E8D",
"q'	c #4A517A",
"r'	c #5C6691",
"s'	c #6D769A",
"t'	c #7F869D",
"u'	c #A5B1BF",
"v'	c #BBCEDC",
"w'	c #E1E8ED",
"x'	c #F3FAFB",
"y'	c #ABB6C2",
"z'	c #8B99AB",
"A'	c #849BB6",
"B'	c #294C87",
"C'	c #102166",
"D'	c #205BB4",
"E'	c #2A69C3",
"F'	c #336BB6",
"G'	c #3E63AF",
"H'	c #495696",
"I'	c #7685A0",
"J'	c #9FABB9",
"K'	c #A6B1BE",
"L'	c #A4B5C7",
"M'	c #EBF2F5",
"N'	c #FDFDFE",
"O'	c #3A547F",
"P'	c #24356D",
"Q'	c #2D4D87",
"R'	c #284D98",
"S'	c #193D8D",
"T'	c #254FA6",
"U'	c #3559A6",
"V'	c #3A61AF",
"W'	c #4457A1",
"X'	c #4F5F94",
"Y'	c #5F6C92",
"Z'	c #8E9BAE",
"`'	c #EDF4F6",
" )	c #F3F5F6",
".)	c #CED6DB",
"+)	c #5A6B80",
"@)	c #455D8B",
"#)	c #415A8A",
"$)	c #213D7B",
"%)	c #1C3B7A",
"&)	c #2069B8",
"*)	c #2A6CC5",
"=)	c #316BB9",
"-)	c #2C448B",
";)	c #324180",
">)	c #3C4C92",
",)	c #4A5B93",
"')	c #5A6C97",
"))	c #7588AA",
"!)	c #7D90AF",
"~)	c #8C98AD",
"{)	c #9EAAB9",
"])	c #E8EDF0",
"^)	c #E9F1F4",
"/)	c #DAE8EE",
"()	c #CCDCE8",
"_)	c #647695",
":)	c #56687D",
"<)	c #5C6F91",
"[)	c #465F8B",
"})	c #566B8F",
"|)	c #658EB7",
"1)	c #5DAEF2",
"2)	c #6BC7E7",
"3)	c #367BBA",
"4)	c #4172BB",
"5)	c #4B6AA0",
"6)	c #637598",
"7)	c #7886A0",
"8)	c #8095AD",
"9)	c #929FB1",
"0)	c #ABB5C2",
"a)	c #E8EBEF",
"b)	c #F5F8F6",
"c)	c #EEF1F3",
"d)	c #FBFCFE",
"e)	c #EDF5EF",
"f)	c #88A0C1",
"g)	c #6C9BC6",
"h)	c #3574CA",
"i)	c #255EB5",
"j)	c #1F5BB4",
"k)	c #5EAFF2",
"l)	c #6AAEE3",
"m)	c #537DBA",
"n)	c #5E74B0",
"o)	c #8197B8",
"p)	c #DCE9EF",
"q)	c #EEF2F6",
"r)	c #F9FAFB",
"s)	c #EFF3F7",
"t)	c #FAFCFC",
"u)	c #E5E9ED",
"v)	c #7988A1",
"w)	c #586C93",
"x)	c #3A4E8E",
"y)	c #344980",
"z)	c #2B3F8E",
"A)	c #28417C",
"B)	c #243F7B",
"C)	c #23396E",
"D)	c #203E88",
"E)	c #1C3B88",
"F)	c #25438E",
"G)	c #3C589B",
"H)	c #4B6693",
"I)	c #6479A4",
"J)	c #6C7590",
"K)	c #8EA0B4",
"L)	c #F4F8F6",
"M)	c #F5F9F8",
"N)	c #EBEFF2",
"O)	c #D0DBE1",
"P)	c #8B96A7",
"Q)	c #8692A3",
"R)	c #7F8EA4",
"S)	c #7C8BA2",
"T)	c #7989A0",
"U)	c #667897",
"V)	c #3F4D78",
"W)	c #3C4B77",
"X)	c #384875",
"Y)	c #324373",
"Z)	c #304272",
"`)	c #5E7193",
" !	c #75859E",
".!	c #7D8CA3",
"+!	c #8995AA",
"@!	c #9AA4B3",
"#!	c #A9B3BF",
"$!	c #DBE7F0",
"%!	c #F1F9FC",
"&!	c #EBF3F6",
"*!	c #E5ECEE",
"=!	c #E9EFF0",
"-!	c #EFF2F4",
";!	c #BBC5D3",
">!	c #BDC9D3",
",!	c #BBC9D3",
"'!	c #B7C2D1",
")!	c #BAC8D2",
"!!	c #F0F6F7",
"~!	c #EEF2F5",
"{!	c #F9FCFE",
"]!	c #FAFBFD",
"^!	c #F6F9F6",
"/!	c #F5F8F5",
"(!	c #FDFEFF",
"_!	c #F1F5F7",
":!	c #F6F8F6",
"<!	c #E1E9ED",
"[!	c #E1EBED",
"}!	c #FEFEFE",
"|!	c #D7E5E8",
"  . + @ @ @ # # # $ $ $ $ $ % & * = - ; ; > , , ' , ' , ) ! , ! ~ ~ ! ! { ] ] ! ^ ; ~ ; ^ ^ ; ; ; ^ ; ; / / { { ( _ ! { ^ : ' : ^ ^ { _ { ^ ! ! ^ ^ ! ~ ~ ~ ; ^ ! ] ] ( ] ; ; ; < [ } | 1 2 3 3 4 5 6 7 ",
"8 9 0 a ^ b c d c e e e f g [ < h ] ! ; ; ^ , , ' ' , ) ) , ; ! ! { _ ( _ ! ! ! ^ ; ; > > { ; ; ; : : : ~ i ^ { j k _ _ ^ ~ : ) ! ^ ^ ] _ _ ! { ^ ! { { ; ~ l l ~ ^ ! ] ! ! ^ ! ^ ; m n b o p q r s 5 6 ",
"[ t u v = w x - m , l : ; { ! ! y ( ] ^ l : ' ' , ' , , , l ~ ) ( j z ( ] ! ~ l ; ^ ! { ! ] { ^ ; : A B B C D _ _ k _ _ ! ! ] y { ^ ; ^ ] j ! ~ ~ : ; { { ^ : : ~ ~ ; ^ ! ; ! ; ~ : : ~ B c E p q r s 4 ",
"} F G H h I I J { ! l : ! { _ _ ] y ) ) : : ' ' ' , , ' : ' : ^ ] _ ( ) ^ ; l ~ ~ ^ { { > ] ] ^ ; K L : M } N O _ { { _ _ ( k _ ] { ^ > { ] ! ; : : ~ ^ ] ] ~ l ; ; ^ ^ > ! ] ] ^ ~ ~ : ~ m } E p q r P ",
"B h J y { { ^ ! ! ! ^ ~ { { ^ ~ l ) ^ : ' : : ' ' , , ' ' ' ' l ; > { { l : ; l : ; ^ ^ > { { ^ Q R S T U V } < ; ! { { ( z z k ( ) ; > ^ > { > ~ : : ^ ! { ; ; , ; ! ! ^ ^ ! ) ^ ; ^ ; ^ ; m W a X p Y ",
": l ; ! ^ ! l l ~ ~ ! ] ( y ; : : , l ' ' ' ' : , ) , ' ' ' : , ~ ; ; ^ ; l ! ; ; ; ; : ; ^ ^ { Z `  ...+.0 @.n ; : : l ~ _ _ { ^ l l l l l l ; ^ ~ l ; ; ; ; ; ; l ^ ) ; ^ l : ; ; ; ^ ! > ; m } #.$.%.",
"~ l ; ; ! ! l l ; ! ! ! ] ] ! ~ : : : , , ' ' , , , ' ' ' ' ' , ; , ; : : ^ ! ! { ! ; : ; ; ; &.*.=.-.;.>.,.'.} : ' : : ^ ! ! ^ ; l l ; l l l ; ! ! ; l ; : l l , ; { ! ; ! ; ~ ^ ! ! ! > { { ).x !.~.{.",
"{ ! { ! ; { ] ] ; ~ ^ ^ ; ; ! ] ] ; , > , , : : , ' ' , ' , , , l l ; ~ ~ ! { _ j { ^ ^ ^ l l ].^./.(._.:.@.<.a W l l l ~ ^ ^ ^ { > ^ ^ ; : ; { _ y ! l l : : : l > ! ; ; ! y ! { ( _ ] { ] { ! ).[.& [ ",
"^ ^ ^ ^ > ] y ) ; ~ ; ^ ^ ; ^ { j ( ; ; ^ ; l , l l l , , l l > : : l : : ^ k k z _ ! l , m }.|.1.2.3.4.5.6.7.8.9.0.l l : l ; > { a.y ^ ^ ^ ] y y ) ^ l : ' ' ' : , l ; ~ ; ! _ _ { { ^ ; ; ! ^ ! / = b ",
"~ ^ { ] ( { ^ , ; ~ ; ! ! ~ ; ; { ( ^ ^ { ^ , , l l l , > > > ; : : l l ~ ^ k k z { ^ ; / b.c.d.e.f.g.h.i.j.k.e b e l : : l l > { y { { { { ] ] > ^ , : : ' ' ' ' : , ; ^ ! _ k { ; : ~ ; ^ > ! ^ ^ [ c ",
"; { a.a.] ^ : : ; ; ~ ! ] l : : l > ^ ] { ; ; > > , , , > > l , l l ^ ^ ^ ! ( _ ( ^ ; l l.m.n.o.p.q.r.s.t.u.v.w.x.y.e : ' : : , > ; ; ^ ; l ; ! ^ ; ^ : ' l l l : ; ; > { _ k a.] ^ : l ^ ] j ] ! ! h g ",
"< ^ ] j _ l ' : ; ^ ! ( ] : : : l l ^ > ~ : : : ) > > > l l l l , l , ^ ! { { _ ] ^ 0.l T z.A.B.C.D.E.F.G.H.I.J.K.L.c B : ' ' l l l ; ; ; ; ^ ^ ^ l , , : : l ^ y ) > : : ~ _ j { ^ : : ; ! { { > ! ^ m ",
"e : > ] ! : : l ; ! k ( ! : : l , ^ l , l ' ' l > ] ] > > , , > > , , ^ ^ > { y M.g c N.O.P.Q.R.S.T.U.V.W.X.Y.Z.`.. $ c ' ' ' l ^ ! ^ ; ; ; ; ^ ; l ; ^ : , ; > y ) , ' ' l { { ^ ^ ^ ~ ^ ! ^ ! { > ~ : ",
"c B : ^ l : , , ! ] y _ ] l ^ ^ , : : ' ' ' ' l ) ] > l , , , > > > ; l ; ^ > N w  +: .+++@+#+$+%+&+*+=+-+;+>+,+'+)+@ $ B ' : , { ! ; ; ; ^ ; ^ ^ l ^ ^ , , ] ] { { l ' ' : ; { ^ ^ ^ ^ { _ _ j k > ^ ^ ",
"e C , l l l ] k ( ] { ] { ! ) { > , ' ' ' ' l l ] { , l l , , ; { { ; : l ; m m !+'.R ~+{+]+^+/+(+_+:+<+[+}+|+1+2+3+K.4+5+' : > { { > ; ; > ! ^ ^ ^ ^ , ; ; > y y > ' ' ' : l ; ^ ! ^ ^ ; _ k a.a.y { { ",
"6+7+: : : ; ( z _ ! y { ! ! ^ ! > : l ' ' ' l l ] y ] , l : : : > { ^ ; l 0.e 8+e m 9+0+a+b+c+(+d+e+f+g+h+i+j+k+l+m+n+o+p+c l > > y _ { { { ^ ^ ^ ^ ^ > { { > { { > ' : : : : ; ^ ! ! ^ ^ ! _ _ y > ! ! ",
"e l ; ^ ^ ! ( z k _ _ ! ! ^ ^ ^ ! ^ ^ ; ; l ; > z a.( > : ' ' ' : , ^ : B d y.Y q+r+s+t+u+v+w+x+y+z+A+B+g+h+C+D+E+F+G+H+I+!+0./ ^ ) ) > > > ; ! ; ; > { > ; ; l : ^ l , l , l l ^ ^ ^ ^ ^ ; ^ ^ ^ l l l ",
", , ] j ( _ _ z _ ! ! _ k ( ! ( k _ ! ! > _ j { ( z _ ! : : : ' ' ' l e 5+Y J+K+L+M+N+O+P+Q+W.R+S+z+T+U+V+W+X+Y+Z+`+ @.@+@@@3 f , , ; l l ; , ; ; ! ; ! ; : : : : : , ; ; l ! ! ^ ^ ^ { ^ ~ { { l : l , ",
"l ; { ] _ _ ] { ^ ; ! ! ] _ _ ( ( ] ! ] ] { ] ! { y { ! ; ^ ; : l ' e 5+p+#@$@%@&@*@=@-@;@>@S+,@'@)@!@B+~@{@]@^@/@(@_@:@<@[@}@|@f : : , ; , , ^ > ; ; > { > l ' ' : l > > ; ! ; ~ { ] { ] { { { l : l l ",
"l : ^ > ; ^ ; ; ^ ^ { _ _ _ ! ! ! ! ! _ _ ! ! ! : l ; > { { { > 7+B $ 1@; 2@3@4@5@6@7@8@}+'@'@'@S+z+9@0@~@~@{@]@a@b@c@d@e@f@}.f 6+: ' , , , ; > ! ; ^ ! ] ( y ^ : : , , > > ; : ~ { { { ( { { ! l l l l ",
": : : : ~ : : : ; ^ k a.k ( { { { { _ j _ ! ~ ; ' ' ' { a.y ).x 6+5+}@g@2@h@i@j@k@l@m@y+n@o@p@'@q@r@s@0@B+t@0@V+U+u@v@w@x@y@z@A@1@c B : : , ; > > { { y ! ! y y ) l , l ^ ] ; : ^ { { { ] ! { ! ; ; l l ",
": : : ~ ^ ~ ~ : : ; _ j { ; l l ^ ^ ^ ^ ! ; : : : : ; y J N w & 3@1@B@0.C@D@E@F@G@H@z+I@J@K@K@o@'@L@s@t@0@V+B+M@=+N@O@P@Q@R@S@T@U@Y |@B , > ] y > ! y ( > l ; > > , ) > > y > : ^ { ( ( _ { _ { > ; ^ ; ",
"; ; ^ _ { ! ^ : : ; ! y { ^ : : ; l l l l l l l ~ ; { V@x w W@X@< Y@Z@`@ #.#+#@###a@$#z+%#J@&#*#n@L@s@V+V+=#q@-#;#>#,#'#)#!#~#{#]#^#/#(#_#:#V@{ { ; ! { > ^ , , l > { ) > ) { > ; ~ ( ( ( y ! ^ : ; > > ",
"; > { { { ! ^ ^ ^ ^ ; { y { ; l l : l : l l l ; ; ! N w = ^ '.<#[#}#|#1#2#3#4#5#6#t@7#$#8#%#%#J@8#)@<+>#9#0#<+a#b#c#d#e#f#g#h#i#j#k#l#+.^ c m N y ! l : ; ; l : l l l > > > { { ; , ^ ] _ ^ : : : ; > > ",
"l ; ! ^ ; ! ; { y { ; { y y { > ^ l ^ l , ; ; ; > m#w & a n#q o#a b p#q#r#s#t#a@u#v#9#7#>#q@z+%#L@w#<+a#r@x#y#z#A#A#B#C#D#E#F#G#H#I#J#K#L#a % w H J > l : : : : l l l > > l l , , , l , , l : ~ ~ ; ; ^ ",
"> ^ ^ ; l ; ] { { ; ; ^ { { { ] > l l , > { ] > C W b 1@M#N#r r U@n#O#P#Q#R#S#u#T#~@'@~@T#U#$#L@)@e+r@r@V#W#X#A#A#Y#Z#`# $.$+$@$#$$$%$&$N#8 [ @.} [ ^ l : : l : l l l > , l l : ' l l ' l l ~ : ; ^ { { ",
"y ! ; ; ; ] ( { { ^ ~ > ] > ^ { > , : l , { I _#*$b 1@@ N#. =$-$n#;$>$,$'$I@)$!$7#~@=+u#~$~@T#a#!@{$r@]$^$/$($_$z#7#:$<$[$}$|$1$2$3$4$5$4 k#p 0 6$= m l : l l l l l l , l l l l ' ' ' ' l ; ; ; ; > { { ",
"^ ^ ; : ; ] ] y { ! ; { _ ^ ^ ! > : ' : : h x & #.7$B@)+8$9$0$a$b$c$d$e$f$f$w#=+g$W+'@u#'@v#~$>#T#h$y#z#X#i$j$_$/$:$k$<$~$l$m$n$o$p$q$r$s$s$k#p 9 #.t$m > , ; ^ , , , l : l l l ' ' ' ' l ^ ^ ; ~ ~ ~ : ",
": ~ : : ~ ! ! ! ! ^ ! { ^ ^ ; ! ] l : ' ' f *$5+n#u$v$w$x$y$z$A$B$C$C+f$e$D$w#=+7#W+E$~@v#&#F$v#G$H$z#/$I$j$J$/$_$]@K$L$M$p@p@N$O$P$Q$R$S$T$.@U$V$+.C & H { ! { { > ^ ; l ' ' l l ' l ' > > { ^ ; : ' ' ",
": ~ ~ ~ ^ ^ ^ ; ^ ! _ { ; ; ; _ a.> , : : c 5+1@+ m W$X$Y$Z$A$`$ %]$w#e$[+.%I@=+7#L$+%u#@%F$#%#%M@g$$%i$I$I$$%B#%%]@&%L$M$,@0@t@9#*%=%Q$-%;%>%,%'%0.p C )%- ! > > { ] ^ l ' l ' : : l , ^ ] ] ^ ; : ' ' ",
"! { y y ! ; ~ ~ ^ _ ] ! ; ^ ^ ; ] { > l 6+!%1@B@)+~%{%]%^%/%(%{ _%:%f$I@<+.%w#q@9#L$L$'@v#<%-#[%E$<%]@I$}%J$B#H$W+K$$%L$v#M$|%B+9#1%2%3%4%5%6%7%8%9%0%a%b%w < ! y { ^ ^ > > , l l : , : l > > l , , : l ",
"^ ! y { ^ ^ ~ ~ ; ^ ^ ^ _ ! ! ^ ] ) ^ B 5+1@c%=$d%n+e%f%g%h%i%B$j%e$I@I@!@)@I@#%v#]@L$'@9#M@r@f$r@!$~@k%}%l%B#T#m%Z#&%n%v#~$<$<$o%E$=#p%q%r%s%t%u%v%w%x%y%u F z%k { ^ > ^ , > , > ; : : : ; ; l : ; l : ",
"; ; { ! ! ; ; ; l l , , > ^ ; { ) { 7+e y.A%B%-$T$C%D%E%S#W#F%G%[+f$)@8#q@L@I@%#=+]@l%H%'@$#<+e+f$;#o%|%I%&%J%K%m%&%K$n%v#9#<$:$m%E$K%>#L%M%N%O%P%Q%R%S%l#W@T%U%{ ! ^ ^ ; ~ l ; ^ ; : : : ; l : l l ' l ",
"! ! ! ; l ; ; : : : : : l ; ; ! { / 6+5+}@V%W%X%Y%Z%`% &#%]@.&+&e$f$L@'@'@!$-#I@!@]@i$B+'@o%<+e+f$z+u#<$}%J$]@<%L$@&#&$&v#%&<$&&:$K%<%]@*&=&-&;&>&,&'&)&!&~&C w < ; ^ { ; ~ l ; ^ ; ~ ; { > l l l l l l ",
"] > ! l : : : : : ' ' , ; ] ) ] { C 6+{&]&)+^&  /&Z+(&8##%~@b#_&e$)@8#p@'@G$A+I@{$]@i$7#v#<%A+r@e$w#%&<$|%V+:&=#J$@&:$n%9#T#<$|%I%<&~@B+L$o%E$[&}&|&1&2&3&$@n#E 4&^ ! ^ ; : ; ; > { { { ] { ^ ^ l , : l ",
"> ; ; ~ ; ~ : : : : : l ; ) ! ! ; B 5+5&K+6&7&8&9&0&<+L@L@o%+%.&e$J@S+p@,@B+a&I@r@o%<$J$V+'@a#.%b&b&%&:$L$<%9#k$_$c&#&|%u#<$L$:$:$]@n%V+p%h$M@)$d&e&f&g&h&i&Y% +4&).{ ^ ^ ; ^ { { y a.y { ] { > l , , l ",
"l ~ ; ; ^ ; : : ' : : : l ; ; h g c N#j&Y 0$y$8&k&l&e+e$r@!$m&_&b&p@S+'@'@~@a&I@I@;#0@J$~@~$G$r@f$n&=#g$L$<%V+I$$%|%|%|%9#L$L$|%:$]@n%~$p%_%r@o&M@p&q&r&s&=$t&L#n ^ ^ { ^ ^ { { { > ] ! ^ ^ ; ; l > ] { ",
"~ l ^ ! > > ~ : l > > , ; l ! ; e : u&v&w&x&y&A$z&A& %B& %C&D&^@w#=+p@'@@%~@%&f$f$#%t@<$~@M$o%x#o&n&K%7#%%<%V+I$$%|%#&|%m%L$L$J$&&W+7#9#E&y#:%b&9@%&F&G&  5 N#; N H&^ ^ ^ ~ ^ ( > ^ ! ^ ^ ^ ; ; ; y y a.",
"- M.! ! { { ; , , > ^ , l l ; g I&J&K&L&N n#M&N&O&V#P&i%Q&@&R&S&s@=+p@,@t@g$%&f$I@#%V+<$n%T&>#G${$o&K%U&J$9#|%I$j$|%n%|%o%H$J$J$k%]@7#m%L$b#^@:+f+&%@&V&W&  X&Y&Z&`&^ ^ ^ { { ^ ^ ^ ; ^ ! ! ^ ; ^ { { { ",
"g m ; l ; > ; , l : ' ' ' l C %  *.*+*@*#*Y%$*%*h+W#x#&*S&X#S&**K%9#'@'@t@n%%&w#I@;#o%<$7#t@~@J%{$e+K%:$I$m%&&=*$%|%#&7#m%l%l%j$<$$&:$H$&*p%H$^@.&$%@&-*;*>*n+,*'*)*!*^ { { ^ : ; ^ l ; ^ ^ > { > { > ; ",
"g ; l l ~ l ^ ) ] : ' ' : m#F ~*{*]*^*/*(*W&%*_*:*g$%&K%K$/$+&!@>#J%'@'@9#$&%&w#f$x#o%L$L$B+n%g$-#w#K%:$I$:$&&I$$%7#n%T#u#l%l%$%J$V+Z#y#C+<*l%W#X+i$R&[*_*}*|*1*2*3*x ; { { ; l l ^ > l > ] { { ! ^ > l ",
"4&h ^ ; ; ^ ^ ! ] l ' ' : C Z$4*5*6*7*8*9*0*a*a*h+L$>#9#k%.&D$;#:$H$9#t@V+0@o%s@f$w#!@G$L$|%L$L$;#o&%&:$j$Z#|%($L$~@~@7#9#L$|%J$:$9#E&i+e+M@S&*&&%i$@&b*_*a*c*d*e*f*g*H&{ ; , , l ; > ^ { ( { > { ^ l l ",
"H ! ; ! ^ ! ! ^ ; l : : : e h*i*j*k*l*m*n*o*a*{ p*g$W+m%<$h$e$:%K%g$%%V+0@0@]@A+e$I@r@;#g$|%:$L$E$o&K%7#Z#Z#Z#&%g$]@~@]@T#7#n%&&#&=#_&<+{$%&.&X#i$I$^$G%_*a*q*r*s*t*u*v*; : , ; l l l { { > > { { l : : ",
"M.; ; ; ^ ! ! l ~ : : : B 5+p+ +w*x*y*z*A*B*C*4%Q&S&]@g$T#M@D*<+9#t@H$%%0@t@B+g$f+f$[%8#>#l%:$<$E$;#o%L$|%%%H$g$~@B+W+J%J%n%#&|%J$J%<+.%r@G$o%^$E*I$^$F*a*G*H*I*J*K*L*O.M*B ; ~ ; ^ ^ ^ ^ ; ^ ^ l l : l ",
"] ^ ^ ~ : ; ! ^ ~ : ~ ~ N*$ %@O*P*Q*R*S*T*Y#U*}@B&j%E&>#=+&#)$<+~@'@o%I$#&0@0@~@g$<+)@F$<%L$<$l%+%V*G$L$:$Z#&%]@~@]@K$J%~@n%n%&&&%f+<+)@)$G$m%g+c&*&W*X*_*Y*Z*`* =.=+=@=.+: N*B : ^ ^ ^ ^ ~ l : l ; ! ^ ",
"] ! l ^ ^ ^ ! ] ^ ; ^ m } m { #=$=%=(@&=]@K$Q&(%B$:*p%$#*=K@*=D*~@M$v#K$==V+-=0@~@u#8##%'@T#<$L$/$a#.&L$:$<$J$+%W+g$L$~@H%7#&&i$W#b&D*L@L@>#<&;=<*R&>=C*%*,='=)=!=~={=]=^=/=(=c c W g g [ < ; : ^ ! ! ; ",
") ] ! ^ ! ) ^ ! { _ _=w #.< :=<=[=}=|=1=V*@&W*[*2=p*3={$&#K@*=D*B+H%v#4=5=6=-=T&0@B+~@'@M$T#<$b#p%V#f+b#&%L$g$]@7=J%g$0@U+|%i$&%[+[%q@)$)$~@V+:&_&^$@&2=i%C$8=9=0=a=b=c=d=Z x.e=(=a E f=} x ; ^ ^ { > l ",
"] ! ^ ; ^ ] ] ] ( g=D h=i='.j=k=l=m=n=P&o=L%R&p=q=p%U#)$*#K@J@D*B+0@9#4=_$I$#&$&U+V+L$7#M$T#J$E&j%r@**g+_$H$>#]@K$Y#9#0@V+J$@&a#w#q@n@%#)$>#V+~@**D&@&L%Q&r=s=t=u=v=w=x=y=z=k#A=A=Y%e=o | w x { ] { ^ l ",
"^ ; ~ l ; { ( { { B=w #.p C=D=E=F=G=H=U#L$H$X#^@o=2=[+*#K@K@J@<+~@U+0@9#+%$%I%#&U+V+:$:$T&7#L$U*I=z+M@%&b#D&g$]@K$K$J=U+:$c&p%F%8#n@p@%#z+~@t@B+K%+%^$H$+%L%K=L=M=N=O=P=Q=R=Y 4 S=M#n+E C T=F h { { { ^ ",
"; l : l : l { { ; [ } m t&U=V=W=X=Y= $K$I$/$.&V#U#:%r@J@K@K@)$<+~@0@V+t@v#&%B#}%n%V+:$==7#T#a#Z=D$e+;#!$=#E&Y#~@:$:$@%#&B#+& %Z=q@'@p@)$L@G$U+0@@%m&o=*&<&&%`= -.-+-@-#-$-%-&-*-s &$@@=- +b i ; ^ { y ( ",
"; l : ' l , , > < g E p --Y ;->-,-'-)-&%^$2=n&+&y#A&<+L@*#&#)$<+~@t@V+t@m%K$_$B#!-#&7#:$>#U#[+f$z+e$Z=~-:&a&p%:$#&k$<&&&/$Q& %D$8#n@S+)$)@~@~@t@9#V*+&L%b#**V#{-]-^-/-(-_-:-<-[-}-|-v$9 E y.c l ^ { a.k ",
"^ ^ l l : l , : i f=/#U@1-4 2-5%3-4-V*D&p* %b&g+o=A&a&S+)$*=)$!@B+V+:&@%&&I%_$E*!-!-L$L$L$<+5-e${$:%[+w#E$M$g$H$&%c&==i$E*<*V#V#w#z+8#%#L@>#~$<%m%k$6-*&H$n&5-:%7-8-9-0-a-}@A$!%;%b-c-d-e-1@e m ! { y ( ",
") > > , , : ' ' e $ /#f-g-h-7 i-j-k-=&l- % %C&b#o=T+:&u#<%L@[%<+~@v#K%&&I%==m-X#!-n-I$&%$#D$I=e+-#W#<*o&-#=+~$:$*&o-=*($/$a&s@a#h$x#w#w#[%q@=+f+L$}%6-I$H$x#I=e$U**&p-q-{ %*%*4%r-s-t-u-v-7$d m ^ ! ^ { ",
"> > ] ] > > ' ' 5+3 w-x-y-|#`.z-A-@&B-Z=C+[+T+@&C-T+:&v#%&%&z+r@<%m%&%k%n-I%m-D-($!-&%p*D$b&D$b&s@:$n%f+w#{$~$m%%%E-o-F-F-a&;#K%a&a#G-b&e$r@X+&%Z#I%#&&%&%a&n&Z=:%D&c#H-{ %*(%I-J-K-%@p+0%p  +4&] { > , ",
"^ > > { ] ) x {.U L-M-N-O-P-Q-z-R-W*D$S-i+~-V*A#o=s@v#:&T-K%!$<+g$J$Z##&#&==m-U-F-o-y# %i%e+L@A&g$H%U+7#s@z+;#K%V+&%F-V-W-a&=+v#v#~$a#V#Z=y#*&%%]@~@7#H$c&W+**w#[+C&.&C-z-X*X-Y-Z-`-3+-$. 7$t  ;I > l ' ",
": , , , > :#.;+;+.o @;#;w%$;%;&;*;=;=;i+-;9@;;V->=T+~$<%:&v#V*<+J$&&I%#&m%==_$A#F-L%i+I=I=z+D*>#H%>;,;B+g$o&[%=+9#]@F-';U-G$E$v#'@~$<%a#&*D&5=n-B+~@:$*&c&6-m%;#r@o&C&]$F*);3=!;~;{;W@s$];p t F ).^ l ' ",
"' l l l > x *$p+^;@./;(;{ _;:;l-&*i+i+C&-;<;U&[;>=s@v#;#:&M$%&T+Z#Z#!-$&9#}%B#A#@&A&i%I=w#-#u#H%o@>;'@T&n%u#o&-#=+t@k$D-';g+v#'@=+~$<%A+.&=*!-&&B+~@:$c&E-U&V+v#0#r@-;F%j%*;:*5-};|;|*1;f=X % 4&; l : ' ",
", l l : , 6+5+l 0.2;3;4;X*5- %]$]$C&~--;m&<&b#A#C-**;#-#:&<%K%<+Z#I%k%$&K%%%m-D-Q&D$Z=e$)$<%~$o@*#H%~$,@-={@s@)@#%v#H%&%5;W#v#=+=+~$<%!$V*Z#!-&&]@~@7#&%E*o-6-9#K%x#-;T+A&[+B&C+6;7;v .@8;p b i : : : , ",
", , l ' , 6+!%0.x.9;0;a;b;i%i%i++&f+V*=#;;4=y#c;q=V*=+w#=+K%<%!@I%k%n-t@9#==m-W*=;Z=f$z+!@G$n@%#{$<%~@p@d;e;~@0#w#8#t@~@*&K$9#E$#%=+~$!$V*J$n-#&m%~@:$&%R&*&*&W+%&x#F%&*=;I=C+P&f;g;h;i;j; +f=B : : ^ ] ",
"> , l l 0.*$}@o+n+k;l;m;B&B& % %F%.&g+W+6-=&n;H-q=%&v#I@-#!$V*9@!-&&n%~$:$%%^@S-b;Z=Z=r@$#D*z+I=r@*#F$n@K@,;e;V+C&r@=+~$~@L$7#K%!@)@!@s@s@Z#&&#&V+V+K$L%Q&h+X#Y#g+B-&*S-5-Z=C&o;p;q;r;s;t;p b : : ~ ] y ",
"> l l : 0.e-'.[@u;v;w;x;i%5- %P&Z=<+X+7=4=^@C*:*W#o%K%!@w#-#!$!@I%:$M$B+J$o=b*B&b;I=[+G-D*f$5- %{$K@&#8#L@*#,;U+f+w#)@=+9#]@Z#a&A+!@o&<+A+J$#&<&V+7#b#p*S-[*z#k$Y#+& %B&=;:%C&y;z;A;B; *C;[ b - ^ ! { { ",
") ^ l l 0.!%9 B%d%D;E;F;5-5- %A&r@b&G;+%b#p%H; %f+Y#m%V*{$I@o&q@<$m%<%Z#b#P&b;B&I=D$!@q@w#B&5-D**#K@K@#%;#%#F$-=U+!@b&{$~$9#4=Y#%&V*;#)@s@]@0@V+K$&%<*S-i%);c;Y#B-i+Z=S-A&C&~-I;J;K;L;. ^#M;;-:#! ! ! ! ",
", l l l 0.!%1@&$W$N;O;P;Z=D$n&C&**C&G;V*+%_&Z=5-i+B-D&=#!${$)@q@&&m%g$H$j%C*{ I=D$<+$#*#f$B&{$*#&#K@K@&#F$n@*=d;,;B+x#[%#%1%m%K$g$m%<%s@!$g$~@4=&%<*i+{ a*b*^$.&T+C&C+C&x#C&~-Q;R;S;T;4+8 C )%B={ ~ : ; ",
"l l l l f 5+1@U;W$V;W;X;Z=i+~-~-****m&B-a#b&I=Z==;&*f+K$]@v#;#M@I%#&j$.&i%5-z-D$r@a#~$K@%#z+n@&#&#&#K@K@p@T&,@o@d;e;u#r@-#;#T-u#]@]@m%E$!$~@n%K$a&[+Z=B&5- %y#.&**C&i+-;-;G;o;Y;Z;`; >q .>#.+>B=y ^ : ; ",
"' ' : ' : c }@V%w&@>#>X;e$.%C&~-**V*m&=#W#n&b&r@r@G-+%f+$%]@K%K%&&$>($p%%>h+h+_%]$u#,@d;o@n@*#%#)@*#K@K@M$-=,;d;d;>;U+W#a#W#Y#D&R&:$m%!$E$]@K$W+-;-;D$n&i+~-S&+%**C&-;G;-;s@&>*>=>->;>--&.>>C h > > l ' ",
"l , l : l ' 5+A=n+,>'>)>!>T+m&-#E$m&m&a&g$~-o&!@G;K%&%4=$%B#+%=#$>~>($D-H-]$n;C*&;a#~$d;K@{$r@I=I@&#K@K@,;e;d;o@d;,;7#+%a&+%H$_$/$Z#V+=+s@J%c&U&;=-;-;G;X+g+$%7=m&V***9@9@V*{>]>^>/>(>A='._>H > ^ > : l ",
"> ; > > ^ m c A%H+:><>[>}>p&K%E$E$T-m&=#K$-#-#=+E$:$&&!-j$B#b#W+j$i$5=E-c;^@&*=; %P&%&>;J@w#D*!@#%&#&#&#,;,;o@d;,;$&u#T-<&J$$%E-J$<$~@;=f+y#=&U&<;-;-;;=<&k$I$K$T-**V***G;9#|>1>2>3>4>A=a = - ! ^ > ^ l ",
") > { ] ( N } 6$V%5>6>7>8>9>m%=#:&V*V*=#g$x##%=+v#:$n-n-=*^@F%o=X#5=6-($[;R&<*:%[+b&h$<%F$)$8#~@M$p@p@,@e;d;d;,;$&~@E$m%!-B#B#]@:$J$o%V*Q&&;.&%%1%-;G;m&U&==I$:$=#V*V*E$T-0>a>b>c>d>= e>Y W h ^ l , > , ",
"! { ] ] y ] [ b c%e f>`+g>h>:&K$:&T-T-m%g$K%=+=+v#I%n-&&=*p*i%:%D&!-6=F-[;c#L%+&;#{$o&s@!$8#*=M$U+$&U+e;>;o@,;-={@E$M@K$j$/$z#]@]@L$+%W#:*5-p*%%m&-;9@=#7===I$Z#=#E$V*:&K$i>j>k>l>m>n>8 a e ; ^ , ; ^ , ",
"^ ^ ] { ! ! ; 0.p+o>h-p>q>r>;=B-+%V*T-=#g$g$V*;#E$I%&&$>*&]$i%C*C&b#m-W-A#s>c;S&V*;#-#s@a#S+K@K@-=$&e;0@p@,;-=U&f+!$]@$%@&c#X#Z#]@K$S&!;{ B&U**&;;G;9@<;;;K$i$===#E$m&g+%%t>0-u>v>1-k#J+a = ^ ^ ; ; : : ",
"; ^ > > ^ > ; e 3 o+# a*w>x>y>;=K%W+:&9#]@Z#+%9@:&!-n-i$E& %5-C* %s@k$W-A#5;z>A#+%f+8#-;Q&$#;#F$d;$&e;t@,@t@$&+%f+o%I%c&z#s>_$J$D&X+C&B&{ i%=;b#<;-;-;7=A>k$($Z#=#V*W+%%A>B>C>D>y$`.E>E ^ F h ^ l l ' : ",
"l ; , ^ > > > < *$+.F>G>>*H>I>+%T-=#]@m%0@K$*&Y#k$==&&I$o=5-B&C*=;C&B-m-s>z>z>^@S&+%V*C&T+y#V*!$=+V+B+,@0@~@K$a&W+:$j$D&y#c;X#*&_&=;5-i%i+i+-;E&=#-;J>===*E-j$Z#=#]@}%U&k$K>G*}@s&5$F> +% [ ^ ; ^ ^ ; l ",
": l : l > > > > L>p+. ^&M>N>O>*&+%=#U&{@0@K$S&V#>=j$I$j$o=z-i%i%I=e$V*;;@&s>>=-;.&+%G$a&V#G-a#V*E$1%@%~$V+7#>#W+k%J$$%+%-;^@R&.&n;Z=5-Z=&*F%G;b#W+=#====7=o-i$==<&K$6=$>W-P>Q>}@R>s$. }@b m ; ! > > ) ) ",
": l : : , , , > f 5+^;S>T>U>V>k$c&7=7=U&{@K$]$5-i+Y#B#W->=i%B&5-I=e$-;;=V*L%_&F%G;W#+%f+G-D$A&a#9#T&V+o%K$+%9#n%&&$%g+**G;_&y#T+Z= %Z=Z=W>G;9@K$k$5=5=6-J>=*$>$>&%k$5=E*~>X>Y>Z>8$`>A=1@e l ; > > ) { { ",
", , , : ' ' : : l {. ,.,+,@,#,$,Z#j$c&k$#&k$b#i+b&**W+j$q=C*5-I=D$C+G;9@m&a&=&**x#f+7#>#V*i+[+<*:$]@{@K$S&=#0@n%$>*&=#V*a&a#**C&Z==;D$D$G;G;G;c&i$$>!-A>J>($~>}%k$*&F-($!-%,&,*,=,`>A=y.e , ; > > , , , ",
"^ > , : ' l l ' l f Y t&-,;,>,,,n%I$W-k$U&!-_$+&~-E$<&$>q=Z=Z=D$r@n&G;V*0#;=+%K$B-9@a&>#W#W#<*<+H$I$I$Y#f+m%6=k%$%W+K%X+X+s@x#<+e$[+n&C&;=G;9@=*($$>6=<&<&E*($==c&V-($5=6-',),!,~,{,M#3 0.: l l l : : l ",
"> > , : l > : : : 0.5+0.1;],^,/,(,!-W-W-!-$>F-K$<;1%V+$>J%Z=e$n&s@~-x#V*;=E$m%o%k$+%V*J%+%q@<+x#<*@&=*a&!$m%6=o-Y#K%7=U&m%m&**x#C&G-C&f+m&-;G;=*($k%6=<&4=F-E-E-V-($$>$>6=_,:,}@^&. '.e : ' ' : ' ' ' ' ",
"> > ^ l , , ; > l l g /#6+a <,[,},$>/$V-($($E-V-A><&n-$>D&C+e$x#f+9@0#V*G$T-:&:&W+Z#W+g+J%%&V*;#r@S&g+K%~@U&k$o-B-=#4=U&m%T-V*G;x#a#m&a&<;;=-;o-($n-!-{@k$D-F-[;($($$>($|,1,L+T$9 B@6$C , : : : ' l l l ",
"> ^ l ; ^ ; ^ > l l L>C 2,r 2-3,4,5,c#U-[;($E-F-E*$>&&$>L%G;9@9@=#a&9@**X+=#T-:&{@:$}%b#g+J%K$%&o&<+f++%L$R&c#Y#b#5=6-6-{@=#T-m&**V*=#=#<;;=9@c&i$n-!-==($V-E*($F-m-($6,7,8,  0$. 1@} 7+, , l l l ' ' l ",
"l l l ; ^ ^ ^ ^ ; ; m (#'.Y 5 9,0,a,V#b#[;F-($F-[;i$i$I$c&B-g$:&<;g+m&**=#o%E$:&<&U&!-c&@&*&W+K%0#.&>=]@b#A#D-B#~>5=6-6-6-<&T-m&m&V*<&=#<;<;;=o-($$>$>V-F-b,($F-%%J>c,d,e,7 h-f,c%E f l > > , : l ' ' l ",
"^ ; ; ; ~ ^ ^ ^ ; l m b C=3 g,d*h,i,9@V*@&V-V-A#A#U-W-~>E-%%]@J=<;A>=#E$<;W+K%1%{@K$I%$>=*($5=<&V*+%b#]@I$U-/$$%~>=*!-6-{@m%K%K%E$=#6==#<;X+b#W-($o-V-[;($($E-&%j,k,l,m,n,s&f,V%7$*$, , , l l l l l : l ",
"{ ^ ^ ; ^ ; ; ^ ; l ; e p t&o,>%p,q,=#m&=#==W-[;[;';[;A#V-X#6={@J>J>W+=#;=;;U&J>U&k$b#j$~>=*($k$=#Y#c&{@k%V-E*I$o-o-=*U&{@<&=#<;=#K$]@{@<&&%c#W-m-U-U-V-F-($!-r,s,t,u,v,`.6&B%A%!%0.l l l l l ^ , , , , ",
"; ^ ^ ^ ^ ~ ; ; ^ ^ ).w [ p w,y$N x,y,<&{@I%($F-F-F-A#[;c#c;c#g+W+=#=#]@J>W+6=#&b#D&F%=&*&~>/$B#=#K$&%]@E-F-I$j$_&.&j$6=6-<&:&K%#&U&{@<&U&A#c#X#D-D-A#A#F-($z,A,B,C,D,E,F,--c%y.B : l : l : ^ ^ > > > > ",
"^ ^ ^ ; ~ ~ ; ; ^ ^ ).w #.V G,H,a$4%I,C#j$W-D&+%@&>=J,l-l-K,^$b,k$;;K%=#K$U&<&<&b#&*i%T+b#j$W-U-X+W+c&&%V-($($b#i+A&L%}%6=J>J=K$#&{@A>==B#@&.&a&<*+&*&L%=&L,M,N,O,P,Q,R,S,t&a e l > , > > > > > > > > > ",
"; ; ; ; ; ^ > ^ ^ > { x e-9 0 w,T,M>4%U,V,R&s@-#a&W*H;}@{ i+B-k$W-m-U&<&m%6-U&4=y#C*{ F%7=o-m-V-c&g+R&V-U-($=*+&=;r@a&*&~>6=I%U&{@]@k$F-/$+%0#o&i+V#c&W,X,Y,Z,`, '.'+'Z@@'q b 0.l l l l l , ^ , , , ^ > ",
"{ { { ! > > > ^ ; ; ; l e y.#'f@H,g,$'X*%'&'r@V*a&b#_&i+-;**;=<&==($E-k$J>J>K$S&T+I=B&Z=**4=j$V-F-X#D-V-V-*&X+i+i%x#W+5==*I$}%6-<&#&E*X#k$J>!$**+&*&k-*'='-';'>'L+`.F>8 3+{.g l l ; l l , ) > > l l l ^ ",
": ~ ~ { { > ^ , l > ; ; g E '.q N#,'2-'')'!'~'7=K$o-D-L%a#<;:&<&U&$>($=*7=+%Y#B-i+S-i%I=C&X+k$W-A#c#c#V-o-X+C&B&5-!@W+U&o-=*U&{@k$E-E*:$<&:&=#g+{']'^'/'('_':'<'['}'|'1@|@4&h ^ > ; ; > l l l l l l l l ",
"~ ~ ; ^ > > ^ ^ l l l > m#} (#9 w&M#1'2'3'4'5'd#_$V-';5;m-;;<&]@6-}%~>($o-b#^@-;~-C&**C+Z=F%X+%%[;[;U-A#;;W>S-B&Z=r@]@U&!-=*k$5=W-W-$>6-J><;6'7'8'9'0'a'b'c'd'e'( @@f'e-m l l ; ^ ^ ; > > > > > > , > ^ ",
"^ ^ ! { { ! ; l l l l > , C } 3@8 g'S=n#2'h'i'j'k'l'5;5;[;b,6=6=6-!-$>$>E-m-s@<+~-0#W+f+C+5-s@<&o-';';k$B- %X*Z=T+T+Z##&6-I%m-F-F-($&&#&m'n'o'p'q'r's't'u'v'(;w'3+y%& x ^ ^ ^ ! > > { ^ > > ^ ^ l l , > ",
"^ ^ { { y ! ; : : : : : l : m } 3@E 3 . =$6 x'`.y'z',=A'B'C'F-k$5=$>$>$>E-*&**A+!$;#V+$&+&[+~-m%7=m-k$<;x#5- %**!$x#7#&&#&K$E-F-($($D'E'F'G'H'I'J'K'L'#=M'f=K.a V &.x ).{ { { ] ] { { ] { > > > > , l l ",
"N ! ^ ^ ; ; l l , > > { > > / [ } 3@p w&G,r x&5 M&N'!%A$H>O'P'Q'R'R'b,b,E-*&B-V*!$=+V+{@U&g$A>6-4=k$;;<;;=****<;;#-#o%&&I%c&S'L,T'U'V'W'X'Y'Z'_>U@`'g@g ^#M#'.V - N ^ ^ ^ ^ ! ^ ^ ~ ~ ~ ^ > , l l > l l ",
"} < ; ~ ; ; ; l l ^ , l l > l / x & 6$p g@o# *w,o,5 y$z$ ).)3,+)@)#)$)%)A#D-Y#V*m&E${@6=6-6=6-!-}%~>k$;;J>:&K%:&E$E$&)*)=)-);)>),)')))!)~){)])L-S,G,% m#> ^)[ - ).{ _ { ^ ^ ^ ^ ^ ^ ^ ; l l , l l > > > ",
"^ w - ] y ] ] ! ^ ; ; : l l l , ).G v #.0 L#3 --M#4 g@5$}@8&}@s-/)()_):)<)[)})|)V*;=A>!-!-!-!-5=j$E-E-=*]@J=@%1%1)2)3)4)5)6)7)8)9)0)a)/&7$b)k#N#8 1@e c N*i ^ ^ { { { > ^ ^ ^ ! { > { { > > , , l l l l ",
"c)@.n < ^ ! ! ! { { _ j j y { > l : : e c 5+7$Y%A=];4+4 `.`.d)    S$ )e)(%}@{ f)g)h>h)i)j)5=$>($W-=*($E-5=U&m'k)l)p;m)n)o)p)r$2-q)9 q)E N#t&n#[ a b W C ^ ; ^ ^ ~ ^ ^ ^ ^ ^ ; ! > > ) ; l ^ , l l l ^ ^ ",
"+ e=$ ' : : : : ^ ! { ] { ^ l l l l , , f } e-#.p w&t&N#M#k#r)4 s)s =$t)M&}@`.u)v)w)x)y)z)A)B)C)D)R'R'E)5,5,F)G)H)I)J)K)K&L)v$M)y.A=k#1@$ $ c L>4&- h ! ^ ~ ^ ^ ^ ^ ^ ^ ^ ^ ^ ^ ; ^ ) > l > > ) ) ) ] { ",
" )m 1@c B l l ; ^ > { > > ! ^ ^ ^ , , ^ ^ m g W f=E o 7$C=f@Y@c)Z@N)p+W$#'h-$'8$O)P)Q)R)S)T)U)V)W)X)Y)Z)Z)`) !.!+!@!#!$!i&$@e>k#$ $ c c ' ' : : ^ ^ ^ ^ ^ ^ ! ! ^ ^ ^ ^ ! ! ^ ; ; l , l l : : l , , ^ > ",
"4 M#J+1@d e , , l : : : , l l ; > > , ; , : ; m 0.g b c %!&!0 t *!f'=!-!Y r)-$6&X%h-5$h-h-h-_>;!>!,!'!)!e,N   h-5 9$. N#^#/#!!%!c e B l ; ; ; ; ^ { { { { { { > ! ; > ^ { y { { y > ! l , l : : ' ' ' : ",
"  # s$d)# e 0., ; : ' ' ' ' ' ' : , , : l ; ; ; ; ; m i g } & @.&!~!7$L##'A={!{!f,r)]!^!/!o,o,5 n>2-5$h-h-5$b-u;w,1-q n#(=f=N*i ; ~ ~ ; { { y { { { { > > ; ; ~ ; ~ : ~ ; ^ ! ! ! ! , : , , , l , l l , ",
"}*(!`>s$d)# c f > , : , : : : : : , ) ) ) ( y ( ( { > ^ : , m e 6+c 5+a 0 '.9 8.l._!%@9 1-s M#b):!4 1'{!5 1'. k#v$|',.<![!x _={ ! ! { { ! _ ( _ y y y { { ^ ; ; > { { _ { ! ! ^ l : ' : : , > ] ) { , : ",
"}!}*(!`>s$d)# e 0.l , > , , , , ; > ; > { ] ] ] { { ( { ! > > > < m g 6+e e-#.6$6$'.9 C=8 t&t&A=$@N#$@{!{!e n+; @.^ = 4&).|!k k k k k _ ! ~ ~ : : > > ^ ^ ; ^ > { ] ( _ { ! ! { > ; , ; ; > > > > , : l "};
